(.../external_usr-lang-prog/pcbgcode/pcb-gcode.ulp)
(Copyright 2005 - 2012 by John Johnson)
(See readme.txt for licensing terms.)
(This file generated from the board:)
(.../ant-robots/docs/eagle/dueSkel2.brd)
(Current profile is .../pcbgcode/profiles/generic.pp  )
(This file generated 9/5/2017 3:07 PM)
(Settings from pcb-machine.h)
(spindle on time = 3.0000)
(  Tool Size)
(0.0070 )
(spindle speed = 30000.0000)
(tool change at 0.0000 0.0000 1.0000 )
(feed rate xy = F20.00 )
(feed rate z  = F10.00 )
(Z Axis Settings)
(  High     Up        Down     Drill)
(0.5000 	0.1000 	-0.0070 	-0.0320 )
(Settings from pcb-defaults.h)
(isolate min = 0.0010)
(isolate max = 0.0200)
(isolate step = 0.0050)
(Generated top outlines, top drill, bottom outlines, bottom drill, )
(Unit of measure: inch)
(Inch Mode)
G20
(Absolute Coordinates)
G90
S30000
G00 Z0.5000 
G00 X0.0000 Y0.0000 
M03
G04 P3.000000
G00 Z0.1000 
G00 X0.0085 Y0.0855 
G01 Z-0.0070 F10.00 
G01 X-3.3785 Y0.0855 F20.00 
G01 X-3.3812 Y0.0866 
G01 X-3.3834 Y0.0888 
G01 X-3.3845 Y0.0915 
G01 X-3.3845 Y2.3085 
G01 X-3.3834 Y2.3112 
G01 X-3.3812 Y2.3134 
G01 X-3.3785 Y2.3145 
G01 X-3.3755 Y2.3145 
G01 X0.0085 Y2.3145 
G01 X0.0112 Y2.3134 
G01 X0.0134 Y2.3112 
G01 X0.0145 Y2.3085 
G01 X0.0145 Y0.0915 
G01 X0.0134 Y0.0888 
G01 X0.0112 Y0.0866 
G01 X0.0085 Y0.0855 
G00 Z0.1000 
G00 X-0.3694 Y0.1396 
G01 Z-0.0070 F10.00 
G01 X-0.3690 Y0.1401 F20.00 
G01 X-0.3687 Y0.1408 
G01 X-0.3682 Y0.1414 
G01 X-0.3678 Y0.1420 
G01 X-0.3672 Y0.1424 
G01 X-0.3668 Y0.1428 
G01 X-0.3665 Y0.1435 
G01 X-0.3663 Y0.1442 
G01 X-0.3659 Y0.1449 
G01 X-0.3656 Y0.1456 
G01 X-0.3651 Y0.1461 
G01 X-0.1590 Y0.4601 
G01 X-0.1587 Y0.4608 
G01 X-0.1582 Y0.4614 
G01 X-0.1578 Y0.4620 
G01 X-0.1572 Y0.4624 
G01 X-0.1568 Y0.4628 
G01 X-0.1565 Y0.4635 
G01 X-0.1563 Y0.4642 
G01 X-0.1559 Y0.4649 
G01 X-0.1556 Y0.4656 
G01 X-0.1551 Y0.4661 
G01 X-0.1547 Y0.4668 
G01 X-0.1546 Y0.4674 
G01 X-0.1546 Y0.4681 
G01 X-0.1543 Y0.4688 
G01 X-0.1542 Y0.4695 
G01 X-0.1537 Y0.4702 
G01 X-0.1535 Y0.4707 
G01 X-0.1535 Y0.4715 
G01 X-0.1536 Y0.4722 
G01 X-0.1535 Y0.4730 
G01 X-0.1535 Y0.4738 
G01 X-0.1532 Y0.4744 
G01 X-0.1531 Y0.4752 
G01 X-0.1532 Y0.4758 
G01 X-0.1535 Y0.4765 
G01 X-0.1535 Y0.4772 
G01 X-0.1536 Y0.4779 
G01 X-0.1535 Y0.4787 
G01 X-0.1535 Y0.6743 
G01 X-0.1568 Y0.6822 
G01 X-0.1628 Y0.6882 
G01 X-0.1634 Y0.6885 
G01 X-0.1655 Y0.6906 
G01 X-0.2181 Y0.7432 
G01 X-0.2226 Y0.7451 
G01 X-0.2233 Y0.7454 
G01 X-0.2253 Y0.7462 
G01 X-0.2274 Y0.7483 
G01 X-0.2284 Y0.7507 
G01 X-0.2286 Y0.7511 
G01 X-0.2340 Y0.7641 
G01 X-0.2459 Y0.7760 
G01 X-0.2615 Y0.7825 
G01 X-0.2785 Y0.7825 
G01 X-0.2941 Y0.7760 
G01 X-0.3060 Y0.7641 
G01 X-0.3120 Y0.7498 
G01 X-0.3141 Y0.7476 
G01 X-0.3168 Y0.7465 
G01 X-0.3232 Y0.7465 
G01 X-0.3259 Y0.7476 
G01 X-0.3280 Y0.7497 
G01 X-0.3281 Y0.7498 
G01 X-0.3340 Y0.7641 
G01 X-0.3459 Y0.7760 
G01 X-0.3615 Y0.7825 
G01 X-0.3785 Y0.7825 
G01 X-0.3941 Y0.7760 
G01 X-0.4060 Y0.7641 
G01 X-0.4120 Y0.7498 
G01 X-0.4141 Y0.7476 
G01 X-0.4168 Y0.7465 
G01 X-0.4232 Y0.7465 
G01 X-0.4259 Y0.7476 
G01 X-0.4280 Y0.7497 
G01 X-0.4281 Y0.7498 
G01 X-0.4340 Y0.7641 
G01 X-0.4459 Y0.7760 
G01 X-0.4615 Y0.7825 
G01 X-0.4785 Y0.7825 
G01 X-0.4941 Y0.7760 
G01 X-0.5060 Y0.7641 
G01 X-0.5125 Y0.7485 
G01 X-0.5125 Y0.7315 
G01 X-0.5060 Y0.7159 
G01 X-0.4941 Y0.7040 
G01 X-0.4785 Y0.6975 
G01 X-0.4754 Y0.6975 
G01 X-0.4746 Y0.6975 
G01 X-0.4736 Y0.6976 
G01 X-0.4730 Y0.6975 
G01 X-0.4670 Y0.6975 
G01 X-0.4664 Y0.6976 
G01 X-0.4655 Y0.6975 
G01 X-0.4615 Y0.6975 
G01 X-0.4498 Y0.7024 
G01 X-0.4489 Y0.7027 
G01 X-0.4471 Y0.7035 
G01 X-0.3929 Y0.7035 
G01 X-0.3902 Y0.7024 
G01 X-0.3785 Y0.6975 
G01 X-0.3754 Y0.6975 
G01 X-0.3745 Y0.6975 
G01 X-0.3736 Y0.6976 
G01 X-0.3730 Y0.6975 
G01 X-0.3670 Y0.6975 
G01 X-0.3664 Y0.6976 
G01 X-0.3655 Y0.6975 
G01 X-0.3615 Y0.6975 
G01 X-0.3471 Y0.7035 
G01 X-0.2929 Y0.7035 
G01 X-0.2902 Y0.7024 
G01 X-0.2785 Y0.6975 
G01 X-0.2754 Y0.6975 
G01 X-0.2746 Y0.6975 
G01 X-0.2745 Y0.6975 
G01 X-0.2736 Y0.6976 
G01 X-0.2730 Y0.6975 
G01 X-0.2670 Y0.6975 
G01 X-0.2664 Y0.6976 
G01 X-0.2655 Y0.6975 
G01 X-0.2615 Y0.6975 
G01 X-0.2477 Y0.7032 
G01 X-0.2469 Y0.7037 
G01 X-0.2463 Y0.7038 
G01 X-0.2458 Y0.7040 
G01 X-0.2450 Y0.7040 
G01 X-0.2445 Y0.7042 
G01 X-0.2436 Y0.7042 
G01 X-0.2426 Y0.7043 
G01 X-0.2421 Y0.7042 
G01 X-0.2415 Y0.7042 
G01 X-0.2407 Y0.7038 
G01 X-0.2397 Y0.7036 
G01 X-0.2393 Y0.7033 
G01 X-0.2388 Y0.7031 
G01 X-0.2381 Y0.7024 
G01 X-0.2373 Y0.7018 
G01 X-0.2371 Y0.7013 
G01 X-0.1976 Y0.6619 
G01 X-0.1965 Y0.6592 
G01 X-0.1965 Y0.4844 
G01 X-0.1964 Y0.4837 
G01 X-0.1965 Y0.4830 
G01 X-0.1965 Y0.4822 
G01 X-0.1968 Y0.4815 
G01 X-0.1969 Y0.4808 
G01 X-0.1973 Y0.4801 
G01 X-0.1976 Y0.4794 
G01 X-0.1982 Y0.4789 
G01 X-0.3940 Y0.1805 
G01 X-0.3943 Y0.1798 
G01 X-0.3948 Y0.1792 
G01 X-0.3952 Y0.1786 
G01 X-0.3959 Y0.1782 
G01 X-0.3964 Y0.1776 
G01 X-0.3971 Y0.1774 
G01 X-0.3977 Y0.1770 
G01 X-0.3984 Y0.1768 
G01 X-0.3992 Y0.1765 
G01 X-0.3999 Y0.1765 
G01 X-0.4006 Y0.1764 
G01 X-0.4014 Y0.1765 
G01 X-1.1484 Y0.1765 
G01 X-1.1492 Y0.1764 
G01 X-1.1499 Y0.1765 
G01 X-1.1505 Y0.1765 
G01 X-1.1513 Y0.1768 
G01 X-1.1521 Y0.1770 
G01 X-1.1527 Y0.1774 
G01 X-1.1533 Y0.1776 
G01 X-1.1539 Y0.1782 
G01 X-1.1546 Y0.1787 
G01 X-1.1549 Y0.1793 
G01 X-1.1554 Y0.1798 
G01 X-1.1557 Y0.1805 
G01 X-1.1767 Y0.2138 
G01 X-1.1772 Y0.2142 
G01 X-1.1775 Y0.2150 
G01 X-1.1779 Y0.2157 
G01 X-1.1780 Y0.2164 
G01 X-1.1783 Y0.2170 
G01 X-1.1783 Y0.2178 
G01 X-1.1784 Y0.2187 
G01 X-1.1783 Y0.2193 
G01 X-1.1783 Y0.2200 
G01 X-1.1780 Y0.2208 
G01 X-1.1778 Y0.2216 
G01 X-1.1774 Y0.2221 
G01 X-1.1772 Y0.2227 
G01 X-1.1766 Y0.2233 
G01 X-1.1761 Y0.2240 
G01 X-1.1755 Y0.2244 
G01 X-1.1740 Y0.2259 
G01 X-1.1675 Y0.2415 
G01 X-1.1675 Y0.2446 
G01 X-1.1675 Y0.2452 
G01 X-1.1675 Y0.2455 
G01 X-1.1676 Y0.2464 
G01 X-1.1675 Y0.2470 
G01 X-1.1675 Y0.2530 
G01 X-1.1676 Y0.2536 
G01 X-1.1675 Y0.2545 
G01 X-1.1675 Y0.2585 
G01 X-1.1740 Y0.2741 
G01 X-1.1859 Y0.2860 
G01 X-1.2015 Y0.2925 
G01 X-1.2185 Y0.2925 
G01 X-1.2341 Y0.2860 
G01 X-1.2460 Y0.2741 
G01 X-1.2525 Y0.2585 
G01 X-1.2525 Y0.2415 
G01 X-1.2460 Y0.2259 
G01 X-1.2341 Y0.2140 
G01 X-1.2282 Y0.2115 
G01 X-1.2274 Y0.2113 
G01 X-1.2268 Y0.2110 
G01 X-1.2262 Y0.2107 
G01 X-1.2256 Y0.2101 
G01 X-1.2249 Y0.2096 
G01 X-1.2246 Y0.2091 
G01 X-1.2241 Y0.2086 
G01 X-1.2238 Y0.2078 
G01 X-1.1849 Y0.1463 
G01 X-1.1845 Y0.1459 
G01 X-1.1842 Y0.1451 
G01 X-1.1837 Y0.1444 
G01 X-1.1836 Y0.1437 
G01 X-1.1832 Y0.1428 
G01 X-1.1829 Y0.1425 
G01 X-1.1822 Y0.1420 
G01 X-1.1819 Y0.1415 
G01 X-1.1814 Y0.1410 
G01 X-1.1811 Y0.1402 
G01 X-1.1809 Y0.1399 
G01 X-1.1801 Y0.1393 
G01 X-1.1795 Y0.1391 
G01 X-1.1789 Y0.1385 
G01 X-1.1782 Y0.1380 
G01 X-1.1779 Y0.1375 
G01 X-1.1772 Y0.1368 
G01 X-1.1768 Y0.1366 
G01 X-1.1760 Y0.1364 
G01 X-1.1754 Y0.1361 
G01 X-1.1748 Y0.1358 
G01 X-1.1742 Y0.1352 
G01 X-1.1739 Y0.1350 
G01 X-1.1730 Y0.1348 
G01 X-1.1723 Y0.1348 
G01 X-1.1715 Y0.1344 
G01 X-1.1707 Y0.1342 
G01 X-1.1702 Y0.1339 
G01 X-1.1693 Y0.1335 
G01 X-1.1689 Y0.1335 
G01 X-1.1680 Y0.1336 
G01 X-1.1674 Y0.1335 
G01 X-1.1667 Y0.1335 
G01 X-1.1660 Y0.1332 
G01 X-1.1656 Y0.1331 
G01 X-1.1646 Y0.1332 
G01 X-1.1640 Y0.1335 
G01 X-1.1632 Y0.1335 
G01 X-1.1623 Y0.1336 
G01 X-1.1617 Y0.1335 
G01 X-0.3885 Y0.1335 
G01 X-0.3878 Y0.1336 
G01 X-0.3870 Y0.1335 
G01 X-0.3862 Y0.1335 
G01 X-0.3856 Y0.1332 
G01 X-0.3848 Y0.1331 
G01 X-0.3842 Y0.1332 
G01 X-0.3835 Y0.1335 
G01 X-0.3828 Y0.1335 
G01 X-0.3821 Y0.1336 
G01 X-0.3813 Y0.1335 
G01 X-0.3807 Y0.1335 
G01 X-0.3800 Y0.1338 
G01 X-0.3794 Y0.1342 
G01 X-0.3786 Y0.1344 
G01 X-0.3779 Y0.1347 
G01 X-0.3772 Y0.1347 
G01 X-0.3764 Y0.1348 
G01 X-0.3760 Y0.1352 
G01 X-0.3754 Y0.1357 
G01 X-0.3747 Y0.1360 
G01 X-0.3741 Y0.1364 
G01 X-0.3734 Y0.1365 
G01 X-0.3728 Y0.1368 
G01 X-0.3723 Y0.1373 
G01 X-0.3719 Y0.1379 
G01 X-0.3712 Y0.1384 
G01 X-0.3707 Y0.1389 
G01 X-0.3700 Y0.1392 
G01 X-0.3694 Y0.1396 
G00 Z0.1000 
G00 X-0.3693 Y0.1415 
G01 Z-0.0070 F10.00 
G01 X-0.3709 Y0.1401 F20.00 
G01 X-0.3724 Y0.1386 
G01 X-0.3729 Y0.1383 
G01 X-0.3734 Y0.1379 
G01 X-0.3753 Y0.1370 
G01 X-0.3771 Y0.1359 
G01 X-0.3777 Y0.1357 
G01 X-0.3782 Y0.1355 
G01 X-0.3803 Y0.1350 
G01 X-0.3823 Y0.1345 
G01 X-0.3829 Y0.1345 
G01 X-0.3835 Y0.1344 
G01 X-0.3856 Y0.1345 
G01 X-1.1646 Y0.1345 
G01 X-1.1669 Y0.1344 
G01 X-1.1673 Y0.1345 
G01 X-1.1677 Y0.1345 
G01 X-1.1699 Y0.1351 
G01 X-1.1721 Y0.1356 
G01 X-1.1725 Y0.1358 
G01 X-1.1729 Y0.1359 
G01 X-1.1749 Y0.1370 
G01 X-1.1769 Y0.1381 
G01 X-1.1772 Y0.1384 
G01 X-1.1776 Y0.1386 
G01 X-1.1792 Y0.1402 
G01 X-1.1809 Y0.1418 
G01 X-1.1811 Y0.1421 
G01 X-1.1814 Y0.1424 
G01 X-1.1826 Y0.1444 
G01 X-1.2247 Y0.2111 
G01 X-1.2259 Y0.2115 
G01 X-1.2318 Y0.2145 
G01 X-1.2370 Y0.2183 
G01 X-1.2417 Y0.2230 
G01 X-1.2455 Y0.2282 
G01 X-1.2485 Y0.2341 
G01 X-1.2505 Y0.2403 
G01 X-1.2515 Y0.2467 
G01 X-1.2515 Y0.2533 
G01 X-1.2505 Y0.2597 
G01 X-1.2485 Y0.2659 
G01 X-1.2455 Y0.2718 
G01 X-1.2417 Y0.2770 
G01 X-1.2370 Y0.2817 
G01 X-1.2318 Y0.2855 
G01 X-1.2259 Y0.2885 
G01 X-1.2197 Y0.2905 
G01 X-1.2133 Y0.2915 
G01 X-1.2067 Y0.2915 
G01 X-1.2003 Y0.2905 
G01 X-1.1941 Y0.2885 
G01 X-1.1882 Y0.2855 
G01 X-1.1830 Y0.2817 
G01 X-1.1783 Y0.2770 
G01 X-1.1745 Y0.2718 
G01 X-1.1715 Y0.2659 
G01 X-1.1695 Y0.2597 
G01 X-1.1685 Y0.2533 
G01 X-1.1685 Y0.2467 
G01 X-1.1695 Y0.2403 
G01 X-1.1715 Y0.2341 
G01 X-1.1745 Y0.2282 
G01 X-1.1783 Y0.2230 
G01 X-1.1816 Y0.2197 
G01 X-1.1537 Y0.1755 
G01 X-0.3961 Y0.1755 
G01 X-0.1955 Y0.4811 
G01 X-0.1955 Y0.6612 
G01 X-0.2409 Y0.7066 
G01 X-0.2444 Y0.7051 
G01 X-0.2482 Y0.7046 
G01 X-0.2541 Y0.7015 
G01 X-0.2603 Y0.6995 
G01 X-0.2667 Y0.6985 
G01 X-0.2733 Y0.6985 
G01 X-0.2797 Y0.6995 
G01 X-0.2859 Y0.7015 
G01 X-0.2917 Y0.7045 
G01 X-0.3483 Y0.7045 
G01 X-0.3541 Y0.7015 
G01 X-0.3603 Y0.6995 
G01 X-0.3667 Y0.6985 
G01 X-0.3733 Y0.6985 
G01 X-0.3797 Y0.6995 
G01 X-0.3859 Y0.7015 
G01 X-0.3917 Y0.7045 
G01 X-0.4483 Y0.7045 
G01 X-0.4541 Y0.7015 
G01 X-0.4603 Y0.6995 
G01 X-0.4667 Y0.6985 
G01 X-0.4733 Y0.6985 
G01 X-0.4797 Y0.6995 
G01 X-0.4859 Y0.7015 
G01 X-0.4918 Y0.7045 
G01 X-0.4970 Y0.7083 
G01 X-0.5017 Y0.7130 
G01 X-0.5055 Y0.7182 
G01 X-0.5085 Y0.7241 
G01 X-0.5105 Y0.7303 
G01 X-0.5115 Y0.7367 
G01 X-0.5115 Y0.7433 
G01 X-0.5105 Y0.7497 
G01 X-0.5085 Y0.7559 
G01 X-0.5055 Y0.7618 
G01 X-0.5017 Y0.7670 
G01 X-0.4970 Y0.7717 
G01 X-0.4918 Y0.7755 
G01 X-0.4859 Y0.7785 
G01 X-0.4797 Y0.7805 
G01 X-0.4733 Y0.7815 
G01 X-0.4667 Y0.7815 
G01 X-0.4603 Y0.7805 
G01 X-0.4541 Y0.7785 
G01 X-0.4482 Y0.7755 
G01 X-0.4430 Y0.7717 
G01 X-0.4383 Y0.7670 
G01 X-0.4345 Y0.7618 
G01 X-0.4315 Y0.7559 
G01 X-0.4295 Y0.7497 
G01 X-0.4289 Y0.7455 
G01 X-0.4111 Y0.7455 
G01 X-0.4105 Y0.7497 
G01 X-0.4085 Y0.7559 
G01 X-0.4055 Y0.7618 
G01 X-0.4017 Y0.7670 
G01 X-0.3970 Y0.7717 
G01 X-0.3918 Y0.7755 
G01 X-0.3859 Y0.7785 
G01 X-0.3797 Y0.7805 
G01 X-0.3733 Y0.7815 
G01 X-0.3667 Y0.7815 
G01 X-0.3603 Y0.7805 
G01 X-0.3541 Y0.7785 
G01 X-0.3482 Y0.7755 
G01 X-0.3430 Y0.7717 
G01 X-0.3383 Y0.7670 
G01 X-0.3345 Y0.7618 
G01 X-0.3315 Y0.7559 
G01 X-0.3295 Y0.7497 
G01 X-0.3289 Y0.7455 
G01 X-0.3111 Y0.7455 
G01 X-0.3105 Y0.7497 
G01 X-0.3085 Y0.7559 
G01 X-0.3055 Y0.7618 
G01 X-0.3017 Y0.7670 
G01 X-0.2970 Y0.7717 
G01 X-0.2918 Y0.7755 
G01 X-0.2859 Y0.7785 
G01 X-0.2797 Y0.7805 
G01 X-0.2733 Y0.7815 
G01 X-0.2667 Y0.7815 
G01 X-0.2603 Y0.7805 
G01 X-0.2541 Y0.7785 
G01 X-0.2482 Y0.7755 
G01 X-0.2430 Y0.7717 
G01 X-0.2383 Y0.7670 
G01 X-0.2345 Y0.7618 
G01 X-0.2315 Y0.7559 
G01 X-0.2295 Y0.7497 
G01 X-0.2289 Y0.7455 
G01 X-0.2276 Y0.7455 
G01 X-0.2224 Y0.7441 
G01 X-0.2177 Y0.7414 
G01 X-0.1632 Y0.6868 
G01 X-0.1624 Y0.6864 
G01 X-0.1586 Y0.6826 
G01 X-0.1559 Y0.6779 
G01 X-0.1545 Y0.6727 
G01 X-0.1545 Y0.4771 
G01 X-0.1544 Y0.4765 
G01 X-0.1545 Y0.4744 
G01 X-0.1545 Y0.4723 
G01 X-0.1547 Y0.4717 
G01 X-0.1547 Y0.4711 
G01 X-0.1554 Y0.4691 
G01 X-0.1559 Y0.4671 
G01 X-0.1562 Y0.4666 
G01 X-0.1564 Y0.4660 
G01 X-0.1575 Y0.4642 
G01 X-0.1586 Y0.4624 
G01 X-0.1590 Y0.4620 
G01 X-0.3675 Y0.1442 
G01 X-0.3686 Y0.1424 
G01 X-0.3690 Y0.1420 
G01 X-0.3693 Y0.1415 
G00 Z0.1000 
G00 X-0.4859 Y0.2140 
G01 Z-0.0070 F10.00 
G01 X-0.4740 Y0.2259 F20.00 
G01 X-0.4675 Y0.2415 
G01 X-0.4675 Y0.2585 
G01 X-0.4740 Y0.2741 
G01 X-0.4859 Y0.2860 
G01 X-0.5015 Y0.2925 
G01 X-0.5185 Y0.2925 
G01 X-0.5341 Y0.2860 
G01 X-0.5460 Y0.2741 
G01 X-0.5525 Y0.2585 
G01 X-0.5525 Y0.2415 
G01 X-0.5460 Y0.2259 
G01 X-0.5341 Y0.2140 
G01 X-0.5185 Y0.2075 
G01 X-0.5015 Y0.2075 
G01 X-0.4859 Y0.2140 
G00 Z0.1000 
G00 X-0.4882 Y0.2145 
G01 Z-0.0070 F10.00 
G01 X-0.4941 Y0.2115 F20.00 
G01 X-0.5003 Y0.2095 
G01 X-0.5067 Y0.2085 
G01 X-0.5133 Y0.2085 
G01 X-0.5197 Y0.2095 
G01 X-0.5259 Y0.2115 
G01 X-0.5318 Y0.2145 
G01 X-0.5370 Y0.2183 
G01 X-0.5417 Y0.2230 
G01 X-0.5455 Y0.2282 
G01 X-0.5485 Y0.2341 
G01 X-0.5505 Y0.2403 
G01 X-0.5515 Y0.2467 
G01 X-0.5515 Y0.2533 
G01 X-0.5505 Y0.2597 
G01 X-0.5485 Y0.2659 
G01 X-0.5455 Y0.2718 
G01 X-0.5417 Y0.2770 
G01 X-0.5370 Y0.2817 
G01 X-0.5318 Y0.2855 
G01 X-0.5259 Y0.2885 
G01 X-0.5197 Y0.2905 
G01 X-0.5133 Y0.2915 
G01 X-0.5067 Y0.2915 
G01 X-0.5003 Y0.2905 
G01 X-0.4941 Y0.2885 
G01 X-0.4882 Y0.2855 
G01 X-0.4830 Y0.2817 
G01 X-0.4783 Y0.2770 
G01 X-0.4745 Y0.2718 
G01 X-0.4715 Y0.2659 
G01 X-0.4695 Y0.2597 
G01 X-0.4685 Y0.2533 
G01 X-0.4685 Y0.2467 
G01 X-0.4695 Y0.2403 
G01 X-0.4715 Y0.2341 
G01 X-0.4745 Y0.2282 
G01 X-0.4783 Y0.2230 
G01 X-0.4830 Y0.2183 
G01 X-0.4882 Y0.2145 
G00 Z0.1000 
G00 X-0.5740 Y0.2259 
G01 Z-0.0070 F10.00 
G01 X-0.5675 Y0.2415 F20.00 
G01 X-0.5675 Y0.2585 
G01 X-0.5740 Y0.2741 
G01 X-0.5859 Y0.2860 
G01 X-0.6015 Y0.2925 
G01 X-0.6185 Y0.2925 
G01 X-0.6341 Y0.2860 
G01 X-0.6460 Y0.2741 
G01 X-0.6525 Y0.2585 
G01 X-0.6525 Y0.2415 
G01 X-0.6460 Y0.2259 
G01 X-0.6341 Y0.2140 
G01 X-0.6185 Y0.2075 
G01 X-0.6015 Y0.2075 
G01 X-0.5859 Y0.2140 
G01 X-0.5740 Y0.2259 
G00 Z0.1000 
G00 X-0.5745 Y0.2282 
G01 Z-0.0070 F10.00 
G01 X-0.5783 Y0.2230 F20.00 
G01 X-0.5830 Y0.2183 
G01 X-0.5882 Y0.2145 
G01 X-0.5941 Y0.2115 
G01 X-0.6003 Y0.2095 
G01 X-0.6067 Y0.2085 
G01 X-0.6133 Y0.2085 
G01 X-0.6197 Y0.2095 
G01 X-0.6259 Y0.2115 
G01 X-0.6318 Y0.2145 
G01 X-0.6370 Y0.2183 
G01 X-0.6417 Y0.2230 
G01 X-0.6455 Y0.2282 
G01 X-0.6485 Y0.2341 
G01 X-0.6505 Y0.2403 
G01 X-0.6515 Y0.2467 
G01 X-0.6515 Y0.2533 
G01 X-0.6505 Y0.2597 
G01 X-0.6485 Y0.2659 
G01 X-0.6455 Y0.2718 
G01 X-0.6417 Y0.2770 
G01 X-0.6370 Y0.2817 
G01 X-0.6318 Y0.2855 
G01 X-0.6259 Y0.2885 
G01 X-0.6197 Y0.2905 
G01 X-0.6133 Y0.2915 
G01 X-0.6067 Y0.2915 
G01 X-0.6003 Y0.2905 
G01 X-0.5941 Y0.2885 
G01 X-0.5882 Y0.2855 
G01 X-0.5830 Y0.2817 
G01 X-0.5783 Y0.2770 
G01 X-0.5745 Y0.2718 
G01 X-0.5715 Y0.2659 
G01 X-0.5695 Y0.2597 
G01 X-0.5685 Y0.2533 
G01 X-0.5685 Y0.2467 
G01 X-0.5695 Y0.2403 
G01 X-0.5715 Y0.2341 
G01 X-0.5745 Y0.2282 
G00 Z0.1000 
G00 X-0.6745 Y0.2282 
G01 Z-0.0070 F10.00 
G01 X-0.6783 Y0.2230 F20.00 
G01 X-0.6830 Y0.2183 
G01 X-0.6882 Y0.2145 
G01 X-0.6941 Y0.2115 
G01 X-0.7003 Y0.2095 
G01 X-0.7067 Y0.2085 
G01 X-0.7133 Y0.2085 
G01 X-0.7197 Y0.2095 
G01 X-0.7259 Y0.2115 
G01 X-0.7318 Y0.2145 
G01 X-0.7370 Y0.2183 
G01 X-0.7417 Y0.2230 
G01 X-0.7455 Y0.2282 
G01 X-0.7485 Y0.2341 
G01 X-0.7505 Y0.2403 
G01 X-0.7515 Y0.2467 
G01 X-0.7515 Y0.2533 
G01 X-0.7505 Y0.2597 
G01 X-0.7485 Y0.2659 
G01 X-0.7455 Y0.2718 
G01 X-0.7417 Y0.2770 
G01 X-0.7370 Y0.2817 
G01 X-0.7318 Y0.2855 
G01 X-0.7259 Y0.2885 
G01 X-0.7197 Y0.2905 
G01 X-0.7133 Y0.2915 
G01 X-0.7067 Y0.2915 
G01 X-0.7003 Y0.2905 
G01 X-0.6941 Y0.2885 
G01 X-0.6882 Y0.2855 
G01 X-0.6830 Y0.2817 
G01 X-0.6783 Y0.2770 
G01 X-0.6745 Y0.2718 
G01 X-0.6715 Y0.2659 
G01 X-0.6695 Y0.2597 
G01 X-0.6685 Y0.2533 
G01 X-0.6685 Y0.2467 
G01 X-0.6695 Y0.2403 
G01 X-0.6715 Y0.2341 
G01 X-0.6745 Y0.2282 
G00 Z0.1000 
G00 X-0.6740 Y0.2259 
G01 Z-0.0070 F10.00 
G01 X-0.6675 Y0.2415 F20.00 
G01 X-0.6675 Y0.2585 
G01 X-0.6740 Y0.2741 
G01 X-0.6859 Y0.2860 
G01 X-0.7015 Y0.2925 
G01 X-0.7185 Y0.2925 
G01 X-0.7341 Y0.2860 
G01 X-0.7460 Y0.2741 
G01 X-0.7525 Y0.2585 
G01 X-0.7525 Y0.2415 
G01 X-0.7460 Y0.2259 
G01 X-0.7341 Y0.2140 
G01 X-0.7185 Y0.2075 
G01 X-0.7015 Y0.2075 
G01 X-0.6859 Y0.2140 
G01 X-0.6740 Y0.2259 
G00 Z0.1000 
G00 X-0.7740 Y0.2259 
G01 Z-0.0070 F10.00 
G01 X-0.7675 Y0.2415 F20.00 
G01 X-0.7675 Y0.2585 
G01 X-0.7740 Y0.2741 
G01 X-0.7859 Y0.2860 
G01 X-0.8015 Y0.2925 
G01 X-0.8185 Y0.2925 
G01 X-0.8341 Y0.2860 
G01 X-0.8460 Y0.2741 
G01 X-0.8525 Y0.2585 
G01 X-0.8525 Y0.2415 
G01 X-0.8460 Y0.2259 
G01 X-0.8341 Y0.2140 
G01 X-0.8185 Y0.2075 
G01 X-0.8015 Y0.2075 
G01 X-0.7859 Y0.2140 
G01 X-0.7740 Y0.2259 
G00 Z0.1000 
G00 X-0.7745 Y0.2282 
G01 Z-0.0070 F10.00 
G01 X-0.7783 Y0.2230 F20.00 
G01 X-0.7830 Y0.2183 
G01 X-0.7882 Y0.2145 
G01 X-0.7941 Y0.2115 
G01 X-0.8003 Y0.2095 
G01 X-0.8067 Y0.2085 
G01 X-0.8133 Y0.2085 
G01 X-0.8197 Y0.2095 
G01 X-0.8259 Y0.2115 
G01 X-0.8318 Y0.2145 
G01 X-0.8370 Y0.2183 
G01 X-0.8417 Y0.2230 
G01 X-0.8455 Y0.2282 
G01 X-0.8485 Y0.2341 
G01 X-0.8505 Y0.2403 
G01 X-0.8515 Y0.2467 
G01 X-0.8515 Y0.2533 
G01 X-0.8505 Y0.2597 
G01 X-0.8485 Y0.2659 
G01 X-0.8455 Y0.2718 
G01 X-0.8417 Y0.2770 
G01 X-0.8370 Y0.2817 
G01 X-0.8318 Y0.2855 
G01 X-0.8259 Y0.2885 
G01 X-0.8197 Y0.2905 
G01 X-0.8133 Y0.2915 
G01 X-0.8067 Y0.2915 
G01 X-0.8003 Y0.2905 
G01 X-0.7941 Y0.2885 
G01 X-0.7882 Y0.2855 
G01 X-0.7830 Y0.2817 
G01 X-0.7783 Y0.2770 
G01 X-0.7745 Y0.2718 
G01 X-0.7715 Y0.2659 
G01 X-0.7695 Y0.2597 
G01 X-0.7685 Y0.2533 
G01 X-0.7685 Y0.2467 
G01 X-0.7695 Y0.2403 
G01 X-0.7715 Y0.2341 
G01 X-0.7745 Y0.2282 
G00 Z0.1000 
G00 X-0.8745 Y0.2282 
G01 Z-0.0070 F10.00 
G01 X-0.8783 Y0.2230 F20.00 
G01 X-0.8830 Y0.2183 
G01 X-0.8882 Y0.2145 
G01 X-0.8941 Y0.2115 
G01 X-0.9003 Y0.2095 
G01 X-0.9067 Y0.2085 
G01 X-0.9133 Y0.2085 
G01 X-0.9197 Y0.2095 
G01 X-0.9259 Y0.2115 
G01 X-0.9318 Y0.2145 
G01 X-0.9370 Y0.2183 
G01 X-0.9417 Y0.2230 
G01 X-0.9455 Y0.2282 
G01 X-0.9485 Y0.2341 
G01 X-0.9505 Y0.2403 
G01 X-0.9515 Y0.2467 
G01 X-0.9515 Y0.2533 
G01 X-0.9505 Y0.2597 
G01 X-0.9485 Y0.2659 
G01 X-0.9455 Y0.2718 
G01 X-0.9417 Y0.2770 
G01 X-0.9395 Y0.2792 
G01 X-0.9395 Y1.0352 
G01 X-1.0035 Y1.0905 
G01 X-1.7635 Y1.0905 
G01 X-1.7639 Y1.0904 
G01 X-1.7654 Y1.0905 
G01 X-1.7669 Y1.0905 
G01 X-1.7673 Y1.0906 
G01 X-1.7677 Y1.0906 
G01 X-1.7691 Y1.0911 
G01 X-1.7706 Y1.0915 
G01 X-1.7709 Y1.0917 
G01 X-1.7713 Y1.0918 
G01 X-1.7726 Y1.0926 
G01 X-1.7739 Y1.0934 
G01 X-1.7742 Y1.0937 
G01 X-1.7745 Y1.0939 
G01 X-1.7755 Y1.0950 
G01 X-1.7766 Y1.0961 
G01 X-1.7768 Y1.0965 
G01 X-1.8605 Y1.1900 
G01 X-1.8616 Y1.1911 
G01 X-1.8618 Y1.1915 
G01 X-1.8621 Y1.1918 
G01 X-1.8628 Y1.1931 
G01 X-1.8635 Y1.1944 
G01 X-1.8636 Y1.1948 
G01 X-1.8638 Y1.1952 
G01 X-1.8641 Y1.1966 
G01 X-1.8645 Y1.1981 
G01 X-1.8645 Y1.1985 
G01 X-1.8646 Y1.1989 
G01 X-1.8645 Y1.2004 
G01 X-1.8645 Y1.2111 
G01 X-1.8659 Y1.2115 
G01 X-1.8718 Y1.2145 
G01 X-1.8770 Y1.2183 
G01 X-1.8817 Y1.2230 
G01 X-1.8855 Y1.2282 
G01 X-1.8885 Y1.2341 
G01 X-1.8905 Y1.2403 
G01 X-1.8915 Y1.2467 
G01 X-1.8915 Y1.2533 
G01 X-1.8905 Y1.2597 
G01 X-1.8885 Y1.2659 
G01 X-1.8855 Y1.2718 
G01 X-1.8817 Y1.2770 
G01 X-1.8770 Y1.2817 
G01 X-1.8718 Y1.2855 
G01 X-1.8659 Y1.2885 
G01 X-1.8645 Y1.2889 
G01 X-1.8645 Y1.3355 
G01 X-1.9415 Y1.3355 
G01 X-2.1063 Y1.1306 
G01 X-2.1068 Y1.1299 
G01 X-2.1077 Y1.1290 
G01 X-2.1085 Y1.1280 
G01 X-2.1092 Y1.1274 
G01 X-2.1099 Y1.1268 
G01 X-2.1110 Y1.1262 
G01 X-2.1120 Y1.1254 
G01 X-2.1129 Y1.1251 
G01 X-2.1136 Y1.1246 
G01 X-2.1149 Y1.1243 
G01 X-2.1161 Y1.1238 
G01 X-2.1170 Y1.1237 
G01 X-2.1178 Y1.1235 
G01 X-2.1191 Y1.1235 
G01 X-2.1204 Y1.1234 
G01 X-2.1213 Y1.1235 
G01 X-2.5271 Y1.1235 
G01 X-2.5535 Y1.1041 
G01 X-2.5535 Y1.0882 
G01 X-2.5482 Y1.0855 
G01 X-2.5430 Y1.0817 
G01 X-2.5383 Y1.0770 
G01 X-2.5345 Y1.0718 
G01 X-2.5315 Y1.0659 
G01 X-2.5295 Y1.0597 
G01 X-2.5285 Y1.0533 
G01 X-2.5285 Y1.0467 
G01 X-2.5295 Y1.0403 
G01 X-2.5315 Y1.0341 
G01 X-2.5345 Y1.0282 
G01 X-2.5383 Y1.0230 
G01 X-2.5430 Y1.0183 
G01 X-2.5482 Y1.0145 
G01 X-2.5541 Y1.0115 
G01 X-2.5585 Y1.0101 
G01 X-2.5585 Y0.8915 
G01 X-2.5567 Y0.8915 
G01 X-2.5503 Y0.8905 
G01 X-2.5441 Y0.8885 
G01 X-2.5382 Y0.8855 
G01 X-2.5330 Y0.8817 
G01 X-2.5283 Y0.8770 
G01 X-2.5245 Y0.8718 
G01 X-2.5215 Y0.8659 
G01 X-2.5195 Y0.8597 
G01 X-2.5185 Y0.8533 
G01 X-2.5185 Y0.8467 
G01 X-2.5195 Y0.8403 
G01 X-2.5215 Y0.8341 
G01 X-2.5245 Y0.8282 
G01 X-2.5283 Y0.8230 
G01 X-2.5330 Y0.8183 
G01 X-2.5382 Y0.8145 
G01 X-2.5441 Y0.8115 
G01 X-2.5503 Y0.8095 
G01 X-2.5567 Y0.8085 
G01 X-2.5585 Y0.8085 
G01 X-2.5585 Y0.6915 
G01 X-2.5567 Y0.6915 
G01 X-2.5503 Y0.6905 
G01 X-2.5441 Y0.6885 
G01 X-2.5382 Y0.6855 
G01 X-2.5330 Y0.6817 
G01 X-2.5283 Y0.6770 
G01 X-2.5245 Y0.6718 
G01 X-2.5215 Y0.6659 
G01 X-2.5195 Y0.6597 
G01 X-2.5185 Y0.6533 
G01 X-2.5185 Y0.6467 
G01 X-2.5195 Y0.6403 
G01 X-2.5215 Y0.6341 
G01 X-2.5245 Y0.6282 
G01 X-2.5283 Y0.6230 
G01 X-2.5330 Y0.6183 
G01 X-2.5382 Y0.6145 
G01 X-2.5441 Y0.6115 
G01 X-2.5503 Y0.6095 
G01 X-2.5567 Y0.6085 
G01 X-2.5585 Y0.6085 
G01 X-2.5585 Y0.4915 
G01 X-2.5567 Y0.4915 
G01 X-2.5503 Y0.4905 
G01 X-2.5441 Y0.4885 
G01 X-2.5382 Y0.4855 
G01 X-2.5330 Y0.4817 
G01 X-2.5283 Y0.4770 
G01 X-2.5245 Y0.4718 
G01 X-2.5215 Y0.4659 
G01 X-2.5195 Y0.4597 
G01 X-2.5185 Y0.4533 
G01 X-2.5185 Y0.4467 
G01 X-2.5195 Y0.4403 
G01 X-2.5215 Y0.4341 
G01 X-2.5245 Y0.4282 
G01 X-2.5283 Y0.4230 
G01 X-2.5330 Y0.4183 
G01 X-2.5382 Y0.4145 
G01 X-2.5441 Y0.4115 
G01 X-2.5503 Y0.4095 
G01 X-2.5567 Y0.4085 
G01 X-2.5633 Y0.4085 
G01 X-2.5697 Y0.4095 
G01 X-2.5759 Y0.4115 
G01 X-2.5818 Y0.4145 
G01 X-2.5870 Y0.4183 
G01 X-2.5917 Y0.4230 
G01 X-2.5955 Y0.4282 
G01 X-2.5985 Y0.4341 
G01 X-2.6005 Y0.4403 
G01 X-2.6015 Y0.4467 
G01 X-2.6015 Y0.4533 
G01 X-2.6005 Y0.4597 
G01 X-2.5985 Y0.4659 
G01 X-2.5955 Y0.4718 
G01 X-2.5917 Y0.4770 
G01 X-2.5915 Y0.4772 
G01 X-2.5915 Y0.6228 
G01 X-2.5917 Y0.6230 
G01 X-2.5955 Y0.6282 
G01 X-2.5985 Y0.6341 
G01 X-2.6005 Y0.6403 
G01 X-2.6015 Y0.6467 
G01 X-2.6015 Y0.6533 
G01 X-2.6005 Y0.6597 
G01 X-2.5985 Y0.6659 
G01 X-2.5955 Y0.6718 
G01 X-2.5917 Y0.6770 
G01 X-2.5915 Y0.6772 
G01 X-2.5915 Y0.8228 
G01 X-2.5917 Y0.8230 
G01 X-2.5955 Y0.8282 
G01 X-2.5985 Y0.8341 
G01 X-2.6005 Y0.8403 
G01 X-2.6015 Y0.8467 
G01 X-2.6015 Y0.8533 
G01 X-2.6005 Y0.8597 
G01 X-2.5985 Y0.8659 
G01 X-2.5955 Y0.8718 
G01 X-2.5917 Y0.8770 
G01 X-2.5915 Y0.8772 
G01 X-2.5915 Y1.0144 
G01 X-2.5918 Y1.0145 
G01 X-2.5970 Y1.0183 
G01 X-2.6017 Y1.0230 
G01 X-2.6055 Y1.0282 
G01 X-2.6085 Y1.0341 
G01 X-2.6105 Y1.0403 
G01 X-2.6115 Y1.0467 
G01 X-2.6115 Y1.0533 
G01 X-2.6105 Y1.0597 
G01 X-2.6085 Y1.0659 
G01 X-2.6055 Y1.0718 
G01 X-2.6017 Y1.0770 
G01 X-2.5970 Y1.0817 
G01 X-2.5918 Y1.0855 
G01 X-2.5865 Y1.0882 
G01 X-2.5865 Y1.1092 
G01 X-2.5869 Y1.1126 
G01 X-2.5862 Y1.1169 
G01 X-2.5845 Y1.1209 
G01 X-2.5818 Y1.1243 
G01 X-2.5433 Y1.1526 
G01 X-2.5426 Y1.1532 
G01 X-2.5415 Y1.1538 
G01 X-2.5405 Y1.1546 
G01 X-2.5397 Y1.1549 
G01 X-2.5389 Y1.1554 
G01 X-2.5377 Y1.1557 
G01 X-2.5365 Y1.1562 
G01 X-2.5356 Y1.1563 
G01 X-2.5347 Y1.1565 
G01 X-2.5334 Y1.1565 
G01 X-2.5322 Y1.1566 
G01 X-2.5313 Y1.1565 
G01 X-2.5301 Y1.1565 
G01 X-2.5158 Y1.1566 
G01 X-2.5786 Y1.1966 
G01 X-2.5801 Y1.1975 
G01 X-2.5804 Y1.1977 
G01 X-2.5807 Y1.1979 
G01 X-2.5819 Y1.1993 
G01 X-2.5832 Y1.2006 
G01 X-2.5834 Y1.2009 
G01 X-2.5836 Y1.2011 
G01 X-2.5845 Y1.2027 
G01 X-2.5854 Y1.2043 
G01 X-2.5855 Y1.2047 
G01 X-2.5856 Y1.2050 
G01 X-2.5860 Y1.2068 
G01 X-2.5865 Y1.2085 
G01 X-2.5865 Y1.2089 
G01 X-2.5866 Y1.2092 
G01 X-2.5865 Y1.2110 
G01 X-2.5865 Y1.4393 
G01 X-2.6530 Y1.5235 
G01 X-2.7490 Y1.5235 
G01 X-2.7495 Y1.5203 
G01 X-2.7515 Y1.5141 
G01 X-2.7545 Y1.5082 
G01 X-2.7583 Y1.5030 
G01 X-2.7630 Y1.4983 
G01 X-2.7682 Y1.4945 
G01 X-2.7741 Y1.4915 
G01 X-2.7803 Y1.4895 
G01 X-2.7867 Y1.4885 
G01 X-2.7933 Y1.4885 
G01 X-2.7997 Y1.4895 
G01 X-2.8059 Y1.4915 
G01 X-2.8118 Y1.4945 
G01 X-2.8170 Y1.4983 
G01 X-2.8217 Y1.5030 
G01 X-2.8255 Y1.5082 
G01 X-2.8285 Y1.5141 
G01 X-2.8305 Y1.5203 
G01 X-2.8315 Y1.5267 
G01 X-2.8315 Y1.5333 
G01 X-2.8305 Y1.5397 
G01 X-2.8285 Y1.5459 
G01 X-2.8255 Y1.5518 
G01 X-2.8217 Y1.5570 
G01 X-2.8170 Y1.5617 
G01 X-2.8118 Y1.5655 
G01 X-2.8059 Y1.5685 
G01 X-2.7997 Y1.5705 
G01 X-2.7933 Y1.5715 
G01 X-2.7867 Y1.5715 
G01 X-2.7803 Y1.5705 
G01 X-2.7741 Y1.5685 
G01 X-2.7682 Y1.5655 
G01 X-2.7630 Y1.5617 
G01 X-2.7583 Y1.5570 
G01 X-2.7580 Y1.5565 
G01 X-2.6462 Y1.5565 
G01 X-2.6452 Y1.5566 
G01 X-2.6440 Y1.5565 
G01 X-2.6428 Y1.5565 
G01 X-2.6419 Y1.5562 
G01 X-2.6409 Y1.5561 
G01 X-2.6398 Y1.5557 
G01 X-2.6386 Y1.5554 
G01 X-2.6378 Y1.5549 
G01 X-2.6369 Y1.5545 
G01 X-2.6359 Y1.5538 
G01 X-2.6349 Y1.5532 
G01 X-2.6342 Y1.5525 
G01 X-2.6334 Y1.5519 
G01 X-2.6326 Y1.5510 
G01 X-2.6318 Y1.5501 
G01 X-2.6313 Y1.5493 
G01 X-2.5576 Y1.4560 
G01 X-2.5568 Y1.4551 
G01 X-2.5563 Y1.4543 
G01 X-2.5557 Y1.4535 
G01 X-2.5552 Y1.4524 
G01 X-2.5546 Y1.4514 
G01 X-2.5544 Y1.4504 
G01 X-2.5540 Y1.4495 
G01 X-2.5538 Y1.4483 
G01 X-2.5535 Y1.4472 
G01 X-2.5535 Y1.4462 
G01 X-2.5534 Y1.4452 
G01 X-2.5535 Y1.4440 
G01 X-2.5535 Y1.2197 
G01 X-2.4541 Y1.1565 
G01 X-2.1279 Y1.1565 
G01 X-1.9753 Y1.3461 
G01 X-2.0356 Y1.4151 
G01 X-2.0366 Y1.4161 
G01 X-2.2127 Y1.5922 
G01 X-2.2141 Y1.5915 
G01 X-2.2203 Y1.5895 
G01 X-2.2267 Y1.5885 
G01 X-2.2333 Y1.5885 
G01 X-2.2397 Y1.5895 
G01 X-2.2459 Y1.5915 
G01 X-2.2518 Y1.5945 
G01 X-2.2570 Y1.5983 
G01 X-2.2617 Y1.6030 
G01 X-2.2655 Y1.6082 
G01 X-2.2685 Y1.6141 
G01 X-2.2705 Y1.6203 
G01 X-2.2715 Y1.6267 
G01 X-2.2715 Y1.6333 
G01 X-2.2705 Y1.6397 
G01 X-2.2685 Y1.6459 
G01 X-2.2655 Y1.6518 
G01 X-2.2617 Y1.6570 
G01 X-2.2570 Y1.6617 
G01 X-2.2518 Y1.6655 
G01 X-2.2459 Y1.6685 
G01 X-2.2397 Y1.6705 
G01 X-2.2333 Y1.6715 
G01 X-2.2267 Y1.6715 
G01 X-2.2203 Y1.6705 
G01 X-2.2141 Y1.6685 
G01 X-2.2082 Y1.6655 
G01 X-2.2030 Y1.6617 
G01 X-2.1983 Y1.6570 
G01 X-2.1945 Y1.6518 
G01 X-2.1915 Y1.6459 
G01 X-2.1895 Y1.6397 
G01 X-2.1885 Y1.6333 
G01 X-2.1885 Y1.6267 
G01 X-2.1895 Y1.6203 
G01 X-2.1915 Y1.6141 
G01 X-2.1922 Y1.6127 
G01 X-2.0250 Y1.4455 
G01 X-1.8841 Y1.5864 
G01 X-1.8855 Y1.5882 
G01 X-1.8885 Y1.5941 
G01 X-1.8905 Y1.6003 
G01 X-1.8915 Y1.6067 
G01 X-1.8915 Y1.6133 
G01 X-1.8905 Y1.6197 
G01 X-1.8885 Y1.6259 
G01 X-1.8855 Y1.6318 
G01 X-1.8817 Y1.6370 
G01 X-1.8770 Y1.6417 
G01 X-1.8718 Y1.6455 
G01 X-1.8659 Y1.6485 
G01 X-1.8645 Y1.6489 
G01 X-1.8645 Y1.7511 
G01 X-1.8659 Y1.7515 
G01 X-1.8718 Y1.7545 
G01 X-1.8770 Y1.7583 
G01 X-1.8817 Y1.7630 
G01 X-1.8855 Y1.7682 
G01 X-1.8885 Y1.7741 
G01 X-1.8905 Y1.7803 
G01 X-1.8915 Y1.7867 
G01 X-1.8915 Y1.7933 
G01 X-1.8905 Y1.7997 
G01 X-1.8885 Y1.8059 
G01 X-1.8855 Y1.8118 
G01 X-1.8817 Y1.8170 
G01 X-1.8770 Y1.8217 
G01 X-1.8718 Y1.8255 
G01 X-1.8659 Y1.8285 
G01 X-1.8597 Y1.8305 
G01 X-1.8533 Y1.8315 
G01 X-1.8467 Y1.8315 
G01 X-1.8403 Y1.8305 
G01 X-1.8341 Y1.8285 
G01 X-1.8282 Y1.8255 
G01 X-1.8230 Y1.8217 
G01 X-1.8183 Y1.8170 
G01 X-1.8145 Y1.8118 
G01 X-1.8115 Y1.8059 
G01 X-1.8095 Y1.7997 
G01 X-1.8085 Y1.7933 
G01 X-1.8085 Y1.7867 
G01 X-1.8095 Y1.7803 
G01 X-1.8115 Y1.7741 
G01 X-1.8145 Y1.7682 
G01 X-1.8183 Y1.7630 
G01 X-1.8230 Y1.7583 
G01 X-1.8282 Y1.7545 
G01 X-1.8341 Y1.7515 
G01 X-1.8355 Y1.7511 
G01 X-1.8355 Y1.6489 
G01 X-1.8341 Y1.6485 
G01 X-1.8282 Y1.6455 
G01 X-1.8230 Y1.6417 
G01 X-1.8183 Y1.6370 
G01 X-1.8145 Y1.6318 
G01 X-1.8115 Y1.6259 
G01 X-1.8095 Y1.6197 
G01 X-1.8085 Y1.6133 
G01 X-1.8085 Y1.6067 
G01 X-1.8095 Y1.6003 
G01 X-1.8115 Y1.5941 
G01 X-1.8145 Y1.5882 
G01 X-1.8183 Y1.5830 
G01 X-1.8230 Y1.5783 
G01 X-1.8282 Y1.5745 
G01 X-1.8341 Y1.5715 
G01 X-1.8403 Y1.5695 
G01 X-1.8467 Y1.5685 
G01 X-1.8533 Y1.5685 
G01 X-1.8597 Y1.5695 
G01 X-1.8599 Y1.5696 
G01 X-2.0052 Y1.4243 
G01 X-1.9526 Y1.3643 
G01 X-1.9519 Y1.3645 
G01 X-1.8645 Y1.3645 
G01 X-1.8645 Y1.3811 
G01 X-1.8659 Y1.3815 
G01 X-1.8718 Y1.3845 
G01 X-1.8770 Y1.3883 
G01 X-1.8817 Y1.3930 
G01 X-1.8855 Y1.3982 
G01 X-1.8885 Y1.4041 
G01 X-1.8905 Y1.4103 
G01 X-1.8915 Y1.4167 
G01 X-1.8915 Y1.4233 
G01 X-1.8905 Y1.4297 
G01 X-1.8885 Y1.4359 
G01 X-1.8855 Y1.4418 
G01 X-1.8817 Y1.4470 
G01 X-1.8770 Y1.4517 
G01 X-1.8718 Y1.4555 
G01 X-1.8659 Y1.4585 
G01 X-1.8597 Y1.4605 
G01 X-1.8533 Y1.4615 
G01 X-1.8467 Y1.4615 
G01 X-1.8403 Y1.4605 
G01 X-1.8341 Y1.4585 
G01 X-1.8282 Y1.4555 
G01 X-1.8230 Y1.4517 
G01 X-1.8183 Y1.4470 
G01 X-1.8145 Y1.4418 
G01 X-1.8115 Y1.4359 
G01 X-1.8095 Y1.4297 
G01 X-1.8085 Y1.4233 
G01 X-1.8085 Y1.4167 
G01 X-1.8095 Y1.4103 
G01 X-1.8115 Y1.4041 
G01 X-1.8145 Y1.3982 
G01 X-1.8183 Y1.3930 
G01 X-1.8230 Y1.3883 
G01 X-1.8282 Y1.3845 
G01 X-1.8341 Y1.3815 
G01 X-1.8355 Y1.3811 
G01 X-1.8355 Y1.2889 
G01 X-1.8341 Y1.2885 
G01 X-1.8282 Y1.2855 
G01 X-1.8230 Y1.2817 
G01 X-1.8183 Y1.2770 
G01 X-1.8145 Y1.2718 
G01 X-1.8115 Y1.2659 
G01 X-1.8095 Y1.2597 
G01 X-1.8085 Y1.2533 
G01 X-1.8085 Y1.2467 
G01 X-1.8095 Y1.2403 
G01 X-1.8115 Y1.2341 
G01 X-1.8145 Y1.2282 
G01 X-1.8183 Y1.2230 
G01 X-1.8230 Y1.2183 
G01 X-1.8282 Y1.2145 
G01 X-1.8341 Y1.2115 
G01 X-1.8355 Y1.2111 
G01 X-1.8355 Y1.2055 
G01 X-1.7585 Y1.1195 
G01 X-0.9987 Y1.1195 
G01 X-0.9973 Y1.1196 
G01 X-0.9968 Y1.1195 
G01 X-0.9962 Y1.1195 
G01 X-0.9949 Y1.1191 
G01 X-0.9936 Y1.1189 
G01 X-0.9931 Y1.1187 
G01 X-0.9926 Y1.1185 
G01 X-0.9914 Y1.1178 
G01 X-0.9901 Y1.1172 
G01 X-0.9897 Y1.1169 
G01 X-0.9892 Y1.1166 
G01 X-0.9883 Y1.1156 
G01 X-0.9166 Y1.0537 
G01 X-0.9161 Y1.0535 
G01 X-0.9151 Y1.0525 
G01 X-0.9141 Y1.0516 
G01 X-0.9138 Y1.0511 
G01 X-0.9134 Y1.0508 
G01 X-0.9127 Y1.0496 
G01 X-0.9119 Y1.0484 
G01 X-0.9118 Y1.0479 
G01 X-0.9115 Y1.0474 
G01 X-0.9111 Y1.0461 
G01 X-0.9107 Y1.0448 
G01 X-0.9106 Y1.0443 
G01 X-0.9105 Y1.0438 
G01 X-0.9105 Y1.0424 
G01 X-0.9104 Y1.0410 
G01 X-0.9105 Y1.0405 
G01 X-0.9105 Y0.2915 
G01 X-0.9067 Y0.2915 
G01 X-0.9003 Y0.2905 
G01 X-0.8941 Y0.2885 
G01 X-0.8882 Y0.2855 
G01 X-0.8830 Y0.2817 
G01 X-0.8783 Y0.2770 
G01 X-0.8745 Y0.2718 
G01 X-0.8715 Y0.2659 
G01 X-0.8695 Y0.2597 
G01 X-0.8685 Y0.2533 
G01 X-0.8685 Y0.2467 
G01 X-0.8695 Y0.2403 
G01 X-0.8715 Y0.2341 
G01 X-0.8745 Y0.2282 
G00 Z0.1000 
G00 X-0.8740 Y0.2259 
G01 Z-0.0070 F10.00 
G01 X-0.8675 Y0.2415 F20.00 
G01 X-0.8675 Y0.2585 
G01 X-0.8740 Y0.2741 
G01 X-0.8859 Y0.2860 
G01 X-0.9015 Y0.2925 
G01 X-0.9035 Y0.2925 
G01 X-0.9062 Y0.2936 
G01 X-0.9084 Y0.2958 
G01 X-0.9095 Y0.2985 
G01 X-0.9095 Y1.0330 
G01 X-0.9096 Y1.0342 
G01 X-0.9095 Y1.0345 
G01 X-0.9095 Y1.0348 
G01 X-0.9090 Y1.0359 
G01 X-0.9094 Y1.0409 
G01 X-0.9095 Y1.0412 
G01 X-0.9095 Y1.0424 
G01 X-0.9096 Y1.0436 
G01 X-0.9095 Y1.0439 
G01 X-0.9095 Y1.0489 
G01 X-0.9133 Y1.0522 
G01 X-0.9136 Y1.0523 
G01 X-0.9144 Y1.0532 
G01 X-0.9154 Y1.0540 
G01 X-0.9155 Y1.0543 
G01 X-0.9190 Y1.0578 
G01 X-0.9202 Y1.0582 
G01 X-0.9204 Y1.0584 
G01 X-0.9207 Y1.0585 
G01 X-0.9216 Y1.0593 
G01 X-0.9865 Y1.1154 
G01 X-0.9867 Y1.1155 
G01 X-0.9876 Y1.1164 
G01 X-0.9885 Y1.1172 
G01 X-0.9886 Y1.1174 
G01 X-0.9922 Y1.1210 
G01 X-0.9972 Y1.1206 
G01 X-0.9975 Y1.1205 
G01 X-0.9987 Y1.1205 
G01 X-0.9999 Y1.1204 
G01 X-1.0002 Y1.1205 
G01 X-1.7534 Y1.1205 
G01 X-1.7536 Y1.1204 
G01 X-1.7549 Y1.1205 
G01 X-1.7562 Y1.1205 
G01 X-1.7564 Y1.1206 
G01 X-1.7566 Y1.1206 
G01 X-1.7578 Y1.1212 
G01 X-1.7590 Y1.1216 
G01 X-1.7591 Y1.1218 
G01 X-1.7593 Y1.1219 
G01 X-1.7602 Y1.1228 
G01 X-1.7611 Y1.1238 
G01 X-1.7612 Y1.1240 
G01 X-1.8302 Y1.2012 
G01 X-1.8312 Y1.2021 
G01 X-1.8312 Y1.2023 
G01 X-1.8314 Y1.2024 
G01 X-1.8318 Y1.2036 
G01 X-1.8323 Y1.2048 
G01 X-1.8323 Y1.2050 
G01 X-1.8324 Y1.2052 
G01 X-1.8323 Y1.2065 
G01 X-1.8323 Y1.2078 
G01 X-1.8322 Y1.2080 
G01 X-1.8322 Y1.2082 
G01 X-1.8316 Y1.2094 
G01 X-1.8312 Y1.2106 
G01 X-1.8310 Y1.2107 
G01 X-1.8309 Y1.2109 
G01 X-1.8299 Y1.2118 
G01 X-1.8290 Y1.2127 
G01 X-1.8288 Y1.2128 
G01 X-1.8287 Y1.2129 
G01 X-1.8275 Y1.2133 
G01 X-1.8259 Y1.2140 
G01 X-1.8140 Y1.2259 
G01 X-1.8075 Y1.2415 
G01 X-1.8075 Y1.2446 
G01 X-1.8075 Y1.2455 
G01 X-1.8076 Y1.2464 
G01 X-1.8075 Y1.2470 
G01 X-1.8075 Y1.2530 
G01 X-1.8076 Y1.2536 
G01 X-1.8075 Y1.2545 
G01 X-1.8075 Y1.2585 
G01 X-1.8140 Y1.2741 
G01 X-1.8259 Y1.2860 
G01 X-1.8312 Y1.2882 
G01 X-1.8334 Y1.2903 
G01 X-1.8340 Y1.2919 
G01 X-1.8345 Y1.2931 
G01 X-1.8345 Y1.3769 
G01 X-1.8340 Y1.3780 
G01 X-1.8334 Y1.3797 
G01 X-1.8312 Y1.3818 
G01 X-1.8310 Y1.3819 
G01 X-1.8259 Y1.3840 
G01 X-1.8140 Y1.3959 
G01 X-1.8075 Y1.4115 
G01 X-1.8075 Y1.4146 
G01 X-1.8075 Y1.4154 
G01 X-1.8076 Y1.4164 
G01 X-1.8075 Y1.4170 
G01 X-1.8075 Y1.4230 
G01 X-1.8076 Y1.4236 
G01 X-1.8075 Y1.4245 
G01 X-1.8075 Y1.4285 
G01 X-1.8140 Y1.4441 
G01 X-1.8259 Y1.4560 
G01 X-1.8415 Y1.4625 
G01 X-1.8585 Y1.4625 
G01 X-1.8741 Y1.4560 
G01 X-1.8860 Y1.4441 
G01 X-1.8925 Y1.4285 
G01 X-1.8925 Y1.4115 
G01 X-1.8860 Y1.3959 
G01 X-1.8741 Y1.3840 
G01 X-1.8688 Y1.3818 
G01 X-1.8666 Y1.3797 
G01 X-1.8660 Y1.3781 
G01 X-1.8655 Y1.3769 
G01 X-1.8655 Y1.3715 
G01 X-1.8666 Y1.3688 
G01 X-1.8688 Y1.3666 
G01 X-1.8715 Y1.3655 
G01 X-1.9477 Y1.3655 
G01 X-1.9479 Y1.3654 
G01 X-1.9492 Y1.3655 
G01 X-1.9504 Y1.3655 
G01 X-1.9507 Y1.3656 
G01 X-1.9509 Y1.3656 
G01 X-1.9520 Y1.3662 
G01 X-1.9532 Y1.3666 
G01 X-1.9534 Y1.3668 
G01 X-1.9536 Y1.3669 
G01 X-1.9544 Y1.3679 
G01 X-1.9553 Y1.3688 
G01 X-1.9554 Y1.3690 
G01 X-1.9990 Y1.4188 
G01 X-1.9999 Y1.4197 
G01 X-2.0000 Y1.4199 
G01 X-2.0001 Y1.4201 
G01 X-2.0005 Y1.4213 
G01 X-2.0010 Y1.4225 
G01 X-2.0010 Y1.4227 
G01 X-2.0011 Y1.4230 
G01 X-2.0010 Y1.4242 
G01 X-2.0010 Y1.4254 
G01 X-2.0009 Y1.4257 
G01 X-2.0009 Y1.4259 
G01 X-2.0004 Y1.4271 
G01 X-1.9999 Y1.4282 
G01 X-1.9997 Y1.4284 
G01 X-1.9996 Y1.4286 
G01 X-1.9986 Y1.4294 
G01 X-1.8617 Y1.5664 
G01 X-1.8590 Y1.5675 
G01 X-1.8415 Y1.5675 
G01 X-1.8259 Y1.5740 
G01 X-1.8140 Y1.5859 
G01 X-1.8075 Y1.6015 
G01 X-1.8075 Y1.6046 
G01 X-1.8075 Y1.6054 
G01 X-1.8075 Y1.6055 
G01 X-1.8076 Y1.6064 
G01 X-1.8075 Y1.6070 
G01 X-1.8075 Y1.6130 
G01 X-1.8076 Y1.6136 
G01 X-1.8075 Y1.6145 
G01 X-1.8075 Y1.6185 
G01 X-1.8140 Y1.6341 
G01 X-1.8259 Y1.6460 
G01 X-1.8312 Y1.6482 
G01 X-1.8334 Y1.6503 
G01 X-1.8340 Y1.6519 
G01 X-1.8345 Y1.6531 
G01 X-1.8345 Y1.7469 
G01 X-1.8340 Y1.7480 
G01 X-1.8334 Y1.7497 
G01 X-1.8312 Y1.7518 
G01 X-1.8310 Y1.7519 
G01 X-1.8259 Y1.7540 
G01 X-1.8140 Y1.7659 
G01 X-1.8075 Y1.7815 
G01 X-1.8075 Y1.7846 
G01 X-1.8075 Y1.7855 
G01 X-1.8076 Y1.7864 
G01 X-1.8075 Y1.7870 
G01 X-1.8075 Y1.7930 
G01 X-1.8076 Y1.7936 
G01 X-1.8075 Y1.7945 
G01 X-1.8075 Y1.7985 
G01 X-1.8140 Y1.8141 
G01 X-1.8259 Y1.8260 
G01 X-1.8415 Y1.8325 
G01 X-1.8585 Y1.8325 
G01 X-1.8741 Y1.8260 
G01 X-1.8860 Y1.8141 
G01 X-1.8925 Y1.7985 
G01 X-1.8925 Y1.7815 
G01 X-1.8860 Y1.7659 
G01 X-1.8741 Y1.7540 
G01 X-1.8688 Y1.7518 
G01 X-1.8666 Y1.7497 
G01 X-1.8660 Y1.7481 
G01 X-1.8655 Y1.7469 
G01 X-1.8655 Y1.6531 
G01 X-1.8660 Y1.6520 
G01 X-1.8666 Y1.6503 
G01 X-1.8688 Y1.6482 
G01 X-1.8690 Y1.6481 
G01 X-1.8741 Y1.6460 
G01 X-1.8860 Y1.6341 
G01 X-1.8925 Y1.6185 
G01 X-1.8925 Y1.6015 
G01 X-1.8885 Y1.5919 
G01 X-1.8881 Y1.5908 
G01 X-1.8874 Y1.5892 
G01 X-1.8874 Y1.5862 
G01 X-1.8885 Y1.5834 
G01 X-1.8906 Y1.5813 
G01 X-2.0208 Y1.4512 
G01 X-2.0235 Y1.4500 
G01 X-2.0265 Y1.4500 
G01 X-2.0292 Y1.4512 
G01 X-2.0314 Y1.4533 
G01 X-2.1886 Y1.6105 
G01 X-2.1897 Y1.6132 
G01 X-2.1897 Y1.6162 
G01 X-2.1888 Y1.6183 
G01 X-2.1886 Y1.6190 
G01 X-2.1875 Y1.6215 
G01 X-2.1875 Y1.6385 
G01 X-2.1940 Y1.6541 
G01 X-2.2059 Y1.6660 
G01 X-2.2215 Y1.6725 
G01 X-2.2385 Y1.6725 
G01 X-2.2541 Y1.6660 
G01 X-2.2660 Y1.6541 
G01 X-2.2725 Y1.6385 
G01 X-2.2725 Y1.6215 
G01 X-2.2660 Y1.6059 
G01 X-2.2541 Y1.5940 
G01 X-2.2385 Y1.5875 
G01 X-2.2354 Y1.5875 
G01 X-2.2345 Y1.5875 
G01 X-2.2336 Y1.5876 
G01 X-2.2330 Y1.5875 
G01 X-2.2270 Y1.5875 
G01 X-2.2264 Y1.5876 
G01 X-2.2255 Y1.5875 
G01 X-2.2215 Y1.5875 
G01 X-2.2190 Y1.5886 
G01 X-2.2184 Y1.5888 
G01 X-2.2162 Y1.5897 
G01 X-2.2132 Y1.5897 
G01 X-2.2106 Y1.5886 
G01 X-2.2084 Y1.5865 
G01 X-2.2024 Y1.5805 
G01 X-2.2021 Y1.5803 
G01 X-2.2013 Y1.5794 
G01 X-2.2005 Y1.5786 
G01 X-2.2004 Y1.5783 
G01 X-2.2002 Y1.5781 
G01 X-2.1998 Y1.5769 
G01 X-2.1993 Y1.5758 
G01 X-2.1993 Y1.5755 
G01 X-2.1993 Y1.5752 
G01 X-2.1993 Y1.5740 
G01 X-2.1993 Y1.5728 
G01 X-2.1995 Y1.5725 
G01 X-2.1995 Y1.5722 
G01 X-2.2000 Y1.5712 
G01 X-2.2005 Y1.5701 
G01 X-2.2007 Y1.5699 
G01 X-2.2008 Y1.5696 
G01 X-2.2018 Y1.5688 
G01 X-2.2026 Y1.5680 
G01 X-2.2029 Y1.5678 
G01 X-2.2031 Y1.5676 
G01 X-2.2042 Y1.5673 
G01 X-2.2054 Y1.5668 
G01 X-2.2057 Y1.5668 
G01 X-2.2059 Y1.5667 
G01 X-2.2071 Y1.5668 
G01 X-2.2083 Y1.5668 
G01 X-2.2086 Y1.5669 
G01 X-2.2089 Y1.5670 
G01 X-2.2100 Y1.5675 
G01 X-2.2111 Y1.5680 
G01 X-2.2113 Y1.5682 
G01 X-2.2137 Y1.5694 
G01 X-2.2195 Y1.5713 
G01 X-2.2195 Y1.5702 
G01 X-2.2141 Y1.5685 
G01 X-2.2082 Y1.5655 
G01 X-2.2030 Y1.5617 
G01 X-2.1983 Y1.5570 
G01 X-2.1945 Y1.5518 
G01 X-2.1915 Y1.5459 
G01 X-2.1898 Y1.5405 
G01 X-2.1887 Y1.5405 
G01 X-2.1906 Y1.5463 
G01 X-2.1918 Y1.5487 
G01 X-2.1920 Y1.5489 
G01 X-2.1925 Y1.5500 
G01 X-2.1930 Y1.5511 
G01 X-2.1931 Y1.5514 
G01 X-2.1932 Y1.5517 
G01 X-2.1932 Y1.5529 
G01 X-2.1933 Y1.5541 
G01 X-2.1932 Y1.5543 
G01 X-2.1932 Y1.5546 
G01 X-2.1927 Y1.5558 
G01 X-2.1924 Y1.5569 
G01 X-2.1922 Y1.5571 
G01 X-2.1920 Y1.5574 
G01 X-2.1912 Y1.5583 
G01 X-2.1904 Y1.5592 
G01 X-2.1901 Y1.5593 
G01 X-2.1899 Y1.5595 
G01 X-2.1888 Y1.5600 
G01 X-2.1878 Y1.5605 
G01 X-2.1875 Y1.5605 
G01 X-2.1872 Y1.5607 
G01 X-2.1860 Y1.5607 
G01 X-2.1848 Y1.5607 
G01 X-2.1845 Y1.5607 
G01 X-2.1842 Y1.5607 
G01 X-2.1831 Y1.5602 
G01 X-2.1819 Y1.5598 
G01 X-2.1817 Y1.5596 
G01 X-2.1814 Y1.5595 
G01 X-2.1806 Y1.5587 
G01 X-2.1797 Y1.5579 
G01 X-2.1795 Y1.5576 
G01 X-2.0416 Y1.4197 
G01 X-2.0374 Y1.4155 
G01 X-2.0371 Y1.4153 
G01 X-2.0363 Y1.4144 
G01 X-2.0354 Y1.4135 
G01 X-2.0353 Y1.4133 
G01 X-1.9811 Y1.3513 
G01 X-1.9805 Y1.3508 
G01 X-1.9802 Y1.3502 
G01 X-1.9797 Y1.3497 
G01 X-1.9795 Y1.3489 
G01 X-1.9791 Y1.3482 
G01 X-1.9790 Y1.3475 
G01 X-1.9788 Y1.3469 
G01 X-1.9788 Y1.3461 
G01 X-1.9787 Y1.3452 
G01 X-1.9789 Y1.3446 
G01 X-1.9790 Y1.3439 
G01 X-1.9793 Y1.3432 
G01 X-1.9796 Y1.3424 
G01 X-1.9800 Y1.3418 
G01 X-1.9803 Y1.3412 
G01 X-1.9809 Y1.3407 
G01 X-2.1255 Y1.1611 
G01 X-2.1256 Y1.1608 
G01 X-2.1264 Y1.1600 
G01 X-2.1271 Y1.1591 
G01 X-2.1274 Y1.1589 
G01 X-2.1277 Y1.1586 
G01 X-2.1287 Y1.1582 
G01 X-2.1297 Y1.1577 
G01 X-2.1301 Y1.1577 
G01 X-2.1305 Y1.1575 
G01 X-2.1316 Y1.1575 
G01 X-2.1326 Y1.1574 
G01 X-2.1330 Y1.1575 
G01 X-2.4508 Y1.1575 
G01 X-2.4515 Y1.1574 
G01 X-2.4523 Y1.1575 
G01 X-2.4531 Y1.1575 
G01 X-2.4538 Y1.1578 
G01 X-2.4544 Y1.1579 
G01 X-2.4551 Y1.1583 
G01 X-2.4559 Y1.1586 
G01 X-2.4564 Y1.1591 
G01 X-2.5485 Y1.2177 
G01 X-2.5492 Y1.2180 
G01 X-2.5497 Y1.2185 
G01 X-2.5503 Y1.2189 
G01 X-2.5508 Y1.2196 
G01 X-2.5514 Y1.2202 
G01 X-2.5516 Y1.2208 
G01 X-2.5520 Y1.2213 
G01 X-2.5522 Y1.2221 
G01 X-2.5525 Y1.2229 
G01 X-2.5525 Y1.2236 
G01 X-2.5526 Y1.2242 
G01 X-2.5525 Y1.2251 
G01 X-2.5525 Y1.4425 
G01 X-2.5526 Y1.4429 
G01 X-2.5525 Y1.4440 
G01 X-2.5525 Y1.4450 
G01 X-2.5523 Y1.4454 
G01 X-2.5522 Y1.4463 
G01 X-2.5525 Y1.4470 
G01 X-2.5525 Y1.4474 
G01 X-2.5526 Y1.4479 
G01 X-2.5525 Y1.4486 
G01 X-2.5529 Y1.4494 
G01 X-2.5532 Y1.4497 
G01 X-2.5534 Y1.4507 
G01 X-2.5538 Y1.4517 
G01 X-2.5538 Y1.4522 
G01 X-2.5541 Y1.4530 
G01 X-2.5546 Y1.4535 
G01 X-2.5548 Y1.4539 
G01 X-2.5550 Y1.4543 
G01 X-2.5552 Y1.4550 
G01 X-2.5559 Y1.4556 
G01 X-2.5562 Y1.4558 
G01 X-2.5569 Y1.4566 
G01 X-2.5576 Y1.4574 
G01 X-2.5578 Y1.4578 
G01 X-2.6288 Y1.5478 
G01 X-2.6296 Y1.5485 
G01 X-2.6298 Y1.5489 
G01 X-2.6300 Y1.5493 
G01 X-2.6302 Y1.5500 
G01 X-2.6309 Y1.5506 
G01 X-2.6312 Y1.5508 
G01 X-2.6319 Y1.5516 
G01 X-2.6326 Y1.5524 
G01 X-2.6328 Y1.5528 
G01 X-2.6334 Y1.5535 
G01 X-2.6340 Y1.5538 
G01 X-2.6343 Y1.5541 
G01 X-2.6347 Y1.5543 
G01 X-2.6352 Y1.5549 
G01 X-2.6360 Y1.5552 
G01 X-2.6364 Y1.5553 
G01 X-2.6374 Y1.5558 
G01 X-2.6383 Y1.5562 
G01 X-2.6386 Y1.5565 
G01 X-2.6394 Y1.5569 
G01 X-2.6401 Y1.5569 
G01 X-2.6405 Y1.5571 
G01 X-2.6410 Y1.5571 
G01 X-2.6416 Y1.5575 
G01 X-2.6425 Y1.5575 
G01 X-2.6429 Y1.5574 
G01 X-2.6440 Y1.5575 
G01 X-2.6450 Y1.5575 
G01 X-2.6454 Y1.5577 
G01 X-2.6463 Y1.5578 
G01 X-2.6470 Y1.5575 
G01 X-2.6474 Y1.5575 
G01 X-2.6479 Y1.5574 
G01 X-2.6489 Y1.5575 
G01 X-2.7558 Y1.5575 
G01 X-2.7585 Y1.5586 
G01 X-2.7606 Y1.5608 
G01 X-2.7659 Y1.5660 
G01 X-2.7815 Y1.5725 
G01 X-2.7855 Y1.5725 
G01 X-2.7864 Y1.5724 
G01 X-2.7870 Y1.5725 
G01 X-2.7930 Y1.5725 
G01 X-2.7936 Y1.5724 
G01 X-2.7945 Y1.5725 
G01 X-2.7985 Y1.5725 
G01 X-2.8141 Y1.5660 
G01 X-2.8260 Y1.5541 
G01 X-2.8325 Y1.5385 
G01 X-2.8325 Y1.5215 
G01 X-2.8260 Y1.5059 
G01 X-2.8141 Y1.4940 
G01 X-2.7985 Y1.4875 
G01 X-2.7815 Y1.4875 
G01 X-2.7659 Y1.4940 
G01 X-2.7540 Y1.5059 
G01 X-2.7485 Y1.5192 
G01 X-2.7463 Y1.5214 
G01 X-2.7448 Y1.5220 
G01 X-2.7436 Y1.5225 
G01 X-2.6582 Y1.5225 
G01 X-2.6577 Y1.5226 
G01 X-2.6567 Y1.5225 
G01 X-2.6556 Y1.5225 
G01 X-2.6552 Y1.5223 
G01 X-2.6548 Y1.5223 
G01 X-2.6538 Y1.5218 
G01 X-2.6529 Y1.5214 
G01 X-2.6525 Y1.5210 
G01 X-2.6522 Y1.5208 
G01 X-2.6515 Y1.5200 
G01 X-2.6508 Y1.5192 
G01 X-2.6506 Y1.5188 
G01 X-2.5894 Y1.4413 
G01 X-2.5886 Y1.4406 
G01 X-2.5885 Y1.4402 
G01 X-2.5882 Y1.4398 
G01 X-2.5879 Y1.4388 
G01 X-2.5875 Y1.4378 
G01 X-2.5875 Y1.4374 
G01 X-2.5874 Y1.4369 
G01 X-2.5875 Y1.4359 
G01 X-2.5875 Y1.2137 
G01 X-2.5874 Y1.2130 
G01 X-2.5875 Y1.2122 
G01 X-2.5875 Y1.2114 
G01 X-2.5878 Y1.2108 
G01 X-2.5878 Y1.2103 
G01 X-2.5875 Y1.2094 
G01 X-2.5875 Y1.2088 
G01 X-2.5874 Y1.2081 
G01 X-2.5875 Y1.2073 
G01 X-2.5873 Y1.2068 
G01 X-2.5869 Y1.2062 
G01 X-2.5868 Y1.2054 
G01 X-2.5864 Y1.2046 
G01 X-2.5864 Y1.2040 
G01 X-2.5863 Y1.2035 
G01 X-2.5857 Y1.2028 
G01 X-2.5854 Y1.2022 
G01 X-2.5850 Y1.2017 
G01 X-2.5849 Y1.2008 
G01 X-2.5845 Y1.2004 
G01 X-2.5839 Y1.2001 
G01 X-2.5835 Y1.1994 
G01 X-2.5829 Y1.1988 
G01 X-2.5826 Y1.1982 
G01 X-2.5823 Y1.1978 
G01 X-2.5815 Y1.1974 
G01 X-2.5810 Y1.1970 
G01 X-2.5805 Y1.1966 
G01 X-2.5800 Y1.1959 
G01 X-2.5795 Y1.1957 
G01 X-2.5788 Y1.1955 
G01 X-2.5781 Y1.1951 
G01 X-2.5773 Y1.1948 
G01 X-2.5769 Y1.1943 
G01 X-2.5382 Y1.1697 
G01 X-2.5370 Y1.1690 
G01 X-2.5369 Y1.1689 
G01 X-2.5361 Y1.1677 
G01 X-2.5353 Y1.1666 
G01 X-2.5352 Y1.1664 
G01 X-2.5349 Y1.1651 
G01 X-2.5346 Y1.1637 
G01 X-2.5346 Y1.1635 
G01 X-2.5348 Y1.1621 
G01 X-2.5350 Y1.1608 
G01 X-2.5351 Y1.1606 
G01 X-2.5358 Y1.1594 
G01 X-2.5366 Y1.1582 
G01 X-2.5367 Y1.1581 
G01 X-2.5378 Y1.1573 
G01 X-2.5390 Y1.1564 
G01 X-2.5391 Y1.1564 
G01 X-2.5401 Y1.1562 
G01 X-2.5406 Y1.1556 
G01 X-2.5412 Y1.1554 
G01 X-2.5416 Y1.1550 
G01 X-2.5424 Y1.1548 
G01 X-2.5429 Y1.1544 
G01 X-2.5432 Y1.1539 
G01 X-2.5439 Y1.1533 
G01 X-2.5446 Y1.1527 
G01 X-2.5451 Y1.1524 
G01 X-2.5787 Y1.1277 
G01 X-2.5794 Y1.1271 
G01 X-2.5799 Y1.1269 
G01 X-2.5805 Y1.1262 
G01 X-2.5811 Y1.1260 
G01 X-2.5834 Y1.1243 
G01 X-2.5841 Y1.1232 
G01 X-2.5844 Y1.1224 
G01 X-2.5848 Y1.1220 
G01 X-2.5852 Y1.1211 
G01 X-2.5856 Y1.1207 
G01 X-2.5870 Y1.1184 
G01 X-2.5872 Y1.1172 
G01 X-2.5872 Y1.1163 
G01 X-2.5874 Y1.1157 
G01 X-2.5875 Y1.1152 
G01 X-2.5875 Y1.1142 
G01 X-2.5877 Y1.1137 
G01 X-2.5881 Y1.1115 
G01 X-2.5879 Y1.1106 
G01 X-2.5875 Y1.1098 
G01 X-2.5875 Y1.1092 
G01 X-2.5874 Y1.1086 
G01 X-2.5875 Y1.1077 
G01 X-2.5875 Y1.0923 
G01 X-2.5880 Y1.0912 
G01 X-2.5886 Y1.0895 
G01 X-2.5908 Y1.0874 
G01 X-2.5909 Y1.0873 
G01 X-2.5941 Y1.0860 
G01 X-2.6060 Y1.0741 
G01 X-2.6125 Y1.0585 
G01 X-2.6125 Y1.0415 
G01 X-2.6060 Y1.0259 
G01 X-2.5936 Y1.0135 
G01 X-2.5925 Y1.0108 
G01 X-2.5925 Y0.8792 
G01 X-2.5936 Y0.8765 
G01 X-2.5958 Y0.8744 
G01 X-2.5960 Y0.8741 
G01 X-2.6025 Y0.8585 
G01 X-2.6025 Y0.8415 
G01 X-2.5960 Y0.8259 
G01 X-2.5936 Y0.8235 
G01 X-2.5925 Y0.8208 
G01 X-2.5925 Y0.6792 
G01 X-2.5934 Y0.6770 
G01 X-2.5936 Y0.6765 
G01 X-2.5951 Y0.6750 
G01 X-2.5958 Y0.6744 
G01 X-2.5960 Y0.6741 
G01 X-2.6025 Y0.6585 
G01 X-2.6025 Y0.6415 
G01 X-2.5960 Y0.6259 
G01 X-2.5958 Y0.6256 
G01 X-2.5952 Y0.6251 
G01 X-2.5936 Y0.6235 
G01 X-2.5935 Y0.6231 
G01 X-2.5925 Y0.6208 
G01 X-2.5925 Y0.4792 
G01 X-2.5936 Y0.4765 
G01 X-2.5958 Y0.4744 
G01 X-2.5960 Y0.4741 
G01 X-2.6025 Y0.4585 
G01 X-2.6025 Y0.4415 
G01 X-2.5960 Y0.4259 
G01 X-2.5841 Y0.4140 
G01 X-2.5685 Y0.4075 
G01 X-2.5515 Y0.4075 
G01 X-2.5359 Y0.4140 
G01 X-2.5240 Y0.4259 
G01 X-2.5175 Y0.4415 
G01 X-2.5175 Y0.4446 
G01 X-2.5175 Y0.4453 
G01 X-2.5175 Y0.4455 
G01 X-2.5176 Y0.4464 
G01 X-2.5175 Y0.4470 
G01 X-2.5175 Y0.4530 
G01 X-2.5176 Y0.4536 
G01 X-2.5175 Y0.4545 
G01 X-2.5175 Y0.4585 
G01 X-2.5240 Y0.4741 
G01 X-2.5359 Y0.4860 
G01 X-2.5542 Y0.4936 
G01 X-2.5564 Y0.4957 
G01 X-2.5575 Y0.4985 
G01 X-2.5575 Y0.6015 
G01 X-2.5564 Y0.6043 
G01 X-2.5542 Y0.6064 
G01 X-2.5359 Y0.6140 
G01 X-2.5240 Y0.6259 
G01 X-2.5175 Y0.6415 
G01 X-2.5175 Y0.6446 
G01 X-2.5175 Y0.6453 
G01 X-2.5175 Y0.6455 
G01 X-2.5176 Y0.6464 
G01 X-2.5175 Y0.6470 
G01 X-2.5175 Y0.6530 
G01 X-2.5176 Y0.6536 
G01 X-2.5175 Y0.6545 
G01 X-2.5175 Y0.6585 
G01 X-2.5240 Y0.6741 
G01 X-2.5359 Y0.6860 
G01 X-2.5542 Y0.6936 
G01 X-2.5564 Y0.6957 
G01 X-2.5575 Y0.6985 
G01 X-2.5575 Y0.8015 
G01 X-2.5564 Y0.8043 
G01 X-2.5542 Y0.8064 
G01 X-2.5359 Y0.8140 
G01 X-2.5240 Y0.8259 
G01 X-2.5175 Y0.8415 
G01 X-2.5175 Y0.8446 
G01 X-2.5175 Y0.8455 
G01 X-2.5176 Y0.8464 
G01 X-2.5175 Y0.8470 
G01 X-2.5175 Y0.8530 
G01 X-2.5176 Y0.8536 
G01 X-2.5175 Y0.8545 
G01 X-2.5175 Y0.8585 
G01 X-2.5240 Y0.8741 
G01 X-2.5359 Y0.8860 
G01 X-2.5542 Y0.8936 
G01 X-2.5564 Y0.8957 
G01 X-2.5575 Y0.8985 
G01 X-2.5575 Y1.0057 
G01 X-2.5564 Y1.0084 
G01 X-2.5542 Y1.0105 
G01 X-2.5518 Y1.0116 
G01 X-2.5459 Y1.0140 
G01 X-2.5340 Y1.0259 
G01 X-2.5275 Y1.0415 
G01 X-2.5275 Y1.0446 
G01 X-2.5275 Y1.0455 
G01 X-2.5276 Y1.0464 
G01 X-2.5275 Y1.0470 
G01 X-2.5275 Y1.0530 
G01 X-2.5276 Y1.0536 
G01 X-2.5275 Y1.0545 
G01 X-2.5275 Y1.0585 
G01 X-2.5340 Y1.0741 
G01 X-2.5459 Y1.0860 
G01 X-2.5492 Y1.0874 
G01 X-2.5514 Y1.0895 
G01 X-2.5520 Y1.0911 
G01 X-2.5525 Y1.0923 
G01 X-2.5525 Y1.0989 
G01 X-2.5526 Y1.0995 
G01 X-2.5525 Y1.1004 
G01 X-2.5525 Y1.1013 
G01 X-2.5523 Y1.1018 
G01 X-2.5522 Y1.1024 
G01 X-2.5517 Y1.1032 
G01 X-2.5514 Y1.1040 
G01 X-2.5509 Y1.1045 
G01 X-2.5506 Y1.1050 
G01 X-2.5499 Y1.1055 
G01 X-2.5492 Y1.1062 
G01 X-2.5487 Y1.1064 
G01 X-2.5292 Y1.1207 
G01 X-2.5286 Y1.1214 
G01 X-2.5280 Y1.1216 
G01 X-2.5276 Y1.1219 
G01 X-2.5267 Y1.1221 
G01 X-2.5258 Y1.1225 
G01 X-2.5252 Y1.1225 
G01 X-2.5247 Y1.1226 
G01 X-2.5237 Y1.1225 
G01 X-2.1240 Y1.1225 
G01 X-2.1229 Y1.1226 
G01 X-2.1225 Y1.1225 
G01 X-2.1221 Y1.1225 
G01 X-2.1215 Y1.1222 
G01 X-2.1205 Y1.1223 
G01 X-2.1201 Y1.1225 
G01 X-2.1191 Y1.1225 
G01 X-2.1180 Y1.1226 
G01 X-2.1176 Y1.1225 
G01 X-2.1166 Y1.1225 
G01 X-2.1160 Y1.1228 
G01 X-2.1156 Y1.1229 
G01 X-2.1152 Y1.1230 
G01 X-2.1146 Y1.1230 
G01 X-2.1137 Y1.1235 
G01 X-2.1134 Y1.1238 
G01 X-2.1124 Y1.1242 
G01 X-2.1115 Y1.1247 
G01 X-2.1111 Y1.1248 
G01 X-2.1102 Y1.1251 
G01 X-2.1098 Y1.1257 
G01 X-2.1094 Y1.1259 
G01 X-2.1091 Y1.1261 
G01 X-2.1085 Y1.1264 
G01 X-2.1079 Y1.1271 
G01 X-2.1077 Y1.1275 
G01 X-2.1070 Y1.1283 
G01 X-2.1063 Y1.1291 
G01 X-2.1059 Y1.1293 
G01 X-2.1052 Y1.1300 
G01 X-2.1051 Y1.1307 
G01 X-2.1048 Y1.1310 
G01 X-2.1046 Y1.1314 
G01 X-2.1039 Y1.1321 
G01 X-1.9439 Y1.3309 
G01 X-1.9438 Y1.3312 
G01 X-1.9430 Y1.3320 
G01 X-1.9423 Y1.3329 
G01 X-1.9419 Y1.3331 
G01 X-1.9416 Y1.3334 
G01 X-1.9406 Y1.3338 
G01 X-1.9397 Y1.3343 
G01 X-1.9393 Y1.3343 
G01 X-1.9389 Y1.3345 
G01 X-1.9378 Y1.3345 
G01 X-1.9367 Y1.3346 
G01 X-1.9363 Y1.3345 
G01 X-1.8715 Y1.3345 
G01 X-1.8688 Y1.3334 
G01 X-1.8666 Y1.3312 
G01 X-1.8655 Y1.3285 
G01 X-1.8655 Y1.2931 
G01 X-1.8660 Y1.2920 
G01 X-1.8666 Y1.2903 
G01 X-1.8688 Y1.2882 
G01 X-1.8690 Y1.2881 
G01 X-1.8741 Y1.2860 
G01 X-1.8860 Y1.2741 
G01 X-1.8925 Y1.2585 
G01 X-1.8925 Y1.2415 
G01 X-1.8860 Y1.2259 
G01 X-1.8741 Y1.2140 
G01 X-1.8688 Y1.2118 
G01 X-1.8666 Y1.2097 
G01 X-1.8660 Y1.2081 
G01 X-1.8655 Y1.2069 
G01 X-1.8655 Y1.2019 
G01 X-1.8654 Y1.2017 
G01 X-1.8655 Y1.2004 
G01 X-1.8655 Y1.1991 
G01 X-1.8656 Y1.1989 
G01 X-1.8659 Y1.1939 
G01 X-1.8623 Y1.1904 
G01 X-1.8621 Y1.1903 
G01 X-1.8613 Y1.1893 
G01 X-1.8604 Y1.1884 
G01 X-1.8603 Y1.1882 
G01 X-1.7825 Y1.1014 
G01 X-1.7816 Y1.1005 
G01 X-1.7816 Y1.1003 
G01 X-1.7814 Y1.1001 
G01 X-1.7811 Y1.0992 
G01 X-1.7773 Y1.0954 
G01 X-1.7771 Y1.0953 
G01 X-1.7763 Y1.0943 
G01 X-1.7754 Y1.0934 
G01 X-1.7753 Y1.0932 
G01 X-1.7719 Y1.0895 
G01 X-1.7669 Y1.0895 
G01 X-1.7667 Y1.0896 
G01 X-1.7654 Y1.0895 
G01 X-1.7641 Y1.0895 
G01 X-1.7639 Y1.0894 
G01 X-1.7586 Y1.0891 
G01 X-1.7577 Y1.0895 
G01 X-1.7575 Y1.0895 
G01 X-1.7573 Y1.0896 
G01 X-1.7560 Y1.0895 
G01 X-1.0070 Y1.0895 
G01 X-1.0058 Y1.0896 
G01 X-1.0055 Y1.0895 
G01 X-1.0052 Y1.0895 
G01 X-1.0041 Y1.0890 
G01 X-1.0029 Y1.0887 
G01 X-1.0027 Y1.0885 
G01 X-1.0025 Y1.0884 
G01 X-1.0016 Y1.0875 
G01 X-0.9440 Y1.0378 
G01 X-0.9438 Y1.0377 
G01 X-0.9429 Y1.0368 
G01 X-0.9420 Y1.0360 
G01 X-0.9418 Y1.0358 
G01 X-0.9416 Y1.0356 
G01 X-0.9412 Y1.0344 
G01 X-0.9406 Y1.0334 
G01 X-0.9406 Y1.0331 
G01 X-0.9405 Y1.0328 
G01 X-0.9405 Y1.0316 
G01 X-0.9404 Y1.0304 
G01 X-0.9405 Y1.0301 
G01 X-0.9405 Y0.2812 
G01 X-0.9416 Y0.2785 
G01 X-0.9460 Y0.2741 
G01 X-0.9525 Y0.2585 
G01 X-0.9525 Y0.2545 
G01 X-0.9524 Y0.2536 
G01 X-0.9525 Y0.2530 
G01 X-0.9525 Y0.2470 
G01 X-0.9524 Y0.2464 
G01 X-0.9525 Y0.2455 
G01 X-0.9525 Y0.2415 
G01 X-0.9460 Y0.2259 
G01 X-0.9341 Y0.2140 
G01 X-0.9185 Y0.2075 
G01 X-0.9015 Y0.2075 
G01 X-0.8859 Y0.2140 
G01 X-0.8740 Y0.2259 
G00 Z0.1000 
G00 X-0.9737 Y0.2277 
G01 Z-0.0070 F10.00 
G01 X-0.9706 Y0.2337 F20.00 
G01 X-0.9687 Y0.2395 
G01 X-0.9698 Y0.2395 
G01 X-0.9715 Y0.2341 
G01 X-0.9745 Y0.2282 
G01 X-0.9783 Y0.2230 
G01 X-0.9830 Y0.2183 
G01 X-0.9882 Y0.2145 
G01 X-0.9941 Y0.2115 
G01 X-0.9995 Y0.2098 
G01 X-0.9995 Y0.2087 
G01 X-0.9937 Y0.2106 
G01 X-0.9877 Y0.2137 
G01 X-0.9823 Y0.2176 
G01 X-0.9776 Y0.2223 
G01 X-0.9737 Y0.2277 
G00 Z0.1000 
G00 X-0.9698 Y0.2605 
G01 Z-0.0070 F10.00 
G01 X-0.9687 Y0.2605 F20.00 
G01 X-0.9706 Y0.2663 
G01 X-0.9737 Y0.2723 
G01 X-0.9776 Y0.2777 
G01 X-0.9823 Y0.2824 
G01 X-0.9877 Y0.2863 
G01 X-0.9937 Y0.2894 
G01 X-0.9995 Y0.2913 
G01 X-0.9995 Y0.2902 
G01 X-0.9941 Y0.2885 
G01 X-0.9882 Y0.2855 
G01 X-0.9830 Y0.2817 
G01 X-0.9783 Y0.2770 
G01 X-0.9745 Y0.2718 
G01 X-0.9715 Y0.2659 
G01 X-0.9698 Y0.2605 
G00 Z0.1000 
G00 X-1.0502 Y0.2605 
G01 Z-0.0070 F10.00 
G01 X-1.0485 Y0.2659 F20.00 
G01 X-1.0455 Y0.2718 
G01 X-1.0417 Y0.2770 
G01 X-1.0370 Y0.2817 
G01 X-1.0318 Y0.2855 
G01 X-1.0259 Y0.2885 
G01 X-1.0205 Y0.2902 
G01 X-1.0205 Y0.2913 
G01 X-1.0263 Y0.2894 
G01 X-1.0323 Y0.2863 
G01 X-1.0377 Y0.2824 
G01 X-1.0424 Y0.2777 
G01 X-1.0463 Y0.2723 
G01 X-1.0494 Y0.2663 
G01 X-1.0513 Y0.2605 
G01 X-1.0502 Y0.2605 
G00 Z0.1000 
G00 X-1.0687 Y0.2605 
G01 Z-0.0070 F10.00 
G01 X-1.0706 Y0.2663 F20.00 
G01 X-1.0737 Y0.2723 
G01 X-1.0776 Y0.2777 
G01 X-1.0823 Y0.2824 
G01 X-1.0877 Y0.2863 
G01 X-1.0937 Y0.2894 
G01 X-1.0995 Y0.2913 
G01 X-1.0995 Y0.2902 
G01 X-1.0941 Y0.2885 
G01 X-1.0882 Y0.2855 
G01 X-1.0830 Y0.2817 
G01 X-1.0783 Y0.2770 
G01 X-1.0745 Y0.2718 
G01 X-1.0715 Y0.2659 
G01 X-1.0698 Y0.2605 
G01 X-1.0687 Y0.2605 
G00 Z0.1000 
G00 X-1.0687 Y0.2395 
G01 Z-0.0070 F10.00 
G01 X-1.0698 Y0.2395 F20.00 
G01 X-1.0715 Y0.2341 
G01 X-1.0745 Y0.2282 
G01 X-1.0783 Y0.2230 
G01 X-1.0830 Y0.2183 
G01 X-1.0882 Y0.2145 
G01 X-1.0941 Y0.2115 
G01 X-1.0995 Y0.2098 
G01 X-1.0995 Y0.2087 
G01 X-1.0937 Y0.2106 
G01 X-1.0877 Y0.2137 
G01 X-1.0823 Y0.2176 
G01 X-1.0776 Y0.2223 
G01 X-1.0737 Y0.2277 
G01 X-1.0706 Y0.2337 
G01 X-1.0687 Y0.2395 
G00 Z0.1000 
G00 X-1.0513 Y0.2395 
G01 Z-0.0070 F10.00 
G01 X-1.0494 Y0.2337 F20.00 
G01 X-1.0463 Y0.2277 
G01 X-1.0424 Y0.2223 
G01 X-1.0377 Y0.2176 
G01 X-1.0323 Y0.2137 
G01 X-1.0263 Y0.2106 
G01 X-1.0205 Y0.2087 
G01 X-1.0205 Y0.2098 
G01 X-1.0259 Y0.2115 
G01 X-1.0318 Y0.2145 
G01 X-1.0370 Y0.2183 
G01 X-1.0417 Y0.2230 
G01 X-1.0455 Y0.2282 
G01 X-1.0485 Y0.2341 
G01 X-1.0502 Y0.2395 
G01 X-1.0513 Y0.2395 
G00 Z0.1000 
G00 X-1.1205 Y0.2098 
G01 Z-0.0070 F10.00 
G01 X-1.1259 Y0.2115 F20.00 
G01 X-1.1318 Y0.2145 
G01 X-1.1370 Y0.2183 
G01 X-1.1417 Y0.2230 
G01 X-1.1455 Y0.2282 
G01 X-1.1485 Y0.2341 
G01 X-1.1502 Y0.2395 
G01 X-1.1513 Y0.2395 
G01 X-1.1494 Y0.2337 
G01 X-1.1463 Y0.2277 
G01 X-1.1424 Y0.2223 
G01 X-1.1377 Y0.2176 
G01 X-1.1323 Y0.2137 
G01 X-1.1263 Y0.2106 
G01 X-1.1205 Y0.2087 
G01 X-1.1205 Y0.2098 
G00 Z0.1000 
G00 X-1.1502 Y0.2605 
G01 Z-0.0070 F10.00 
G01 X-1.1485 Y0.2659 F20.00 
G01 X-1.1455 Y0.2718 
G01 X-1.1417 Y0.2770 
G01 X-1.1370 Y0.2817 
G01 X-1.1318 Y0.2855 
G01 X-1.1259 Y0.2885 
G01 X-1.1205 Y0.2902 
G01 X-1.1205 Y0.2913 
G01 X-1.1263 Y0.2894 
G01 X-1.1323 Y0.2863 
G01 X-1.1377 Y0.2824 
G01 X-1.1424 Y0.2777 
G01 X-1.1463 Y0.2723 
G01 X-1.1494 Y0.2663 
G01 X-1.1513 Y0.2605 
G01 X-1.1502 Y0.2605 
G00 Z0.1000 
G00 X-1.3675 Y0.2585 
G01 Z-0.0070 F10.00 
G01 X-1.3740 Y0.2741 F20.00 
G01 X-1.3859 Y0.2860 
G01 X-1.4015 Y0.2925 
G01 X-1.4185 Y0.2925 
G01 X-1.4341 Y0.2860 
G01 X-1.4460 Y0.2741 
G01 X-1.4525 Y0.2585 
G01 X-1.4525 Y0.2415 
G01 X-1.4460 Y0.2259 
G01 X-1.4341 Y0.2140 
G01 X-1.4185 Y0.2075 
G01 X-1.4015 Y0.2075 
G01 X-1.3859 Y0.2140 
G01 X-1.3740 Y0.2259 
G01 X-1.3675 Y0.2415 
G01 X-1.3675 Y0.2585 
G00 Z0.1000 
G00 X-1.3695 Y0.2597 
G01 Z-0.0070 F10.00 
G01 X-1.3685 Y0.2533 F20.00 
G01 X-1.3685 Y0.2467 
G01 X-1.3695 Y0.2403 
G01 X-1.3715 Y0.2341 
G01 X-1.3745 Y0.2282 
G01 X-1.3783 Y0.2230 
G01 X-1.3830 Y0.2183 
G01 X-1.3882 Y0.2145 
G01 X-1.3941 Y0.2115 
G01 X-1.4003 Y0.2095 
G01 X-1.4067 Y0.2085 
G01 X-1.4133 Y0.2085 
G01 X-1.4197 Y0.2095 
G01 X-1.4259 Y0.2115 
G01 X-1.4318 Y0.2145 
G01 X-1.4370 Y0.2183 
G01 X-1.4417 Y0.2230 
G01 X-1.4455 Y0.2282 
G01 X-1.4485 Y0.2341 
G01 X-1.4505 Y0.2403 
G01 X-1.4515 Y0.2467 
G01 X-1.4515 Y0.2533 
G01 X-1.4505 Y0.2597 
G01 X-1.4485 Y0.2659 
G01 X-1.4455 Y0.2718 
G01 X-1.4417 Y0.2770 
G01 X-1.4370 Y0.2817 
G01 X-1.4318 Y0.2855 
G01 X-1.4259 Y0.2885 
G01 X-1.4197 Y0.2905 
G01 X-1.4133 Y0.2915 
G01 X-1.4067 Y0.2915 
G01 X-1.4003 Y0.2905 
G01 X-1.3941 Y0.2885 
G01 X-1.3882 Y0.2855 
G01 X-1.3830 Y0.2817 
G01 X-1.3783 Y0.2770 
G01 X-1.3745 Y0.2718 
G01 X-1.3715 Y0.2659 
G01 X-1.3695 Y0.2597 
G00 Z0.1000 
G00 X-1.4675 Y0.2585 
G01 Z-0.0070 F10.00 
G01 X-1.4740 Y0.2741 F20.00 
G01 X-1.4859 Y0.2860 
G01 X-1.5015 Y0.2925 
G01 X-1.5185 Y0.2925 
G01 X-1.5341 Y0.2860 
G01 X-1.5460 Y0.2741 
G01 X-1.5525 Y0.2585 
G01 X-1.5525 Y0.2415 
G01 X-1.5460 Y0.2259 
G01 X-1.5341 Y0.2140 
G01 X-1.5185 Y0.2075 
G01 X-1.5015 Y0.2075 
G01 X-1.4859 Y0.2140 
G01 X-1.4740 Y0.2259 
G01 X-1.4675 Y0.2415 
G01 X-1.4675 Y0.2585 
G00 Z0.1000 
G00 X-1.4695 Y0.2597 
G01 Z-0.0070 F10.00 
G01 X-1.4685 Y0.2533 F20.00 
G01 X-1.4685 Y0.2467 
G01 X-1.4695 Y0.2403 
G01 X-1.4715 Y0.2341 
G01 X-1.4745 Y0.2282 
G01 X-1.4783 Y0.2230 
G01 X-1.4830 Y0.2183 
G01 X-1.4882 Y0.2145 
G01 X-1.4941 Y0.2115 
G01 X-1.5003 Y0.2095 
G01 X-1.5067 Y0.2085 
G01 X-1.5133 Y0.2085 
G01 X-1.5197 Y0.2095 
G01 X-1.5259 Y0.2115 
G01 X-1.5318 Y0.2145 
G01 X-1.5370 Y0.2183 
G01 X-1.5417 Y0.2230 
G01 X-1.5455 Y0.2282 
G01 X-1.5485 Y0.2341 
G01 X-1.5505 Y0.2403 
G01 X-1.5515 Y0.2467 
G01 X-1.5515 Y0.2533 
G01 X-1.5505 Y0.2597 
G01 X-1.5485 Y0.2659 
G01 X-1.5455 Y0.2718 
G01 X-1.5417 Y0.2770 
G01 X-1.5370 Y0.2817 
G01 X-1.5318 Y0.2855 
G01 X-1.5259 Y0.2885 
G01 X-1.5197 Y0.2905 
G01 X-1.5133 Y0.2915 
G01 X-1.5067 Y0.2915 
G01 X-1.5003 Y0.2905 
G01 X-1.4941 Y0.2885 
G01 X-1.4882 Y0.2855 
G01 X-1.4830 Y0.2817 
G01 X-1.4783 Y0.2770 
G01 X-1.4745 Y0.2718 
G01 X-1.4715 Y0.2659 
G01 X-1.4695 Y0.2597 
G00 Z0.1000 
G00 X-1.5675 Y0.2585 
G01 Z-0.0070 F10.00 
G01 X-1.5740 Y0.2741 F20.00 
G01 X-1.5859 Y0.2860 
G01 X-1.6015 Y0.2925 
G01 X-1.6185 Y0.2925 
G01 X-1.6341 Y0.2860 
G01 X-1.6460 Y0.2741 
G01 X-1.6525 Y0.2585 
G01 X-1.6525 Y0.2415 
G01 X-1.6460 Y0.2259 
G01 X-1.6341 Y0.2140 
G01 X-1.6185 Y0.2075 
G01 X-1.6015 Y0.2075 
G01 X-1.5859 Y0.2140 
G01 X-1.5740 Y0.2259 
G01 X-1.5675 Y0.2415 
G01 X-1.5675 Y0.2585 
G00 Z0.1000 
G00 X-1.5695 Y0.2597 
G01 Z-0.0070 F10.00 
G01 X-1.5685 Y0.2533 F20.00 
G01 X-1.5685 Y0.2467 
G01 X-1.5695 Y0.2403 
G01 X-1.5715 Y0.2341 
G01 X-1.5745 Y0.2282 
G01 X-1.5783 Y0.2230 
G01 X-1.5830 Y0.2183 
G01 X-1.5882 Y0.2145 
G01 X-1.5941 Y0.2115 
G01 X-1.6003 Y0.2095 
G01 X-1.6067 Y0.2085 
G01 X-1.6133 Y0.2085 
G01 X-1.6197 Y0.2095 
G01 X-1.6259 Y0.2115 
G01 X-1.6318 Y0.2145 
G01 X-1.6370 Y0.2183 
G01 X-1.6417 Y0.2230 
G01 X-1.6455 Y0.2282 
G01 X-1.6485 Y0.2341 
G01 X-1.6505 Y0.2403 
G01 X-1.6515 Y0.2467 
G01 X-1.6515 Y0.2533 
G01 X-1.6505 Y0.2597 
G01 X-1.6485 Y0.2659 
G01 X-1.6455 Y0.2718 
G01 X-1.6417 Y0.2770 
G01 X-1.6370 Y0.2817 
G01 X-1.6318 Y0.2855 
G01 X-1.6259 Y0.2885 
G01 X-1.6197 Y0.2905 
G01 X-1.6133 Y0.2915 
G01 X-1.6067 Y0.2915 
G01 X-1.6003 Y0.2905 
G01 X-1.5941 Y0.2885 
G01 X-1.5882 Y0.2855 
G01 X-1.5830 Y0.2817 
G01 X-1.5783 Y0.2770 
G01 X-1.5745 Y0.2718 
G01 X-1.5715 Y0.2659 
G01 X-1.5695 Y0.2597 
G00 Z0.1000 
G00 X-1.6675 Y0.2585 
G01 Z-0.0070 F10.00 
G01 X-1.6740 Y0.2741 F20.00 
G01 X-1.6859 Y0.2860 
G01 X-1.7015 Y0.2925 
G01 X-1.7185 Y0.2925 
G01 X-1.7341 Y0.2860 
G01 X-1.7460 Y0.2741 
G01 X-1.7525 Y0.2585 
G01 X-1.7525 Y0.2415 
G01 X-1.7460 Y0.2259 
G01 X-1.7341 Y0.2140 
G01 X-1.7185 Y0.2075 
G01 X-1.7015 Y0.2075 
G01 X-1.6859 Y0.2140 
G01 X-1.6740 Y0.2259 
G01 X-1.6675 Y0.2415 
G01 X-1.6675 Y0.2585 
G00 Z0.1000 
G00 X-1.6695 Y0.2597 
G01 Z-0.0070 F10.00 
G01 X-1.6685 Y0.2533 F20.00 
G01 X-1.6685 Y0.2467 
G01 X-1.6695 Y0.2403 
G01 X-1.6715 Y0.2341 
G01 X-1.6745 Y0.2282 
G01 X-1.6783 Y0.2230 
G01 X-1.6830 Y0.2183 
G01 X-1.6882 Y0.2145 
G01 X-1.6941 Y0.2115 
G01 X-1.7003 Y0.2095 
G01 X-1.7067 Y0.2085 
G01 X-1.7133 Y0.2085 
G01 X-1.7197 Y0.2095 
G01 X-1.7259 Y0.2115 
G01 X-1.7318 Y0.2145 
G01 X-1.7370 Y0.2183 
G01 X-1.7417 Y0.2230 
G01 X-1.7455 Y0.2282 
G01 X-1.7485 Y0.2341 
G01 X-1.7505 Y0.2403 
G01 X-1.7515 Y0.2467 
G01 X-1.7515 Y0.2533 
G01 X-1.7505 Y0.2597 
G01 X-1.7485 Y0.2659 
G01 X-1.7455 Y0.2718 
G01 X-1.7417 Y0.2770 
G01 X-1.7370 Y0.2817 
G01 X-1.7318 Y0.2855 
G01 X-1.7259 Y0.2885 
G01 X-1.7197 Y0.2905 
G01 X-1.7133 Y0.2915 
G01 X-1.7067 Y0.2915 
G01 X-1.7003 Y0.2905 
G01 X-1.6941 Y0.2885 
G01 X-1.6882 Y0.2855 
G01 X-1.6830 Y0.2817 
G01 X-1.6783 Y0.2770 
G01 X-1.6745 Y0.2718 
G01 X-1.6715 Y0.2659 
G01 X-1.6695 Y0.2597 
G00 Z0.1000 
G00 X-1.7675 Y0.2585 
G01 Z-0.0070 F10.00 
G01 X-1.7740 Y0.2741 F20.00 
G01 X-1.7859 Y0.2860 
G01 X-1.8015 Y0.2925 
G01 X-1.8185 Y0.2925 
G01 X-1.8341 Y0.2860 
G01 X-1.8460 Y0.2741 
G01 X-1.8525 Y0.2585 
G01 X-1.8525 Y0.2415 
G01 X-1.8460 Y0.2259 
G01 X-1.8341 Y0.2140 
G01 X-1.8185 Y0.2075 
G01 X-1.8015 Y0.2075 
G01 X-1.7859 Y0.2140 
G01 X-1.7740 Y0.2259 
G01 X-1.7675 Y0.2415 
G01 X-1.7675 Y0.2585 
G00 Z0.1000 
G00 X-1.7695 Y0.2597 
G01 Z-0.0070 F10.00 
G01 X-1.7685 Y0.2533 F20.00 
G01 X-1.7685 Y0.2467 
G01 X-1.7695 Y0.2403 
G01 X-1.7715 Y0.2341 
G01 X-1.7745 Y0.2282 
G01 X-1.7783 Y0.2230 
G01 X-1.7830 Y0.2183 
G01 X-1.7882 Y0.2145 
G01 X-1.7941 Y0.2115 
G01 X-1.8003 Y0.2095 
G01 X-1.8067 Y0.2085 
G01 X-1.8133 Y0.2085 
G01 X-1.8197 Y0.2095 
G01 X-1.8259 Y0.2115 
G01 X-1.8318 Y0.2145 
G01 X-1.8370 Y0.2183 
G01 X-1.8417 Y0.2230 
G01 X-1.8455 Y0.2282 
G01 X-1.8485 Y0.2341 
G01 X-1.8505 Y0.2403 
G01 X-1.8515 Y0.2467 
G01 X-1.8515 Y0.2533 
G01 X-1.8505 Y0.2597 
G01 X-1.8485 Y0.2659 
G01 X-1.8455 Y0.2718 
G01 X-1.8417 Y0.2770 
G01 X-1.8370 Y0.2817 
G01 X-1.8318 Y0.2855 
G01 X-1.8259 Y0.2885 
G01 X-1.8197 Y0.2905 
G01 X-1.8133 Y0.2915 
G01 X-1.8067 Y0.2915 
G01 X-1.8003 Y0.2905 
G01 X-1.7941 Y0.2885 
G01 X-1.7882 Y0.2855 
G01 X-1.7830 Y0.2817 
G01 X-1.7783 Y0.2770 
G01 X-1.7745 Y0.2718 
G01 X-1.7715 Y0.2659 
G01 X-1.7695 Y0.2597 
G00 Z0.1000 
G00 X-1.8675 Y0.2585 
G01 Z-0.0070 F10.00 
G01 X-1.8740 Y0.2741 F20.00 
G01 X-1.8859 Y0.2860 
G01 X-1.9015 Y0.2925 
G01 X-1.9185 Y0.2925 
G01 X-1.9341 Y0.2860 
G01 X-1.9460 Y0.2741 
G01 X-1.9525 Y0.2585 
G01 X-1.9525 Y0.2415 
G01 X-1.9460 Y0.2259 
G01 X-1.9341 Y0.2140 
G01 X-1.9185 Y0.2075 
G01 X-1.9015 Y0.2075 
G01 X-1.8859 Y0.2140 
G01 X-1.8740 Y0.2259 
G01 X-1.8675 Y0.2415 
G01 X-1.8675 Y0.2585 
G00 Z0.1000 
G00 X-1.8695 Y0.2597 
G01 Z-0.0070 F10.00 
G01 X-1.8685 Y0.2533 F20.00 
G01 X-1.8685 Y0.2467 
G01 X-1.8695 Y0.2403 
G01 X-1.8715 Y0.2341 
G01 X-1.8745 Y0.2282 
G01 X-1.8783 Y0.2230 
G01 X-1.8830 Y0.2183 
G01 X-1.8882 Y0.2145 
G01 X-1.8941 Y0.2115 
G01 X-1.9003 Y0.2095 
G01 X-1.9067 Y0.2085 
G01 X-1.9133 Y0.2085 
G01 X-1.9197 Y0.2095 
G01 X-1.9259 Y0.2115 
G01 X-1.9318 Y0.2145 
G01 X-1.9370 Y0.2183 
G01 X-1.9417 Y0.2230 
G01 X-1.9455 Y0.2282 
G01 X-1.9485 Y0.2341 
G01 X-1.9505 Y0.2403 
G01 X-1.9515 Y0.2467 
G01 X-1.9515 Y0.2533 
G01 X-1.9505 Y0.2597 
G01 X-1.9485 Y0.2659 
G01 X-1.9455 Y0.2718 
G01 X-1.9417 Y0.2770 
G01 X-1.9370 Y0.2817 
G01 X-1.9318 Y0.2855 
G01 X-1.9259 Y0.2885 
G01 X-1.9197 Y0.2905 
G01 X-1.9133 Y0.2915 
G01 X-1.9067 Y0.2915 
G01 X-1.9003 Y0.2905 
G01 X-1.8941 Y0.2885 
G01 X-1.8882 Y0.2855 
G01 X-1.8830 Y0.2817 
G01 X-1.8783 Y0.2770 
G01 X-1.8745 Y0.2718 
G01 X-1.8715 Y0.2659 
G01 X-1.8695 Y0.2597 
G00 Z0.1000 
G00 X-1.9675 Y0.2585 
G01 Z-0.0070 F10.00 
G01 X-1.9740 Y0.2741 F20.00 
G01 X-1.9859 Y0.2860 
G01 X-2.0015 Y0.2925 
G01 X-2.0185 Y0.2925 
G01 X-2.0341 Y0.2860 
G01 X-2.0460 Y0.2741 
G01 X-2.0525 Y0.2585 
G01 X-2.0525 Y0.2415 
G01 X-2.0460 Y0.2259 
G01 X-2.0341 Y0.2140 
G01 X-2.0185 Y0.2075 
G01 X-2.0015 Y0.2075 
G01 X-1.9859 Y0.2140 
G01 X-1.9740 Y0.2259 
G01 X-1.9675 Y0.2415 
G01 X-1.9675 Y0.2585 
G00 Z0.1000 
G00 X-1.9695 Y0.2597 
G01 Z-0.0070 F10.00 
G01 X-1.9685 Y0.2533 F20.00 
G01 X-1.9685 Y0.2467 
G01 X-1.9695 Y0.2403 
G01 X-1.9715 Y0.2341 
G01 X-1.9745 Y0.2282 
G01 X-1.9783 Y0.2230 
G01 X-1.9830 Y0.2183 
G01 X-1.9882 Y0.2145 
G01 X-1.9941 Y0.2115 
G01 X-2.0003 Y0.2095 
G01 X-2.0067 Y0.2085 
G01 X-2.0133 Y0.2085 
G01 X-2.0197 Y0.2095 
G01 X-2.0259 Y0.2115 
G01 X-2.0318 Y0.2145 
G01 X-2.0370 Y0.2183 
G01 X-2.0417 Y0.2230 
G01 X-2.0455 Y0.2282 
G01 X-2.0485 Y0.2341 
G01 X-2.0505 Y0.2403 
G01 X-2.0515 Y0.2467 
G01 X-2.0515 Y0.2533 
G01 X-2.0505 Y0.2597 
G01 X-2.0485 Y0.2659 
G01 X-2.0455 Y0.2718 
G01 X-2.0417 Y0.2770 
G01 X-2.0370 Y0.2817 
G01 X-2.0318 Y0.2855 
G01 X-2.0259 Y0.2885 
G01 X-2.0197 Y0.2905 
G01 X-2.0133 Y0.2915 
G01 X-2.0067 Y0.2915 
G01 X-2.0003 Y0.2905 
G01 X-1.9941 Y0.2885 
G01 X-1.9882 Y0.2855 
G01 X-1.9830 Y0.2817 
G01 X-1.9783 Y0.2770 
G01 X-1.9745 Y0.2718 
G01 X-1.9715 Y0.2659 
G01 X-1.9695 Y0.2597 
G00 Z0.1000 
G00 X-2.0675 Y0.2585 
G01 Z-0.0070 F10.00 
G01 X-2.0740 Y0.2741 F20.00 
G01 X-2.0859 Y0.2860 
G01 X-2.0894 Y0.2875 
G01 X-2.0901 Y0.2878 
G01 X-2.0921 Y0.2886 
G01 X-2.0942 Y0.2907 
G01 X-2.0949 Y0.2923 
G01 X-2.0954 Y0.2935 
G01 X-2.0954 Y0.2964 
G01 X-2.0949 Y0.2976 
G01 X-2.0942 Y0.2992 
G01 X-2.0921 Y0.3013 
G01 X-2.0897 Y0.3023 
G01 X-2.0894 Y0.3025 
G01 X-2.0728 Y0.3093 
G01 X-1.9993 Y0.3828 
G01 X-1.9920 Y0.4005 
G01 X-1.9920 Y0.4595 
G01 X-1.9993 Y0.4772 
G01 X-2.0128 Y0.4907 
G01 X-2.0305 Y0.4980 
G01 X-2.0495 Y0.4980 
G01 X-2.0603 Y0.4936 
G01 X-2.0610 Y0.4932 
G01 X-2.0630 Y0.4924 
G01 X-2.0660 Y0.4924 
G01 X-2.0688 Y0.4936 
G01 X-2.0709 Y0.4956 
G01 X-2.0715 Y0.4972 
G01 X-2.0720 Y0.4984 
G01 X-2.0720 Y0.5014 
G01 X-2.0709 Y0.5042 
G01 X-1.9951 Y0.5800 
G01 X-1.9870 Y0.5995 
G01 X-1.9870 Y0.6605 
G01 X-1.9951 Y0.6800 
G01 X-2.0100 Y0.6949 
G01 X-2.0295 Y0.7030 
G01 X-2.0505 Y0.7030 
G01 X-2.0659 Y0.6967 
G01 X-2.0689 Y0.6967 
G01 X-2.0700 Y0.6971 
G01 X-2.0716 Y0.6978 
G01 X-2.0737 Y0.6999 
G01 X-2.0749 Y0.7027 
G01 X-2.0749 Y0.7056 
G01 X-2.0744 Y0.7068 
G01 X-2.0737 Y0.7084 
G01 X-2.0716 Y0.7105 
G01 X-2.0572 Y0.7249 
G01 X-1.9993 Y0.7828 
G01 X-1.9920 Y0.8005 
G01 X-1.9920 Y0.8595 
G01 X-1.9993 Y0.8772 
G01 X-2.0128 Y0.8907 
G01 X-2.0305 Y0.8980 
G01 X-2.0495 Y0.8980 
G01 X-2.0672 Y0.8907 
G01 X-2.0807 Y0.8772 
G01 X-2.0809 Y0.8766 
G01 X-2.0820 Y0.8756 
G01 X-2.0830 Y0.8745 
G01 X-2.0847 Y0.8738 
G01 X-2.0858 Y0.8734 
G01 X-2.0873 Y0.8734 
G01 X-2.0888 Y0.8734 
G01 X-2.0898 Y0.8738 
G01 X-2.0915 Y0.8745 
G01 X-2.0926 Y0.8755 
G01 X-2.0937 Y0.8766 
G01 X-2.0944 Y0.8783 
G01 X-2.0948 Y0.8794 
G01 X-2.0951 Y0.8800 
G01 X-2.1032 Y0.8881 
G01 X-2.1051 Y0.8901 
G01 X-2.1053 Y0.8903 
G01 X-2.1060 Y0.8918 
G01 X-2.1064 Y0.8930 
G01 X-2.1064 Y0.8960 
G01 X-2.1060 Y0.8971 
G01 X-2.1053 Y0.8988 
G01 X-2.1032 Y0.9009 
G01 X-2.1008 Y0.9018 
G01 X-2.1004 Y0.9020 
G01 X-2.0828 Y0.9093 
G01 X-2.0672 Y0.9249 
G01 X-2.0093 Y0.9828 
G01 X-2.0020 Y1.0005 
G01 X-2.0020 Y1.0595 
G01 X-2.0093 Y1.0772 
G01 X-2.0228 Y1.0907 
G01 X-2.0405 Y1.0980 
G01 X-2.0595 Y1.0980 
G01 X-2.0772 Y1.0907 
G01 X-2.0907 Y1.0772 
G01 X-2.0925 Y1.0728 
G01 X-2.0926 Y1.0725 
G01 X-2.0936 Y1.0701 
G01 X-2.0958 Y1.0680 
G01 X-2.0985 Y1.0668 
G01 X-2.1015 Y1.0668 
G01 X-2.1026 Y1.0673 
G01 X-2.1042 Y1.0680 
G01 X-2.1064 Y1.0701 
G01 X-2.1075 Y1.0728 
G01 X-2.1093 Y1.0772 
G01 X-2.1228 Y1.0907 
G01 X-2.1405 Y1.0980 
G01 X-2.2795 Y1.0980 
G01 X-2.2972 Y1.0907 
G01 X-2.3107 Y1.0772 
G01 X-2.3125 Y1.0728 
G01 X-2.3136 Y1.0701 
G01 X-2.3157 Y1.0680 
G01 X-2.3173 Y1.0673 
G01 X-2.3185 Y1.0668 
G01 X-2.3215 Y1.0668 
G01 X-2.3242 Y1.0680 
G01 X-2.3263 Y1.0700 
G01 X-2.3273 Y1.0724 
G01 X-2.3275 Y1.0728 
G01 X-2.3293 Y1.0772 
G01 X-2.3428 Y1.0907 
G01 X-2.3605 Y1.0980 
G01 X-2.3795 Y1.0980 
G01 X-2.3972 Y1.0907 
G01 X-2.4107 Y1.0772 
G01 X-2.4156 Y1.0653 
G01 X-2.4156 Y1.0650 
G01 X-2.4162 Y1.0640 
G01 X-2.4166 Y1.0629 
G01 X-2.4168 Y1.0626 
G01 X-2.4170 Y1.0624 
G01 X-2.4179 Y1.0616 
G01 X-2.4187 Y1.0608 
G01 X-2.4190 Y1.0606 
G01 X-2.4192 Y1.0604 
G01 X-2.4204 Y1.0601 
G01 X-2.4215 Y1.0596 
G01 X-2.4218 Y1.0596 
G01 X-2.4221 Y1.0595 
G01 X-2.4233 Y1.0596 
G01 X-2.4245 Y1.0596 
G01 X-2.4248 Y1.0597 
G01 X-2.4251 Y1.0597 
G01 X-2.4261 Y1.0603 
G01 X-2.4272 Y1.0608 
G01 X-2.4274 Y1.0610 
G01 X-2.4277 Y1.0611 
G01 X-2.4285 Y1.0620 
G01 X-2.4293 Y1.0629 
G01 X-2.4295 Y1.0631 
G01 X-2.4297 Y1.0634 
G01 X-2.4300 Y1.0645 
G01 X-2.4305 Y1.0656 
G01 X-2.4305 Y1.0659 
G01 X-2.4306 Y1.0663 
G01 X-2.4337 Y1.0723 
G01 X-2.4376 Y1.0777 
G01 X-2.4423 Y1.0824 
G01 X-2.4477 Y1.0863 
G01 X-2.4537 Y1.0894 
G01 X-2.4595 Y1.0913 
G01 X-2.4595 Y1.0902 
G01 X-2.4541 Y1.0885 
G01 X-2.4482 Y1.0855 
G01 X-2.4430 Y1.0817 
G01 X-2.4383 Y1.0770 
G01 X-2.4345 Y1.0718 
G01 X-2.4315 Y1.0659 
G01 X-2.4295 Y1.0597 
G01 X-2.4285 Y1.0533 
G01 X-2.4285 Y1.0467 
G01 X-2.4295 Y1.0403 
G01 X-2.4315 Y1.0341 
G01 X-2.4345 Y1.0282 
G01 X-2.4383 Y1.0230 
G01 X-2.4430 Y1.0183 
G01 X-2.4482 Y1.0145 
G01 X-2.4541 Y1.0115 
G01 X-2.4595 Y1.0098 
G01 X-2.4595 Y1.0087 
G01 X-2.4537 Y1.0106 
G01 X-2.4477 Y1.0137 
G01 X-2.4423 Y1.0176 
G01 X-2.4376 Y1.0223 
G01 X-2.4337 Y1.0277 
G01 X-2.4323 Y1.0303 
G01 X-2.4319 Y1.0315 
G01 X-2.4316 Y1.0317 
G01 X-2.4315 Y1.0319 
G01 X-2.4306 Y1.0327 
G01 X-2.4297 Y1.0336 
G01 X-2.4295 Y1.0337 
G01 X-2.4292 Y1.0339 
G01 X-2.4281 Y1.0342 
G01 X-2.4270 Y1.0347 
G01 X-2.4267 Y1.0347 
G01 X-2.4264 Y1.0348 
G01 X-2.4252 Y1.0347 
G01 X-2.4240 Y1.0347 
G01 X-2.4237 Y1.0346 
G01 X-2.4234 Y1.0346 
G01 X-2.4224 Y1.0340 
G01 X-2.4213 Y1.0336 
G01 X-2.4210 Y1.0333 
G01 X-2.4208 Y1.0332 
G01 X-2.4200 Y1.0323 
G01 X-2.4191 Y1.0315 
G01 X-2.4190 Y1.0312 
G01 X-2.4188 Y1.0309 
G01 X-2.4185 Y1.0298 
G01 X-2.4180 Y1.0287 
G01 X-2.4180 Y1.0284 
G01 X-2.4179 Y1.0281 
G01 X-2.4180 Y1.0269 
G01 X-2.4180 Y1.0005 
G01 X-2.4107 Y0.9828 
G01 X-2.3526 Y0.9248 
G01 X-2.3447 Y0.9169 
G01 X-2.3428 Y0.9149 
G01 X-2.3426 Y0.9147 
G01 X-2.3420 Y0.9132 
G01 X-2.3415 Y0.9120 
G01 X-2.3415 Y0.9090 
G01 X-2.3426 Y0.9063 
G01 X-2.3447 Y0.9041 
G01 X-2.3463 Y0.9035 
G01 X-2.3475 Y0.9030 
G01 X-2.3705 Y0.9030 
G01 X-2.3900 Y0.8949 
G01 X-2.4049 Y0.8800 
G01 X-2.4088 Y0.8708 
G01 X-2.4091 Y0.8696 
G01 X-2.4093 Y0.8694 
G01 X-2.4094 Y0.8691 
G01 X-2.4103 Y0.8683 
G01 X-2.4111 Y0.8674 
G01 X-2.4113 Y0.8672 
G01 X-2.4115 Y0.8670 
G01 X-2.4127 Y0.8666 
G01 X-2.4137 Y0.8660 
G01 X-2.4140 Y0.8660 
G01 X-2.4143 Y0.8659 
G01 X-2.4155 Y0.8659 
G01 X-2.4167 Y0.8658 
G01 X-2.4170 Y0.8659 
G01 X-2.4173 Y0.8659 
G01 X-2.4184 Y0.8663 
G01 X-2.4195 Y0.8667 
G01 X-2.4198 Y0.8669 
G01 X-2.4200 Y0.8670 
G01 X-2.4209 Y0.8679 
G01 X-2.4218 Y0.8686 
G01 X-2.4219 Y0.8689 
G01 X-2.4222 Y0.8691 
G01 X-2.4226 Y0.8702 
G01 X-2.4237 Y0.8723 
G01 X-2.4276 Y0.8777 
G01 X-2.4323 Y0.8824 
G01 X-2.4377 Y0.8863 
G01 X-2.4437 Y0.8894 
G01 X-2.4495 Y0.8913 
G01 X-2.4495 Y0.8902 
G01 X-2.4441 Y0.8885 
G01 X-2.4382 Y0.8855 
G01 X-2.4330 Y0.8817 
G01 X-2.4283 Y0.8770 
G01 X-2.4245 Y0.8718 
G01 X-2.4215 Y0.8659 
G01 X-2.4195 Y0.8597 
G01 X-2.4185 Y0.8533 
G01 X-2.4185 Y0.8467 
G01 X-2.4195 Y0.8403 
G01 X-2.4215 Y0.8341 
G01 X-2.4245 Y0.8282 
G01 X-2.4283 Y0.8230 
G01 X-2.4330 Y0.8183 
G01 X-2.4382 Y0.8145 
G01 X-2.4441 Y0.8115 
G01 X-2.4495 Y0.8098 
G01 X-2.4495 Y0.8087 
G01 X-2.4437 Y0.8106 
G01 X-2.4377 Y0.8137 
G01 X-2.4323 Y0.8176 
G01 X-2.4276 Y0.8223 
G01 X-2.4271 Y0.8230 
G01 X-2.4269 Y0.8236 
G01 X-2.4262 Y0.8242 
G01 X-2.4257 Y0.8249 
G01 X-2.4252 Y0.8252 
G01 X-2.4247 Y0.8257 
G01 X-2.4239 Y0.8260 
G01 X-2.4231 Y0.8265 
G01 X-2.4225 Y0.8266 
G01 X-2.4220 Y0.8268 
G01 X-2.4211 Y0.8268 
G01 X-2.4202 Y0.8269 
G01 X-2.4196 Y0.8268 
G01 X-2.4190 Y0.8268 
G01 X-2.4182 Y0.8265 
G01 X-2.4173 Y0.8262 
G01 X-2.4168 Y0.8259 
G01 X-2.4163 Y0.8257 
G01 X-2.4156 Y0.8250 
G01 X-2.4149 Y0.8245 
G01 X-2.4146 Y0.8240 
G01 X-2.4141 Y0.8236 
G01 X-2.4138 Y0.8227 
G01 X-2.4133 Y0.8219 
G01 X-2.4132 Y0.8214 
G01 X-2.4130 Y0.8208 
G01 X-2.4130 Y0.8199 
G01 X-2.4129 Y0.8190 
G01 X-2.4130 Y0.8184 
G01 X-2.4130 Y0.7995 
G01 X-2.4049 Y0.7800 
G01 X-2.3291 Y0.7042 
G01 X-2.3280 Y0.7014 
G01 X-2.3280 Y0.6984 
G01 X-2.3284 Y0.6973 
G01 X-2.3291 Y0.6957 
G01 X-2.3312 Y0.6936 
G01 X-2.3340 Y0.6924 
G01 X-2.3370 Y0.6924 
G01 X-2.3388 Y0.6932 
G01 X-2.3397 Y0.6936 
G01 X-2.3505 Y0.6980 
G01 X-2.3695 Y0.6980 
G01 X-2.3872 Y0.6907 
G01 X-2.4007 Y0.6772 
G01 X-2.4056 Y0.6653 
G01 X-2.4056 Y0.6650 
G01 X-2.4062 Y0.6640 
G01 X-2.4066 Y0.6629 
G01 X-2.4068 Y0.6626 
G01 X-2.4070 Y0.6624 
G01 X-2.4079 Y0.6616 
G01 X-2.4087 Y0.6608 
G01 X-2.4090 Y0.6606 
G01 X-2.4092 Y0.6604 
G01 X-2.4104 Y0.6601 
G01 X-2.4115 Y0.6596 
G01 X-2.4118 Y0.6596 
G01 X-2.4121 Y0.6595 
G01 X-2.4133 Y0.6596 
G01 X-2.4145 Y0.6596 
G01 X-2.4148 Y0.6597 
G01 X-2.4151 Y0.6597 
G01 X-2.4161 Y0.6603 
G01 X-2.4172 Y0.6608 
G01 X-2.4174 Y0.6610 
G01 X-2.4177 Y0.6611 
G01 X-2.4185 Y0.6620 
G01 X-2.4193 Y0.6629 
G01 X-2.4195 Y0.6631 
G01 X-2.4197 Y0.6634 
G01 X-2.4200 Y0.6645 
G01 X-2.4205 Y0.6656 
G01 X-2.4205 Y0.6659 
G01 X-2.4206 Y0.6663 
G01 X-2.4237 Y0.6723 
G01 X-2.4276 Y0.6777 
G01 X-2.4323 Y0.6824 
G01 X-2.4377 Y0.6863 
G01 X-2.4437 Y0.6894 
G01 X-2.4495 Y0.6913 
G01 X-2.4495 Y0.6902 
G01 X-2.4441 Y0.6885 
G01 X-2.4382 Y0.6855 
G01 X-2.4330 Y0.6817 
G01 X-2.4283 Y0.6770 
G01 X-2.4245 Y0.6718 
G01 X-2.4215 Y0.6659 
G01 X-2.4195 Y0.6597 
G01 X-2.4185 Y0.6533 
G01 X-2.4185 Y0.6467 
G01 X-2.4195 Y0.6403 
G01 X-2.4215 Y0.6341 
G01 X-2.4245 Y0.6282 
G01 X-2.4283 Y0.6230 
G01 X-2.4330 Y0.6183 
G01 X-2.4382 Y0.6145 
G01 X-2.4441 Y0.6115 
G01 X-2.4495 Y0.6098 
G01 X-2.4495 Y0.6087 
G01 X-2.4437 Y0.6106 
G01 X-2.4377 Y0.6137 
G01 X-2.4323 Y0.6176 
G01 X-2.4276 Y0.6223 
G01 X-2.4237 Y0.6277 
G01 X-2.4223 Y0.6303 
G01 X-2.4219 Y0.6315 
G01 X-2.4216 Y0.6317 
G01 X-2.4215 Y0.6319 
G01 X-2.4206 Y0.6327 
G01 X-2.4197 Y0.6336 
G01 X-2.4195 Y0.6337 
G01 X-2.4192 Y0.6339 
G01 X-2.4181 Y0.6342 
G01 X-2.4170 Y0.6347 
G01 X-2.4167 Y0.6347 
G01 X-2.4164 Y0.6348 
G01 X-2.4152 Y0.6347 
G01 X-2.4140 Y0.6347 
G01 X-2.4137 Y0.6346 
G01 X-2.4134 Y0.6346 
G01 X-2.4124 Y0.6340 
G01 X-2.4113 Y0.6336 
G01 X-2.4110 Y0.6333 
G01 X-2.4108 Y0.6332 
G01 X-2.4100 Y0.6323 
G01 X-2.4091 Y0.6315 
G01 X-2.4090 Y0.6312 
G01 X-2.4088 Y0.6309 
G01 X-2.4085 Y0.6298 
G01 X-2.4080 Y0.6287 
G01 X-2.4080 Y0.6284 
G01 X-2.4079 Y0.6281 
G01 X-2.4080 Y0.6269 
G01 X-2.4080 Y0.6005 
G01 X-2.4007 Y0.5828 
G01 X-2.3407 Y0.5228 
G01 X-2.3272 Y0.5093 
G01 X-2.3095 Y0.5020 
G01 X-2.2925 Y0.5020 
G01 X-2.2914 Y0.5015 
G01 X-2.2897 Y0.5009 
G01 X-2.2876 Y0.4987 
G01 X-2.2865 Y0.4960 
G01 X-2.2865 Y0.4930 
G01 X-2.2869 Y0.4919 
G01 X-2.2876 Y0.4903 
G01 X-2.2897 Y0.4881 
G01 X-2.3007 Y0.4772 
G01 X-2.3025 Y0.4728 
G01 X-2.3036 Y0.4701 
G01 X-2.3057 Y0.4680 
G01 X-2.3073 Y0.4673 
G01 X-2.3085 Y0.4668 
G01 X-2.3115 Y0.4668 
G01 X-2.3142 Y0.4680 
G01 X-2.3163 Y0.4700 
G01 X-2.3173 Y0.4724 
G01 X-2.3175 Y0.4728 
G01 X-2.3193 Y0.4772 
G01 X-2.3328 Y0.4907 
G01 X-2.3505 Y0.4980 
G01 X-2.3695 Y0.4980 
G01 X-2.3872 Y0.4907 
G01 X-2.4007 Y0.4772 
G01 X-2.4056 Y0.4653 
G01 X-2.4056 Y0.4650 
G01 X-2.4062 Y0.4640 
G01 X-2.4066 Y0.4629 
G01 X-2.4068 Y0.4626 
G01 X-2.4070 Y0.4624 
G01 X-2.4079 Y0.4616 
G01 X-2.4087 Y0.4608 
G01 X-2.4090 Y0.4606 
G01 X-2.4092 Y0.4604 
G01 X-2.4104 Y0.4601 
G01 X-2.4115 Y0.4596 
G01 X-2.4118 Y0.4596 
G01 X-2.4121 Y0.4595 
G01 X-2.4133 Y0.4596 
G01 X-2.4145 Y0.4596 
G01 X-2.4148 Y0.4597 
G01 X-2.4151 Y0.4597 
G01 X-2.4161 Y0.4603 
G01 X-2.4172 Y0.4608 
G01 X-2.4174 Y0.4610 
G01 X-2.4177 Y0.4611 
G01 X-2.4185 Y0.4620 
G01 X-2.4193 Y0.4629 
G01 X-2.4195 Y0.4631 
G01 X-2.4197 Y0.4634 
G01 X-2.4200 Y0.4645 
G01 X-2.4205 Y0.4656 
G01 X-2.4205 Y0.4659 
G01 X-2.4206 Y0.4663 
G01 X-2.4237 Y0.4723 
G01 X-2.4276 Y0.4777 
G01 X-2.4323 Y0.4824 
G01 X-2.4377 Y0.4863 
G01 X-2.4437 Y0.4894 
G01 X-2.4495 Y0.4913 
G01 X-2.4495 Y0.4902 
G01 X-2.4441 Y0.4885 
G01 X-2.4382 Y0.4855 
G01 X-2.4330 Y0.4817 
G01 X-2.4283 Y0.4770 
G01 X-2.4245 Y0.4718 
G01 X-2.4215 Y0.4659 
G01 X-2.4195 Y0.4597 
G01 X-2.4185 Y0.4533 
G01 X-2.4185 Y0.4467 
G01 X-2.4195 Y0.4403 
G01 X-2.4215 Y0.4341 
G01 X-2.4245 Y0.4282 
G01 X-2.4283 Y0.4230 
G01 X-2.4330 Y0.4183 
G01 X-2.4382 Y0.4145 
G01 X-2.4441 Y0.4115 
G01 X-2.4495 Y0.4098 
G01 X-2.4495 Y0.4087 
G01 X-2.4437 Y0.4106 
G01 X-2.4377 Y0.4137 
G01 X-2.4323 Y0.4176 
G01 X-2.4276 Y0.4223 
G01 X-2.4237 Y0.4277 
G01 X-2.4223 Y0.4303 
G01 X-2.4219 Y0.4315 
G01 X-2.4216 Y0.4317 
G01 X-2.4215 Y0.4319 
G01 X-2.4206 Y0.4327 
G01 X-2.4197 Y0.4336 
G01 X-2.4195 Y0.4337 
G01 X-2.4192 Y0.4339 
G01 X-2.4181 Y0.4342 
G01 X-2.4170 Y0.4347 
G01 X-2.4167 Y0.4347 
G01 X-2.4164 Y0.4348 
G01 X-2.4152 Y0.4347 
G01 X-2.4140 Y0.4347 
G01 X-2.4137 Y0.4346 
G01 X-2.4134 Y0.4346 
G01 X-2.4124 Y0.4340 
G01 X-2.4113 Y0.4336 
G01 X-2.4110 Y0.4333 
G01 X-2.4108 Y0.4332 
G01 X-2.4100 Y0.4323 
G01 X-2.4091 Y0.4315 
G01 X-2.4090 Y0.4312 
G01 X-2.4088 Y0.4309 
G01 X-2.4085 Y0.4298 
G01 X-2.4080 Y0.4287 
G01 X-2.4080 Y0.4284 
G01 X-2.4079 Y0.4281 
G01 X-2.4080 Y0.4269 
G01 X-2.4080 Y0.4005 
G01 X-2.4007 Y0.3828 
G01 X-2.3872 Y0.3693 
G01 X-2.3407 Y0.3228 
G01 X-2.3272 Y0.3093 
G01 X-2.3179 Y0.3055 
G01 X-2.3158 Y0.3033 
G01 X-2.3146 Y0.3006 
G01 X-2.3146 Y0.2976 
G01 X-2.3158 Y0.2948 
G01 X-2.3179 Y0.2927 
G01 X-2.3206 Y0.2916 
G01 X-2.3341 Y0.2860 
G01 X-2.3460 Y0.2741 
G01 X-2.3525 Y0.2585 
G01 X-2.3525 Y0.2415 
G01 X-2.3460 Y0.2259 
G01 X-2.3341 Y0.2140 
G01 X-2.3185 Y0.2075 
G01 X-2.3015 Y0.2075 
G01 X-2.2859 Y0.2140 
G01 X-2.2740 Y0.2259 
G01 X-2.2675 Y0.2415 
G01 X-2.2675 Y0.2585 
G01 X-2.2740 Y0.2741 
G01 X-2.2859 Y0.2860 
G01 X-2.2910 Y0.2881 
G01 X-2.2931 Y0.2903 
G01 X-2.2938 Y0.2918 
G01 X-2.2943 Y0.2930 
G01 X-2.2943 Y0.2960 
G01 X-2.2931 Y0.2987 
G01 X-2.2910 Y0.3009 
G01 X-2.2894 Y0.3015 
G01 X-2.2883 Y0.3020 
G01 X-2.1317 Y0.3020 
G01 X-2.1306 Y0.3015 
G01 X-2.1290 Y0.3009 
G01 X-2.1269 Y0.2987 
G01 X-2.1257 Y0.2960 
G01 X-2.1257 Y0.2930 
G01 X-2.1262 Y0.2919 
G01 X-2.1269 Y0.2903 
G01 X-2.1290 Y0.2881 
G01 X-2.1299 Y0.2878 
G01 X-2.1341 Y0.2860 
G01 X-2.1460 Y0.2741 
G01 X-2.1525 Y0.2585 
G01 X-2.1525 Y0.2415 
G01 X-2.1460 Y0.2259 
G01 X-2.1341 Y0.2140 
G01 X-2.1185 Y0.2075 
G01 X-2.1015 Y0.2075 
G01 X-2.0859 Y0.2140 
G01 X-2.0740 Y0.2259 
G01 X-2.0675 Y0.2415 
G01 X-2.0675 Y0.2585 
G00 Z0.1000 
G00 X-2.0695 Y0.2597 
G01 Z-0.0070 F10.00 
G01 X-2.0685 Y0.2533 F20.00 
G01 X-2.0685 Y0.2467 
G01 X-2.0695 Y0.2403 
G01 X-2.0715 Y0.2341 
G01 X-2.0745 Y0.2282 
G01 X-2.0783 Y0.2230 
G01 X-2.0830 Y0.2183 
G01 X-2.0882 Y0.2145 
G01 X-2.0941 Y0.2115 
G01 X-2.1003 Y0.2095 
G01 X-2.1067 Y0.2085 
G01 X-2.1133 Y0.2085 
G01 X-2.1197 Y0.2095 
G01 X-2.1259 Y0.2115 
G01 X-2.1318 Y0.2145 
G01 X-2.1370 Y0.2183 
G01 X-2.1417 Y0.2230 
G01 X-2.1455 Y0.2282 
G01 X-2.1485 Y0.2341 
G01 X-2.1505 Y0.2403 
G01 X-2.1515 Y0.2467 
G01 X-2.1515 Y0.2533 
G01 X-2.1505 Y0.2597 
G01 X-2.1485 Y0.2659 
G01 X-2.1455 Y0.2718 
G01 X-2.1417 Y0.2770 
G01 X-2.1370 Y0.2817 
G01 X-2.1318 Y0.2855 
G01 X-2.1259 Y0.2885 
G01 X-2.1197 Y0.2905 
G01 X-2.1133 Y0.2915 
G01 X-2.1067 Y0.2915 
G01 X-2.1003 Y0.2905 
G01 X-2.0941 Y0.2885 
G01 X-2.0882 Y0.2855 
G01 X-2.0830 Y0.2817 
G01 X-2.0783 Y0.2770 
G01 X-2.0745 Y0.2718 
G01 X-2.0715 Y0.2659 
G01 X-2.0695 Y0.2597 
G00 Z0.1000 
G00 X-2.0694 Y0.3142 
G01 Z-0.0070 F10.00 
G01 X-2.0754 Y0.3098 F20.00 
G01 X-2.0820 Y0.3064 
G01 X-2.0890 Y0.3042 
G01 X-2.0963 Y0.3030 
G01 X-2.3037 Y0.3030 
G01 X-2.3110 Y0.3042 
G01 X-2.3180 Y0.3064 
G01 X-2.3246 Y0.3098 
G01 X-2.3306 Y0.3142 
G01 X-2.3958 Y0.3794 
G01 X-2.4002 Y0.3854 
G01 X-2.4036 Y0.3920 
G01 X-2.4058 Y0.3990 
G01 X-2.4070 Y0.4063 
G01 X-2.4070 Y0.4537 
G01 X-2.4058 Y0.4610 
G01 X-2.4036 Y0.4680 
G01 X-2.4002 Y0.4746 
G01 X-2.3958 Y0.4806 
G01 X-2.3906 Y0.4858 
G01 X-2.3846 Y0.4902 
G01 X-2.3780 Y0.4936 
G01 X-2.3710 Y0.4958 
G01 X-2.3637 Y0.4970 
G01 X-2.3563 Y0.4970 
G01 X-2.3490 Y0.4958 
G01 X-2.3420 Y0.4936 
G01 X-2.3354 Y0.4902 
G01 X-2.3294 Y0.4858 
G01 X-2.3242 Y0.4806 
G01 X-2.3198 Y0.4746 
G01 X-2.3164 Y0.4680 
G01 X-2.3142 Y0.4610 
G01 X-2.3130 Y0.4537 
G01 X-2.3130 Y0.4295 
G01 X-2.2805 Y0.3970 
G01 X-2.1195 Y0.3970 
G01 X-2.0870 Y0.4295 
G01 X-2.0870 Y0.4537 
G01 X-2.0858 Y0.4610 
G01 X-2.0836 Y0.4680 
G01 X-2.0802 Y0.4746 
G01 X-2.0758 Y0.4806 
G01 X-2.0706 Y0.4858 
G01 X-2.0646 Y0.4902 
G01 X-2.0580 Y0.4936 
G01 X-2.0510 Y0.4958 
G01 X-2.0437 Y0.4970 
G01 X-2.0363 Y0.4970 
G01 X-2.0290 Y0.4958 
G01 X-2.0220 Y0.4936 
G01 X-2.0154 Y0.4902 
G01 X-2.0094 Y0.4858 
G01 X-2.0042 Y0.4806 
G01 X-1.9998 Y0.4746 
G01 X-1.9964 Y0.4680 
G01 X-1.9942 Y0.4610 
G01 X-1.9930 Y0.4537 
G01 X-1.9930 Y0.4063 
G01 X-1.9942 Y0.3990 
G01 X-1.9964 Y0.3920 
G01 X-1.9998 Y0.3854 
G01 X-2.0042 Y0.3794 
G01 X-2.0694 Y0.3142 
G00 Z0.1000 
G00 X-2.1042 Y0.4194 
G01 Z-0.0070 F10.00 
G01 X-2.1094 Y0.4142 F20.00 
G01 X-2.1154 Y0.4098 
G01 X-2.1220 Y0.4064 
G01 X-2.1290 Y0.4042 
G01 X-2.1363 Y0.4030 
G01 X-2.2637 Y0.4030 
G01 X-2.2710 Y0.4042 
G01 X-2.2780 Y0.4064 
G01 X-2.2846 Y0.4098 
G01 X-2.2906 Y0.4142 
G01 X-2.2958 Y0.4194 
G01 X-2.3002 Y0.4254 
G01 X-2.3036 Y0.4320 
G01 X-2.3058 Y0.4390 
G01 X-2.3070 Y0.4463 
G01 X-2.3070 Y0.4537 
G01 X-2.3058 Y0.4610 
G01 X-2.3036 Y0.4680 
G01 X-2.3002 Y0.4746 
G01 X-2.2958 Y0.4806 
G01 X-2.2906 Y0.4858 
G01 X-2.2846 Y0.4902 
G01 X-2.2780 Y0.4936 
G01 X-2.2710 Y0.4958 
G01 X-2.2637 Y0.4970 
G01 X-2.1363 Y0.4970 
G01 X-2.1290 Y0.4958 
G01 X-2.1220 Y0.4936 
G01 X-2.1154 Y0.4902 
G01 X-2.1094 Y0.4858 
G01 X-2.1042 Y0.4806 
G01 X-2.0998 Y0.4746 
G01 X-2.0964 Y0.4680 
G01 X-2.0942 Y0.4610 
G01 X-2.0930 Y0.4537 
G01 X-2.0930 Y0.4463 
G01 X-2.0942 Y0.4390 
G01 X-2.0964 Y0.4320 
G01 X-2.0998 Y0.4254 
G01 X-2.1042 Y0.4194 
G00 Z0.1000 
G00 X-2.1041 Y0.4980 
G01 Z-0.0070 F10.00 
G01 X-2.1122 Y0.4993 F20.00 
G01 X-2.1200 Y0.5018 
G01 X-2.1223 Y0.5030 
G01 X-2.3037 Y0.5030 
G01 X-2.3110 Y0.5042 
G01 X-2.3180 Y0.5064 
G01 X-2.3246 Y0.5098 
G01 X-2.3306 Y0.5142 
G01 X-2.3358 Y0.5194 
G01 X-2.3958 Y0.5794 
G01 X-2.4002 Y0.5854 
G01 X-2.4036 Y0.5920 
G01 X-2.4058 Y0.5990 
G01 X-2.4070 Y0.6063 
G01 X-2.4070 Y0.6537 
G01 X-2.4058 Y0.6610 
G01 X-2.4036 Y0.6680 
G01 X-2.4002 Y0.6746 
G01 X-2.3958 Y0.6806 
G01 X-2.3906 Y0.6858 
G01 X-2.3846 Y0.6902 
G01 X-2.3780 Y0.6936 
G01 X-2.3710 Y0.6958 
G01 X-2.3637 Y0.6970 
G01 X-2.3563 Y0.6970 
G01 X-2.3490 Y0.6958 
G01 X-2.3420 Y0.6936 
G01 X-2.3354 Y0.6902 
G01 X-2.3294 Y0.6858 
G01 X-2.3242 Y0.6806 
G01 X-2.3198 Y0.6746 
G01 X-2.3164 Y0.6680 
G01 X-2.3142 Y0.6610 
G01 X-2.3130 Y0.6537 
G01 X-2.3130 Y0.6295 
G01 X-2.2805 Y0.5970 
G01 X-2.1265 Y0.5970 
G01 X-2.1094 Y0.6141 
G01 X-2.1154 Y0.6098 
G01 X-2.1220 Y0.6064 
G01 X-2.1290 Y0.6042 
G01 X-2.1363 Y0.6030 
G01 X-2.2637 Y0.6030 
G01 X-2.2710 Y0.6042 
G01 X-2.2780 Y0.6064 
G01 X-2.2846 Y0.6098 
G01 X-2.2906 Y0.6142 
G01 X-2.2958 Y0.6194 
G01 X-2.3002 Y0.6254 
G01 X-2.3036 Y0.6320 
G01 X-2.3058 Y0.6390 
G01 X-2.3070 Y0.6463 
G01 X-2.3070 Y0.6537 
G01 X-2.3058 Y0.6610 
G01 X-2.3036 Y0.6680 
G01 X-2.3002 Y0.6746 
G01 X-2.2958 Y0.6806 
G01 X-2.2906 Y0.6858 
G01 X-2.2846 Y0.6902 
G01 X-2.2780 Y0.6936 
G01 X-2.2710 Y0.6958 
G01 X-2.2637 Y0.6970 
G01 X-2.1363 Y0.6970 
G01 X-2.1290 Y0.6958 
G01 X-2.1220 Y0.6936 
G01 X-2.1154 Y0.6902 
G01 X-2.1094 Y0.6858 
G01 X-2.1042 Y0.6806 
G01 X-2.0998 Y0.6746 
G01 X-2.0964 Y0.6680 
G01 X-2.0942 Y0.6610 
G01 X-2.0930 Y0.6537 
G01 X-2.0930 Y0.6463 
G01 X-2.0942 Y0.6390 
G01 X-2.0964 Y0.6320 
G01 X-2.0998 Y0.6254 
G01 X-2.1041 Y0.6194 
G01 X-2.0920 Y0.6315 
G01 X-2.0920 Y0.6541 
G01 X-2.0907 Y0.6622 
G01 X-2.0882 Y0.6700 
G01 X-2.0845 Y0.6773 
G01 X-2.0797 Y0.6839 
G01 X-2.0739 Y0.6897 
G01 X-2.0673 Y0.6945 
G01 X-2.0600 Y0.6982 
G01 X-2.0522 Y0.7007 
G01 X-2.0441 Y0.7020 
G01 X-2.0359 Y0.7020 
G01 X-2.0278 Y0.7007 
G01 X-2.0200 Y0.6982 
G01 X-2.0127 Y0.6945 
G01 X-2.0061 Y0.6897 
G01 X-2.0003 Y0.6839 
G01 X-1.9955 Y0.6773 
G01 X-1.9918 Y0.6700 
G01 X-1.9893 Y0.6622 
G01 X-1.9880 Y0.6541 
G01 X-1.9880 Y0.6059 
G01 X-1.9893 Y0.5978 
G01 X-1.9918 Y0.5900 
G01 X-1.9955 Y0.5827 
G01 X-2.0003 Y0.5761 
G01 X-2.0661 Y0.5103 
G01 X-2.0727 Y0.5055 
G01 X-2.0800 Y0.5018 
G01 X-2.0878 Y0.4993 
G01 X-2.0959 Y0.4980 
G01 X-2.1041 Y0.4980 
G00 Z0.1000 
G00 X-2.0963 Y0.7030 
G01 Z-0.0070 F10.00 
G01 X-2.2777 Y0.7030 F20.00 
G01 X-2.2800 Y0.7018 
G01 X-2.2878 Y0.6993 
G01 X-2.2959 Y0.6980 
G01 X-2.3041 Y0.6980 
G01 X-2.3122 Y0.6993 
G01 X-2.3200 Y0.7018 
G01 X-2.3273 Y0.7055 
G01 X-2.3339 Y0.7103 
G01 X-2.3997 Y0.7761 
G01 X-2.4045 Y0.7827 
G01 X-2.4082 Y0.7900 
G01 X-2.4107 Y0.7978 
G01 X-2.4120 Y0.8059 
G01 X-2.4120 Y0.8541 
G01 X-2.4107 Y0.8622 
G01 X-2.4082 Y0.8700 
G01 X-2.4045 Y0.8773 
G01 X-2.3997 Y0.8839 
G01 X-2.3939 Y0.8897 
G01 X-2.3873 Y0.8945 
G01 X-2.3800 Y0.8982 
G01 X-2.3722 Y0.9007 
G01 X-2.3641 Y0.9020 
G01 X-2.3559 Y0.9020 
G01 X-2.3478 Y0.9007 
G01 X-2.3400 Y0.8982 
G01 X-2.3327 Y0.8945 
G01 X-2.3261 Y0.8897 
G01 X-2.3203 Y0.8839 
G01 X-2.3155 Y0.8773 
G01 X-2.3118 Y0.8700 
G01 X-2.3100 Y0.8644 
G01 X-2.3082 Y0.8700 
G01 X-2.3045 Y0.8773 
G01 X-2.2997 Y0.8839 
G01 X-2.2939 Y0.8897 
G01 X-2.2873 Y0.8945 
G01 X-2.2800 Y0.8982 
G01 X-2.2722 Y0.9007 
G01 X-2.2641 Y0.9020 
G01 X-2.1359 Y0.9020 
G01 X-2.1278 Y0.9007 
G01 X-2.1200 Y0.8982 
G01 X-2.1127 Y0.8945 
G01 X-2.1061 Y0.8897 
G01 X-2.1003 Y0.8839 
G01 X-2.0955 Y0.8773 
G01 X-2.0918 Y0.8700 
G01 X-2.0893 Y0.8622 
G01 X-2.0880 Y0.8541 
G01 X-2.0880 Y0.8459 
G01 X-2.0893 Y0.8378 
G01 X-2.0918 Y0.8300 
G01 X-2.0955 Y0.8227 
G01 X-2.1003 Y0.8161 
G01 X-2.0870 Y0.8295 
G01 X-2.0870 Y0.8537 
G01 X-2.0858 Y0.8610 
G01 X-2.0836 Y0.8680 
G01 X-2.0802 Y0.8746 
G01 X-2.0758 Y0.8806 
G01 X-2.0706 Y0.8858 
G01 X-2.0646 Y0.8902 
G01 X-2.0580 Y0.8936 
G01 X-2.0510 Y0.8958 
G01 X-2.0437 Y0.8970 
G01 X-2.0363 Y0.8970 
G01 X-2.0290 Y0.8958 
G01 X-2.0220 Y0.8936 
G01 X-2.0154 Y0.8902 
G01 X-2.0094 Y0.8858 
G01 X-2.0042 Y0.8806 
G01 X-1.9998 Y0.8746 
G01 X-1.9964 Y0.8680 
G01 X-1.9942 Y0.8610 
G01 X-1.9930 Y0.8537 
G01 X-1.9930 Y0.8063 
G01 X-1.9942 Y0.7990 
G01 X-1.9964 Y0.7920 
G01 X-1.9998 Y0.7854 
G01 X-2.0042 Y0.7794 
G01 X-2.0642 Y0.7194 
G01 X-2.0694 Y0.7142 
G01 X-2.0754 Y0.7098 
G01 X-2.0820 Y0.7064 
G01 X-2.0890 Y0.7042 
G01 X-2.0963 Y0.7030 
G00 Z0.1000 
G00 X-2.1061 Y0.8103 
G01 Z-0.0070 F10.00 
G01 X-2.1127 Y0.8055 F20.00 
G01 X-2.1200 Y0.8018 
G01 X-2.1278 Y0.7993 
G01 X-2.1359 Y0.7980 
G01 X-2.2641 Y0.7980 
G01 X-2.2722 Y0.7993 
G01 X-2.2775 Y0.8010 
G01 X-2.2735 Y0.7970 
G01 X-2.1195 Y0.7970 
G01 X-2.1061 Y0.8103 
G00 Z0.1000 
G00 X-2.1063 Y0.9030 
G01 Z-0.0070 F10.00 
G01 X-2.3137 Y0.9030 F20.00 
G01 X-2.3210 Y0.9042 
G01 X-2.3280 Y0.9064 
G01 X-2.3346 Y0.9098 
G01 X-2.3406 Y0.9142 
G01 X-2.3458 Y0.9194 
G01 X-2.4058 Y0.9794 
G01 X-2.4102 Y0.9854 
G01 X-2.4136 Y0.9920 
G01 X-2.4158 Y0.9990 
G01 X-2.4170 Y1.0063 
G01 X-2.4170 Y1.0537 
G01 X-2.4158 Y1.0610 
G01 X-2.4136 Y1.0680 
G01 X-2.4102 Y1.0746 
G01 X-2.4058 Y1.0806 
G01 X-2.4006 Y1.0858 
G01 X-2.3946 Y1.0902 
G01 X-2.3880 Y1.0936 
G01 X-2.3810 Y1.0958 
G01 X-2.3737 Y1.0970 
G01 X-2.3663 Y1.0970 
G01 X-2.3590 Y1.0958 
G01 X-2.3520 Y1.0936 
G01 X-2.3454 Y1.0902 
G01 X-2.3394 Y1.0858 
G01 X-2.3342 Y1.0806 
G01 X-2.3298 Y1.0746 
G01 X-2.3264 Y1.0680 
G01 X-2.3242 Y1.0610 
G01 X-2.3230 Y1.0537 
G01 X-2.3230 Y1.0295 
G01 X-2.2905 Y0.9970 
G01 X-2.1295 Y0.9970 
G01 X-2.0970 Y1.0295 
G01 X-2.0970 Y1.0537 
G01 X-2.0958 Y1.0610 
G01 X-2.0936 Y1.0680 
G01 X-2.0902 Y1.0746 
G01 X-2.0858 Y1.0806 
G01 X-2.0806 Y1.0858 
G01 X-2.0746 Y1.0902 
G01 X-2.0680 Y1.0936 
G01 X-2.0610 Y1.0958 
G01 X-2.0537 Y1.0970 
G01 X-2.0463 Y1.0970 
G01 X-2.0390 Y1.0958 
G01 X-2.0320 Y1.0936 
G01 X-2.0254 Y1.0902 
G01 X-2.0194 Y1.0858 
G01 X-2.0142 Y1.0806 
G01 X-2.0098 Y1.0746 
G01 X-2.0064 Y1.0680 
G01 X-2.0042 Y1.0610 
G01 X-2.0030 Y1.0537 
G01 X-2.0030 Y1.0063 
G01 X-2.0042 Y0.9990 
G01 X-2.0064 Y0.9920 
G01 X-2.0098 Y0.9854 
G01 X-2.0142 Y0.9794 
G01 X-2.0742 Y0.9194 
G01 X-2.0794 Y0.9142 
G01 X-2.0854 Y0.9098 
G01 X-2.0920 Y0.9064 
G01 X-2.0990 Y0.9042 
G01 X-2.1063 Y0.9030 
G00 Z0.1000 
G00 X-2.1142 Y1.0194 
G01 Z-0.0070 F10.00 
G01 X-2.1194 Y1.0142 F20.00 
G01 X-2.1254 Y1.0098 
G01 X-2.1320 Y1.0064 
G01 X-2.1390 Y1.0042 
G01 X-2.1463 Y1.0030 
G01 X-2.2737 Y1.0030 
G01 X-2.2810 Y1.0042 
G01 X-2.2880 Y1.0064 
G01 X-2.2946 Y1.0098 
G01 X-2.3006 Y1.0142 
G01 X-2.3058 Y1.0194 
G01 X-2.3102 Y1.0254 
G01 X-2.3136 Y1.0320 
G01 X-2.3158 Y1.0390 
G01 X-2.3170 Y1.0463 
G01 X-2.3170 Y1.0537 
G01 X-2.3158 Y1.0610 
G01 X-2.3136 Y1.0680 
G01 X-2.3102 Y1.0746 
G01 X-2.3058 Y1.0806 
G01 X-2.3006 Y1.0858 
G01 X-2.2946 Y1.0902 
G01 X-2.2880 Y1.0936 
G01 X-2.2810 Y1.0958 
G01 X-2.2737 Y1.0970 
G01 X-2.1463 Y1.0970 
G01 X-2.1390 Y1.0958 
G01 X-2.1320 Y1.0936 
G01 X-2.1254 Y1.0902 
G01 X-2.1194 Y1.0858 
G01 X-2.1142 Y1.0806 
G01 X-2.1098 Y1.0746 
G01 X-2.1064 Y1.0680 
G01 X-2.1042 Y1.0610 
G01 X-2.1030 Y1.0537 
G01 X-2.1030 Y1.0463 
G01 X-2.1042 Y1.0390 
G01 X-2.1064 Y1.0320 
G01 X-2.1098 Y1.0254 
G01 X-2.1142 Y1.0194 
G00 Z0.1000 
G00 X-2.2059 Y1.1940 
G01 Z-0.0070 F10.00 
G01 X-2.1940 Y1.2059 F20.00 
G01 X-2.1875 Y1.2215 
G01 X-2.1875 Y1.2385 
G01 X-2.1940 Y1.2541 
G01 X-2.2059 Y1.2660 
G01 X-2.2215 Y1.2725 
G01 X-2.2385 Y1.2725 
G01 X-2.2526 Y1.2666 
G01 X-2.2534 Y1.2663 
G01 X-2.2554 Y1.2655 
G01 X-2.3835 Y1.2655 
G01 X-2.3837 Y1.2654 
G01 X-2.3850 Y1.2655 
G01 X-2.3863 Y1.2655 
G01 X-2.3865 Y1.2656 
G01 X-2.3867 Y1.2656 
G01 X-2.3879 Y1.2661 
G01 X-2.3891 Y1.2666 
G01 X-2.3892 Y1.2668 
G01 X-2.3894 Y1.2668 
G01 X-2.3903 Y1.2678 
G01 X-2.3912 Y1.2688 
G01 X-2.3913 Y1.2689 
G01 X-2.4824 Y1.3687 
G01 X-2.4834 Y1.3697 
G01 X-2.4834 Y1.3698 
G01 X-2.4835 Y1.3700 
G01 X-2.4840 Y1.3712 
G01 X-2.4845 Y1.3724 
G01 X-2.4845 Y1.3726 
G01 X-2.4846 Y1.3728 
G01 X-2.4845 Y1.3741 
G01 X-2.4845 Y2.0117 
G01 X-2.4846 Y2.0127 
G01 X-2.4845 Y2.0132 
G01 X-2.4845 Y2.0137 
G01 X-2.4841 Y2.0146 
G01 X-2.4839 Y2.0156 
G01 X-2.4835 Y2.0160 
G01 X-2.4834 Y2.0164 
G01 X-2.4826 Y2.0171 
G01 X-2.4160 Y2.1038 
G01 X-2.4158 Y2.1042 
G01 X-2.4151 Y2.1050 
G01 X-2.4145 Y2.1058 
G01 X-2.4140 Y2.1060 
G01 X-2.4137 Y2.1064 
G01 X-2.4128 Y2.1067 
G01 X-2.4119 Y2.1072 
G01 X-2.4114 Y2.1073 
G01 X-2.4109 Y2.1075 
G01 X-2.4099 Y2.1075 
G01 X-2.4089 Y2.1076 
G01 X-2.4085 Y2.1075 
G01 X-2.4015 Y2.1075 
G01 X-2.3859 Y2.1140 
G01 X-2.3740 Y2.1259 
G01 X-2.3675 Y2.1415 
G01 X-2.3675 Y2.1585 
G01 X-2.3740 Y2.1741 
G01 X-2.3859 Y2.1860 
G01 X-2.4015 Y2.1925 
G01 X-2.4185 Y2.1925 
G01 X-2.4341 Y2.1860 
G01 X-2.4460 Y2.1741 
G01 X-2.4525 Y2.1585 
G01 X-2.4525 Y2.1415 
G01 X-2.4461 Y2.1261 
G01 X-2.4457 Y2.1258 
G01 X-2.4455 Y2.1254 
G01 X-2.4451 Y2.1250 
G01 X-2.4448 Y2.1241 
G01 X-2.4442 Y2.1232 
G01 X-2.4442 Y2.1227 
G01 X-2.4440 Y2.1223 
G01 X-2.4440 Y2.1213 
G01 X-2.4439 Y2.1203 
G01 X-2.4440 Y2.1198 
G01 X-2.4440 Y2.1193 
G01 X-2.4444 Y2.1184 
G01 X-2.4446 Y2.1174 
G01 X-2.4449 Y2.1170 
G01 X-2.4451 Y2.1165 
G01 X-2.4458 Y2.1158 
G01 X-2.5108 Y2.0314 
G01 X-2.5110 Y2.0310 
G01 X-2.5117 Y2.0302 
G01 X-2.5123 Y2.0295 
G01 X-2.5127 Y2.0292 
G01 X-2.5155 Y2.0264 
G01 X-2.5159 Y2.0254 
G01 X-2.5161 Y2.0244 
G01 X-2.5157 Y2.0205 
G01 X-2.5155 Y2.0200 
G01 X-2.5155 Y2.0190 
G01 X-2.5154 Y2.0180 
G01 X-2.5155 Y2.0175 
G01 X-2.5155 Y1.3668 
G01 X-2.5154 Y1.3667 
G01 X-2.5155 Y1.3654 
G01 X-2.5155 Y1.3640 
G01 X-2.5156 Y1.3639 
G01 X-2.5158 Y1.3589 
G01 X-2.5123 Y1.3553 
G01 X-2.5121 Y1.3553 
G01 X-2.5112 Y1.3543 
G01 X-2.5103 Y1.3534 
G01 X-2.5102 Y1.3532 
G01 X-2.4126 Y1.2463 
G01 X-2.4116 Y1.2453 
G01 X-2.4116 Y1.2452 
G01 X-2.4115 Y1.2450 
G01 X-2.4112 Y1.2443 
G01 X-2.4073 Y1.2403 
G01 X-2.4071 Y1.2403 
G01 X-2.4062 Y1.2393 
G01 X-2.4053 Y1.2384 
G01 X-2.4052 Y1.2382 
G01 X-2.4018 Y1.2345 
G01 X-2.3968 Y1.2345 
G01 X-2.3967 Y1.2346 
G01 X-2.3954 Y1.2345 
G01 X-2.3940 Y1.2345 
G01 X-2.3939 Y1.2344 
G01 X-2.3883 Y1.2342 
G01 X-2.3876 Y1.2345 
G01 X-2.3874 Y1.2345 
G01 X-2.3872 Y1.2346 
G01 X-2.3859 Y1.2345 
G01 X-2.2785 Y1.2345 
G01 X-2.2758 Y1.2334 
G01 X-2.2736 Y1.2312 
G01 X-2.2725 Y1.2285 
G01 X-2.2725 Y1.2215 
G01 X-2.2660 Y1.2059 
G01 X-2.2541 Y1.1940 
G01 X-2.2385 Y1.1875 
G01 X-2.2215 Y1.1875 
G01 X-2.2059 Y1.1940 
G00 Z0.1000 
G00 X-2.2082 Y1.1945 
G01 Z-0.0070 F10.00 
G01 X-2.2141 Y1.1915 F20.00 
G01 X-2.2203 Y1.1895 
G01 X-2.2267 Y1.1885 
G01 X-2.2333 Y1.1885 
G01 X-2.2397 Y1.1895 
G01 X-2.2459 Y1.1915 
G01 X-2.2518 Y1.1945 
G01 X-2.2570 Y1.1983 
G01 X-2.2617 Y1.2030 
G01 X-2.2655 Y1.2082 
G01 X-2.2685 Y1.2141 
G01 X-2.2705 Y1.2203 
G01 X-2.2715 Y1.2267 
G01 X-2.2715 Y1.2333 
G01 X-2.2711 Y1.2355 
G01 X-2.3934 Y1.2355 
G01 X-2.3938 Y1.2354 
G01 X-2.3953 Y1.2355 
G01 X-2.3969 Y1.2355 
G01 X-2.3972 Y1.2356 
G01 X-2.3976 Y1.2356 
G01 X-2.3991 Y1.2361 
G01 X-2.4006 Y1.2365 
G01 X-2.4009 Y1.2367 
G01 X-2.4012 Y1.2368 
G01 X-2.4025 Y1.2376 
G01 X-2.4039 Y1.2384 
G01 X-2.4041 Y1.2386 
G01 X-2.4044 Y1.2388 
G01 X-2.4055 Y1.2400 
G01 X-2.4066 Y1.2411 
G01 X-2.4068 Y1.2414 
G01 X-2.5105 Y1.3550 
G01 X-2.5116 Y1.3561 
G01 X-2.5118 Y1.3564 
G01 X-2.5120 Y1.3566 
G01 X-2.5127 Y1.3580 
G01 X-2.5135 Y1.3594 
G01 X-2.5136 Y1.3597 
G01 X-2.5138 Y1.3600 
G01 X-2.5141 Y1.3616 
G01 X-2.5145 Y1.3631 
G01 X-2.5145 Y1.3634 
G01 X-2.5146 Y1.3638 
G01 X-2.5145 Y1.3653 
G01 X-2.5145 Y2.0191 
G01 X-2.5146 Y2.0200 
G01 X-2.5145 Y2.0210 
G01 X-2.5145 Y2.0219 
G01 X-2.5142 Y2.0228 
G01 X-2.5141 Y2.0238 
G01 X-2.5138 Y2.0247 
G01 X-2.5135 Y2.0256 
G01 X-2.5130 Y2.0264 
G01 X-2.5127 Y2.0273 
G01 X-2.5121 Y2.0281 
G01 X-2.5116 Y2.0289 
G01 X-2.5109 Y2.0296 
G01 X-2.4402 Y2.1215 
G01 X-2.4417 Y2.1230 
G01 X-2.4455 Y2.1282 
G01 X-2.4485 Y2.1341 
G01 X-2.4505 Y2.1403 
G01 X-2.4515 Y2.1467 
G01 X-2.4515 Y2.1533 
G01 X-2.4505 Y2.1597 
G01 X-2.4485 Y2.1659 
G01 X-2.4455 Y2.1718 
G01 X-2.4417 Y2.1770 
G01 X-2.4370 Y2.1817 
G01 X-2.4318 Y2.1855 
G01 X-2.4259 Y2.1885 
G01 X-2.4197 Y2.1905 
G01 X-2.4133 Y2.1915 
G01 X-2.4067 Y2.1915 
G01 X-2.4003 Y2.1905 
G01 X-2.3941 Y2.1885 
G01 X-2.3882 Y2.1855 
G01 X-2.3830 Y2.1817 
G01 X-2.3783 Y2.1770 
G01 X-2.3745 Y2.1718 
G01 X-2.3715 Y2.1659 
G01 X-2.3695 Y2.1597 
G01 X-2.3685 Y2.1533 
G01 X-2.3685 Y2.1467 
G01 X-2.3695 Y2.1403 
G01 X-2.3715 Y2.1341 
G01 X-2.3745 Y2.1282 
G01 X-2.3783 Y2.1230 
G01 X-2.3830 Y2.1183 
G01 X-2.3882 Y2.1145 
G01 X-2.3941 Y2.1115 
G01 X-2.4003 Y2.1095 
G01 X-2.4067 Y2.1085 
G01 X-2.4133 Y2.1085 
G01 X-2.4136 Y2.1086 
G01 X-2.4855 Y2.0151 
G01 X-2.4855 Y1.3706 
G01 X-2.3886 Y1.2645 
G01 X-2.2531 Y1.2645 
G01 X-2.2518 Y1.2655 
G01 X-2.2459 Y1.2685 
G01 X-2.2397 Y1.2705 
G01 X-2.2333 Y1.2715 
G01 X-2.2267 Y1.2715 
G01 X-2.2203 Y1.2705 
G01 X-2.2141 Y1.2685 
G01 X-2.2082 Y1.2655 
G01 X-2.2030 Y1.2617 
G01 X-2.1983 Y1.2570 
G01 X-2.1945 Y1.2518 
G01 X-2.1915 Y1.2459 
G01 X-2.1895 Y1.2397 
G01 X-2.1885 Y1.2333 
G01 X-2.1885 Y1.2267 
G01 X-2.1895 Y1.2203 
G01 X-2.1915 Y1.2141 
G01 X-2.1945 Y1.2082 
G01 X-2.1983 Y1.2030 
G01 X-2.2030 Y1.1983 
G01 X-2.2082 Y1.1945 
G00 Z0.1000 
G00 X-2.2082 Y1.2945 
G01 Z-0.0070 F10.00 
G01 X-2.2141 Y1.2915 F20.00 
G01 X-2.2203 Y1.2895 
G01 X-2.2267 Y1.2885 
G01 X-2.2333 Y1.2885 
G01 X-2.2397 Y1.2895 
G01 X-2.2459 Y1.2915 
G01 X-2.2518 Y1.2945 
G01 X-2.2570 Y1.2983 
G01 X-2.2617 Y1.3030 
G01 X-2.2655 Y1.3082 
G01 X-2.2685 Y1.3141 
G01 X-2.2705 Y1.3203 
G01 X-2.2713 Y1.3255 
G01 X-2.3686 Y1.3255 
G01 X-2.3691 Y1.3254 
G01 X-2.3705 Y1.3255 
G01 X-2.3719 Y1.3255 
G01 X-2.3724 Y1.3256 
G01 X-2.3729 Y1.3257 
G01 X-2.3743 Y1.3261 
G01 X-2.3756 Y1.3265 
G01 X-2.3761 Y1.3268 
G01 X-2.3765 Y1.3269 
G01 X-2.3777 Y1.3277 
G01 X-2.3789 Y1.3284 
G01 X-2.3793 Y1.3288 
G01 X-2.3797 Y1.3291 
G01 X-2.3806 Y1.3301 
G01 X-2.3816 Y1.3311 
G01 X-2.3819 Y1.3316 
G01 X-2.4456 Y1.4051 
G01 X-2.4466 Y1.4061 
G01 X-2.4469 Y1.4065 
G01 X-2.4472 Y1.4069 
G01 X-2.4478 Y1.4082 
G01 X-2.4485 Y1.4094 
G01 X-2.4486 Y1.4099 
G01 X-2.4489 Y1.4104 
G01 X-2.4491 Y1.4117 
G01 X-2.4495 Y1.4131 
G01 X-2.4495 Y1.4136 
G01 X-2.4496 Y1.4141 
G01 X-2.4495 Y1.4155 
G01 X-2.4495 Y1.9945 
G01 X-2.4496 Y1.9959 
G01 X-2.4495 Y1.9964 
G01 X-2.4495 Y1.9969 
G01 X-2.4491 Y1.9983 
G01 X-2.4489 Y1.9997 
G01 X-2.4486 Y2.0001 
G01 X-2.4485 Y2.0006 
G01 X-2.4478 Y2.0018 
G01 X-2.4472 Y2.0031 
G01 X-2.4469 Y2.0035 
G01 X-2.4466 Y2.0039 
G01 X-2.4456 Y2.0049 
G01 X-2.3422 Y2.1237 
G01 X-2.3455 Y2.1282 
G01 X-2.3485 Y2.1341 
G01 X-2.3505 Y2.1403 
G01 X-2.3515 Y2.1467 
G01 X-2.3515 Y2.1533 
G01 X-2.3505 Y2.1597 
G01 X-2.3485 Y2.1659 
G01 X-2.3455 Y2.1718 
G01 X-2.3417 Y2.1770 
G01 X-2.3370 Y2.1817 
G01 X-2.3318 Y2.1855 
G01 X-2.3259 Y2.1885 
G01 X-2.3197 Y2.1905 
G01 X-2.3133 Y2.1915 
G01 X-2.3067 Y2.1915 
G01 X-2.3003 Y2.1905 
G01 X-2.2941 Y2.1885 
G01 X-2.2882 Y2.1855 
G01 X-2.2830 Y2.1817 
G01 X-2.2783 Y2.1770 
G01 X-2.2745 Y2.1718 
G01 X-2.2715 Y2.1659 
G01 X-2.2695 Y2.1597 
G01 X-2.2685 Y2.1533 
G01 X-2.2685 Y2.1467 
G01 X-2.2695 Y2.1403 
G01 X-2.2715 Y2.1341 
G01 X-2.2745 Y2.1282 
G01 X-2.2783 Y2.1230 
G01 X-2.2830 Y2.1183 
G01 X-2.2882 Y2.1145 
G01 X-2.2941 Y2.1115 
G01 X-2.3003 Y2.1095 
G01 X-2.3067 Y2.1085 
G01 X-2.3133 Y2.1085 
G01 X-2.3165 Y2.1090 
G01 X-2.4205 Y1.9896 
G01 X-2.4205 Y1.4204 
G01 X-2.3634 Y1.3545 
G01 X-2.2635 Y1.3545 
G01 X-2.2617 Y1.3570 
G01 X-2.2570 Y1.3617 
G01 X-2.2518 Y1.3655 
G01 X-2.2459 Y1.3685 
G01 X-2.2397 Y1.3705 
G01 X-2.2333 Y1.3715 
G01 X-2.2267 Y1.3715 
G01 X-2.2203 Y1.3705 
G01 X-2.2141 Y1.3685 
G01 X-2.2082 Y1.3655 
G01 X-2.2030 Y1.3617 
G01 X-2.1983 Y1.3570 
G01 X-2.1945 Y1.3518 
G01 X-2.1915 Y1.3459 
G01 X-2.1895 Y1.3397 
G01 X-2.1885 Y1.3333 
G01 X-2.1885 Y1.3267 
G01 X-2.1895 Y1.3203 
G01 X-2.1915 Y1.3141 
G01 X-2.1945 Y1.3082 
G01 X-2.1983 Y1.3030 
G01 X-2.2030 Y1.2983 
G01 X-2.2082 Y1.2945 
G00 Z0.1000 
G00 X-2.2059 Y1.2940 
G01 Z-0.0070 F10.00 
G01 X-2.1940 Y1.3059 F20.00 
G01 X-2.1875 Y1.3215 
G01 X-2.1875 Y1.3385 
G01 X-2.1940 Y1.3541 
G01 X-2.2059 Y1.3660 
G01 X-2.2215 Y1.3725 
G01 X-2.2385 Y1.3725 
G01 X-2.2541 Y1.3660 
G01 X-2.2635 Y1.3566 
G01 X-2.2662 Y1.3555 
G01 X-2.2692 Y1.3555 
G01 X-2.3583 Y1.3555 
G01 X-2.3585 Y1.3554 
G01 X-2.3598 Y1.3555 
G01 X-2.3610 Y1.3555 
G01 X-2.3612 Y1.3556 
G01 X-2.3615 Y1.3556 
G01 X-2.3626 Y1.3562 
G01 X-2.3637 Y1.3566 
G01 X-2.3639 Y1.3568 
G01 X-2.3642 Y1.3570 
G01 X-2.3650 Y1.3579 
G01 X-2.3659 Y1.3588 
G01 X-2.3660 Y1.3590 
G01 X-2.4175 Y1.4185 
G01 X-2.4184 Y1.4193 
G01 X-2.4185 Y1.4196 
G01 X-2.4186 Y1.4198 
G01 X-2.4190 Y1.4210 
G01 X-2.4195 Y1.4221 
G01 X-2.4195 Y1.4224 
G01 X-2.4196 Y1.4226 
G01 X-2.4195 Y1.4238 
G01 X-2.4195 Y1.9861 
G01 X-2.4196 Y1.9874 
G01 X-2.4195 Y1.9876 
G01 X-2.4195 Y1.9879 
G01 X-2.4190 Y1.9890 
G01 X-2.4186 Y1.9902 
G01 X-2.4185 Y1.9904 
G01 X-2.4184 Y1.9906 
G01 X-2.4175 Y1.9915 
G01 X-2.3195 Y2.1040 
G01 X-2.3194 Y2.1042 
G01 X-2.3185 Y2.1051 
G01 X-2.3177 Y2.1061 
G01 X-2.3175 Y2.1062 
G01 X-2.3173 Y2.1064 
G01 X-2.3162 Y2.1068 
G01 X-2.3151 Y2.1074 
G01 X-2.3148 Y2.1074 
G01 X-2.3145 Y2.1075 
G01 X-2.3133 Y2.1075 
G01 X-2.3121 Y2.1076 
G01 X-2.3118 Y2.1075 
G01 X-2.3015 Y2.1075 
G01 X-2.2859 Y2.1140 
G01 X-2.2740 Y2.1259 
G01 X-2.2675 Y2.1415 
G01 X-2.2675 Y2.1585 
G01 X-2.2740 Y2.1741 
G01 X-2.2859 Y2.1860 
G01 X-2.3015 Y2.1925 
G01 X-2.3185 Y2.1925 
G01 X-2.3341 Y2.1860 
G01 X-2.3460 Y2.1741 
G01 X-2.3525 Y2.1585 
G01 X-2.3525 Y2.1415 
G01 X-2.3465 Y2.1269 
G01 X-2.3459 Y2.1258 
G01 X-2.3459 Y2.1256 
G01 X-2.3458 Y2.1253 
G01 X-2.3458 Y2.1241 
G01 X-2.3457 Y2.1229 
G01 X-2.3458 Y2.1226 
G01 X-2.3458 Y2.1223 
G01 X-2.3463 Y2.1212 
G01 X-2.3466 Y2.1200 
G01 X-2.3468 Y2.1198 
G01 X-2.3469 Y2.1196 
G01 X-2.3478 Y2.1187 
G01 X-2.4454 Y2.0067 
G01 X-2.4455 Y2.0065 
G01 X-2.4463 Y2.0056 
G01 X-2.4471 Y2.0047 
G01 X-2.4474 Y2.0045 
G01 X-2.4509 Y2.0010 
G01 X-2.4506 Y1.9959 
G01 X-2.4505 Y1.9957 
G01 X-2.4505 Y1.9945 
G01 X-2.4504 Y1.9932 
G01 X-2.4505 Y1.9930 
G01 X-2.4505 Y1.4170 
G01 X-2.4504 Y1.4168 
G01 X-2.4505 Y1.4156 
G01 X-2.4505 Y1.4143 
G01 X-2.4506 Y1.4141 
G01 X-2.4510 Y1.4090 
G01 X-2.4474 Y1.4055 
G01 X-2.4472 Y1.4054 
G01 X-2.4464 Y1.4044 
G01 X-2.4455 Y1.4036 
G01 X-2.4454 Y1.4033 
G01 X-2.3875 Y1.3365 
G01 X-2.3866 Y1.3357 
G01 X-2.3865 Y1.3354 
G01 X-2.3864 Y1.3352 
G01 X-2.3860 Y1.3341 
G01 X-2.3824 Y1.3305 
G01 X-2.3822 Y1.3304 
G01 X-2.3814 Y1.3294 
G01 X-2.3805 Y1.3286 
G01 X-2.3804 Y1.3283 
G01 X-2.3771 Y1.3245 
G01 X-2.3720 Y1.3245 
G01 X-2.3718 Y1.3246 
G01 X-2.3706 Y1.3245 
G01 X-2.3693 Y1.3245 
G01 X-2.3691 Y1.3244 
G01 X-2.3640 Y1.3240 
G01 X-2.3629 Y1.3245 
G01 X-2.3626 Y1.3245 
G01 X-2.3624 Y1.3246 
G01 X-2.3612 Y1.3245 
G01 X-2.2772 Y1.3245 
G01 X-2.2745 Y1.3234 
G01 X-2.2724 Y1.3212 
G01 X-2.2660 Y1.3059 
G01 X-2.2541 Y1.2940 
G01 X-2.2385 Y1.2875 
G01 X-2.2215 Y1.2875 
G01 X-2.2059 Y1.2940 
G00 Z0.1000 
G00 X-2.2059 Y1.3940 
G01 Z-0.0070 F10.00 
G01 X-2.1940 Y1.4059 F20.00 
G01 X-2.1875 Y1.4215 
G01 X-2.1875 Y1.4385 
G01 X-2.1940 Y1.4541 
G01 X-2.2059 Y1.4660 
G01 X-2.2215 Y1.4725 
G01 X-2.2255 Y1.4725 
G01 X-2.2264 Y1.4724 
G01 X-2.2270 Y1.4725 
G01 X-2.2330 Y1.4725 
G01 X-2.2336 Y1.4724 
G01 X-2.2345 Y1.4725 
G01 X-2.2385 Y1.4725 
G01 X-2.2541 Y1.4660 
G01 X-2.2660 Y1.4541 
G01 X-2.2667 Y1.4525 
G01 X-2.2678 Y1.4498 
G01 X-2.2689 Y1.4487 
G01 X-2.2699 Y1.4476 
G01 X-2.2704 Y1.4475 
G01 X-2.2727 Y1.4465 
G01 X-2.2873 Y1.4465 
G01 X-2.2901 Y1.4476 
G01 X-2.2922 Y1.4498 
G01 X-2.2931 Y1.4520 
G01 X-2.2940 Y1.4541 
G01 X-2.3059 Y1.4660 
G01 X-2.3215 Y1.4725 
G01 X-2.3385 Y1.4725 
G01 X-2.3541 Y1.4660 
G01 X-2.3660 Y1.4541 
G01 X-2.3725 Y1.4385 
G01 X-2.3725 Y1.4215 
G01 X-2.3660 Y1.4059 
G01 X-2.3541 Y1.3940 
G01 X-2.3385 Y1.3875 
G01 X-2.3215 Y1.3875 
G01 X-2.3059 Y1.3940 
G01 X-2.2975 Y1.4024 
G01 X-2.2948 Y1.4035 
G01 X-2.2652 Y1.4035 
G01 X-2.2641 Y1.4030 
G01 X-2.2625 Y1.4024 
G01 X-2.2604 Y1.4002 
G01 X-2.2541 Y1.3940 
G01 X-2.2385 Y1.3875 
G01 X-2.2215 Y1.3875 
G01 X-2.2059 Y1.3940 
G00 Z0.1000 
G00 X-2.2082 Y1.3945 
G01 Z-0.0070 F10.00 
G01 X-2.2141 Y1.3915 F20.00 
G01 X-2.2203 Y1.3895 
G01 X-2.2267 Y1.3885 
G01 X-2.2333 Y1.3885 
G01 X-2.2397 Y1.3895 
G01 X-2.2459 Y1.3915 
G01 X-2.2518 Y1.3945 
G01 X-2.2570 Y1.3983 
G01 X-2.2617 Y1.4030 
G01 X-2.2628 Y1.4045 
G01 X-2.2972 Y1.4045 
G01 X-2.2983 Y1.4030 
G01 X-2.3030 Y1.3983 
G01 X-2.3082 Y1.3945 
G01 X-2.3141 Y1.3915 
G01 X-2.3203 Y1.3895 
G01 X-2.3267 Y1.3885 
G01 X-2.3333 Y1.3885 
G01 X-2.3397 Y1.3895 
G01 X-2.3459 Y1.3915 
G01 X-2.3518 Y1.3945 
G01 X-2.3570 Y1.3983 
G01 X-2.3617 Y1.4030 
G01 X-2.3655 Y1.4082 
G01 X-2.3685 Y1.4141 
G01 X-2.3705 Y1.4203 
G01 X-2.3715 Y1.4267 
G01 X-2.3715 Y1.4333 
G01 X-2.3705 Y1.4397 
G01 X-2.3685 Y1.4459 
G01 X-2.3655 Y1.4518 
G01 X-2.3617 Y1.4570 
G01 X-2.3570 Y1.4617 
G01 X-2.3518 Y1.4655 
G01 X-2.3459 Y1.4685 
G01 X-2.3397 Y1.4705 
G01 X-2.3333 Y1.4715 
G01 X-2.3267 Y1.4715 
G01 X-2.3203 Y1.4705 
G01 X-2.3141 Y1.4685 
G01 X-2.3082 Y1.4655 
G01 X-2.3030 Y1.4617 
G01 X-2.2983 Y1.4570 
G01 X-2.2945 Y1.4518 
G01 X-2.2915 Y1.4459 
G01 X-2.2914 Y1.4455 
G01 X-2.2686 Y1.4455 
G01 X-2.2685 Y1.4459 
G01 X-2.2655 Y1.4518 
G01 X-2.2617 Y1.4570 
G01 X-2.2570 Y1.4617 
G01 X-2.2518 Y1.4655 
G01 X-2.2459 Y1.4685 
G01 X-2.2397 Y1.4705 
G01 X-2.2333 Y1.4715 
G01 X-2.2267 Y1.4715 
G01 X-2.2203 Y1.4705 
G01 X-2.2141 Y1.4685 
G01 X-2.2082 Y1.4655 
G01 X-2.2030 Y1.4617 
G01 X-2.1983 Y1.4570 
G01 X-2.1945 Y1.4518 
G01 X-2.1915 Y1.4459 
G01 X-2.1895 Y1.4397 
G01 X-2.1885 Y1.4333 
G01 X-2.1885 Y1.4267 
G01 X-2.1895 Y1.4203 
G01 X-2.1915 Y1.4141 
G01 X-2.1945 Y1.4082 
G01 X-2.1983 Y1.4030 
