(.../external_usr-lang-prog/pcbgcode/pcb-gcode.ulp)
(Copyright 2005 - 2012 by John Johnson)
(See readme.txt for licensing terms.)
(This file generated from the board:)
(.../ant-robots/docs/eagle/dueSkel2.brd)
(Current profile is .../pcbgcode/profiles/generic.pp  )
(This file generated 9/5/2017 3:08 PM)
(Settings from pcb-machine.h)
(spindle on time = 3.0000)
(spindle speed = 20000.0000)
(tool change at 0.0000 0.0000 1.0000 )
(feed rate xy = F0.00  )
(feed rate z  = F20.00 )
(Z Axis Settings)
(  High     Up        Down     Drill)
(0.5000 	0.1000 	-0.0070 	-0.0320 )
(Settings from pcb-defaults.h)
(isolate min = 0.0010)
(isolate max = 0.0200)
(isolate step = 0.0050)
(Generated top outlines, top drill, bottom outlines, bottom drill, )
(Unit of measure: inch)
( Tool|       Size       |  Min Sub |  Max Sub |   Count )
( T01  0.900mm 0.0354in 0.0000in 0.0000in )
( T02  1.016mm 0.0400in 0.0000in 0.0000in )
(Inch Mode)
G20
(Absolute Coordinates)
G90
S20000
G00 Z0.5000 
G00 X0.0000 Y0.0000 
M03
G04 P3.000000
M05
G00 Z1.0000 
M06 T01  ; 0.0354 
G01 Z0.0000 F20.00 
M06 
G00 Z0.1000 
M03
G04 P3.000000
G00 Z0.100000
G00 X-0.8400 Y1.2500 
G01 Z-0.0320 F20.00 
G01 Z0.100000
(R0.1000  P1.000000)
G00 X-0.8400 Y1.4200 
G01 Z-0.032000
G01 Z0.100000
G00 X-0.8400 Y1.6100 
G01 Z-0.032000
G01 Z0.100000
G00 X-0.8400 Y1.7900 
G01 Z-0.032000
G01 Z0.100000
G00 X-1.1400 Y1.7900 
G01 Z-0.032000
G01 Z0.100000
G00 X-1.2300 Y1.7900 
G01 Z-0.032000
G01 Z0.100000
G00 X-1.2300 Y1.6100 
G01 Z-0.032000
G01 Z0.100000
G00 X-1.1400 Y1.6100 
G01 Z-0.032000
G01 Z0.100000
G00 X-1.1400 Y1.4200 
G01 Z-0.032000
G01 Z0.100000
G00 X-1.2300 Y1.4200 
G01 Z-0.032000
G01 Z0.100000
G00 X-1.2300 Y1.2500 
G01 Z-0.032000
G01 Z0.100000
G00 X-1.1400 Y1.2500 
G01 Z-0.032000
G01 Z0.100000
G00 X-1.5300 Y1.2500 
G01 Z-0.032000
G01 Z0.100000
G00 X-1.5300 Y1.4200 
G01 Z-0.032000
G01 Z0.100000
G00 X-1.5300 Y1.6100 
G01 Z-0.032000
G01 Z0.100000
G00 X-1.5300 Y1.7900 
G01 Z-0.032000
G01 Z0.100000
M05
G00 Z1.0000 
G00 X0.0000 Y0.0000 
M06 T02  ; 0.0400 
G01 Z0.0000 F20.00 
M06 
G00 Z0.1000 
M03
G04 P3.000000
G00 Z0.100000
G00 X-0.1500 Y2.1500 
G01 Z-0.0320 F20.00 
G01 Z0.100000
(R0.1000  P1.000000)
G00 X-0.2500 Y2.1500 
G01 Z-0.032000
G01 Z0.100000
G00 X-0.3500 Y2.1500 
G01 Z-0.032000
G01 Z0.100000
G00 X-0.4500 Y2.1500 
G01 Z-0.032000
G01 Z0.100000
G00 X-0.5500 Y2.1500 
G01 Z-0.032000
G01 Z0.100000
G00 X-0.6500 Y2.1500 
G01 Z-0.032000
G01 Z0.100000
G00 X-0.7500 Y2.1500 
G01 Z-0.032000
G01 Z0.100000
G00 X-0.8500 Y2.1500 
G01 Z-0.032000
G01 Z0.100000
G00 X-0.9500 Y2.1500 
G01 Z-0.032000
G01 Z0.100000
G00 X-1.0500 Y2.1500 
G01 Z-0.032000
G01 Z0.100000
G00 X-1.2200 Y2.1400 
G01 Z-0.032000
G01 Z0.100000
G00 X-1.3200 Y2.1400 
G01 Z-0.032000
G01 Z0.100000
G00 X-1.4200 Y2.1400 
G01 Z-0.032000
G01 Z0.100000
G00 X-1.5200 Y2.1400 
G01 Z-0.032000
G01 Z0.100000
G00 X-1.6200 Y2.1400 
G01 Z-0.032000
G01 Z0.100000
G00 X-1.7200 Y2.1400 
G01 Z-0.032000
G01 Z0.100000
G00 X-1.8200 Y2.1400 
G01 Z-0.032000
G01 Z0.100000
G00 X-1.9200 Y2.1400 
G01 Z-0.032000
G01 Z0.100000
G00 X-2.1100 Y2.1500 
G01 Z-0.032000
G01 Z0.100000
G00 X-2.2100 Y2.1500 
G01 Z-0.032000
G01 Z0.100000
G00 X-2.3100 Y2.1500 
G01 Z-0.032000
G01 Z0.100000
G00 X-2.4100 Y2.1500 
G01 Z-0.032000
G01 Z0.100000
G00 X-2.5100 Y2.1500 
G01 Z-0.032000
G01 Z0.100000
G00 X-2.6100 Y2.1500 
G01 Z-0.032000
G01 Z0.100000
G00 X-2.7100 Y2.1500 
G01 Z-0.032000
G01 Z0.100000
G00 X-2.8100 Y2.1500 
G01 Z-0.032000
G01 Z0.100000
G00 X-2.7900 Y1.9300 
G01 Z-0.032000
G01 Z0.100000
G00 X-2.7900 Y1.8300 
G01 Z-0.032000
G01 Z0.100000
G00 X-2.7900 Y1.7300 
G01 Z-0.032000
G01 Z0.100000
G00 X-2.7900 Y1.6300 
G01 Z-0.032000
G01 Z0.100000
G00 X-2.7900 Y1.5300 
G01 Z-0.032000
G01 Z0.100000
G00 X-2.7900 Y1.4300 
G01 Z-0.032000
G01 Z0.100000
G00 X-2.7900 Y1.3300 
G01 Z-0.032000
G01 Z0.100000
G00 X-2.7900 Y1.2300 
G01 Z-0.032000
G01 Z0.100000
G00 X-2.7700 Y1.0500 
G01 Z-0.032000
G01 Z0.100000
G00 X-2.6700 Y1.0500 
G01 Z-0.032000
G01 Z0.100000
G00 X-2.5700 Y1.0500 
G01 Z-0.032000
G01 Z0.100000
G00 X-2.4700 Y1.0500 
G01 Z-0.032000
G01 Z0.100000
G00 X-2.3700 Y1.0500 
G01 Z-0.032000
G01 Z0.100000
G00 X-2.2700 Y1.0500 
G01 Z-0.032000
G01 Z0.100000
G00 X-2.1500 Y1.0500 
G01 Z-0.032000
G01 Z0.100000
G00 X-2.0500 Y1.0500 
G01 Z-0.032000
G01 Z0.100000
G00 X-2.0400 Y0.8500 
G01 Z-0.032000
G01 Z0.100000
G00 X-2.1400 Y0.8500 
G01 Z-0.032000
G01 Z0.100000
G00 X-2.2600 Y0.8500 
G01 Z-0.032000
G01 Z0.100000
G00 X-2.3600 Y0.8500 
G01 Z-0.032000
G01 Z0.100000
G00 X-2.4600 Y0.8500 
G01 Z-0.032000
G01 Z0.100000
G00 X-2.5600 Y0.8500 
G01 Z-0.032000
G01 Z0.100000
G00 X-2.6600 Y0.8500 
G01 Z-0.032000
G01 Z0.100000
G00 X-2.7600 Y0.8500 
G01 Z-0.032000
G01 Z0.100000
G00 X-2.7600 Y0.6500 
G01 Z-0.032000
G01 Z0.100000
G00 X-2.6600 Y0.6500 
G01 Z-0.032000
G01 Z0.100000
G00 X-2.5600 Y0.6500 
G01 Z-0.032000
G01 Z0.100000
G00 X-2.4600 Y0.6500 
G01 Z-0.032000
G01 Z0.100000
G00 X-2.3600 Y0.6500 
G01 Z-0.032000
G01 Z0.100000
G00 X-2.2600 Y0.6500 
G01 Z-0.032000
G01 Z0.100000
G00 X-2.1400 Y0.6500 
G01 Z-0.032000
G01 Z0.100000
G00 X-2.0400 Y0.6500 
G01 Z-0.032000
G01 Z0.100000
G00 X-2.0400 Y0.4500 
G01 Z-0.032000
G01 Z0.100000
G00 X-2.1400 Y0.4500 
G01 Z-0.032000
G01 Z0.100000
G00 X-2.2600 Y0.4500 
G01 Z-0.032000
G01 Z0.100000
G00 X-2.3600 Y0.4500 
G01 Z-0.032000
G01 Z0.100000
G00 X-2.4600 Y0.4500 
G01 Z-0.032000
G01 Z0.100000
G00 X-2.5600 Y0.4500 
G01 Z-0.032000
G01 Z0.100000
G00 X-2.6600 Y0.4500 
G01 Z-0.032000
G01 Z0.100000
G00 X-2.7600 Y0.4500 
G01 Z-0.032000
G01 Z0.100000
G00 X-2.7100 Y0.2500 
G01 Z-0.032000
G01 Z0.100000
G00 X-2.6100 Y0.2500 
G01 Z-0.032000
G01 Z0.100000
G00 X-2.5100 Y0.2500 
G01 Z-0.032000
G01 Z0.100000
G00 X-2.4100 Y0.2500 
G01 Z-0.032000
G01 Z0.100000
G00 X-2.3100 Y0.2500 
G01 Z-0.032000
G01 Z0.100000
G00 X-2.1100 Y0.2500 
G01 Z-0.032000
G01 Z0.100000
G00 X-2.0100 Y0.2500 
G01 Z-0.032000
G01 Z0.100000
G00 X-1.9100 Y0.2500 
G01 Z-0.032000
G01 Z0.100000
G00 X-1.8100 Y0.2500 
G01 Z-0.032000
G01 Z0.100000
G00 X-1.7100 Y0.2500 
G01 Z-0.032000
G01 Z0.100000
G00 X-1.6100 Y0.2500 
G01 Z-0.032000
G01 Z0.100000
G00 X-1.5100 Y0.2500 
G01 Z-0.032000
G01 Z0.100000
G00 X-1.4100 Y0.2500 
G01 Z-0.032000
G01 Z0.100000
G00 X-1.2100 Y0.2500 
G01 Z-0.032000
G01 Z0.100000
G00 X-1.1100 Y0.2500 
G01 Z-0.032000
G01 Z0.100000
G00 X-1.0100 Y0.2500 
G01 Z-0.032000
G01 Z0.100000
G00 X-0.9100 Y0.2500 
G01 Z-0.032000
G01 Z0.100000
G00 X-0.8100 Y0.2500 
G01 Z-0.032000
G01 Z0.100000
G00 X-0.7100 Y0.2500 
G01 Z-0.032000
G01 Z0.100000
G00 X-0.6100 Y0.2500 
G01 Z-0.032000
G01 Z0.100000
G00 X-0.5100 Y0.2500 
G01 Z-0.032000
G01 Z0.100000
G00 X-0.4700 Y0.6400 
G01 Z-0.032000
G01 Z0.100000
G00 X-0.4700 Y0.7400 
G01 Z-0.032000
G01 Z0.100000
G00 X-0.3700 Y0.7400 
G01 Z-0.032000
G01 Z0.100000
G00 X-0.2700 Y0.7400 
G01 Z-0.032000
G01 Z0.100000
G00 X-0.2700 Y0.6400 
G01 Z-0.032000
G01 Z0.100000
G00 X-0.3700 Y0.6400 
G01 Z-0.032000
G01 Z0.100000
G00 X-1.6500 Y1.2500 
G01 Z-0.032000
G01 Z0.100000
G00 X-1.7500 Y1.2500 
G01 Z-0.032000
G01 Z0.100000
G00 X-1.8500 Y1.2500 
G01 Z-0.032000
G01 Z0.100000
G00 X-1.8500 Y1.4200 
G01 Z-0.032000
G01 Z0.100000
G00 X-1.7500 Y1.4200 
G01 Z-0.032000
G01 Z0.100000
G00 X-1.6500 Y1.4200 
G01 Z-0.032000
G01 Z0.100000
G00 X-1.6500 Y1.6100 
G01 Z-0.032000
G01 Z0.100000
G00 X-1.7500 Y1.6100 
G01 Z-0.032000
G01 Z0.100000
G00 X-1.8500 Y1.6100 
G01 Z-0.032000
G01 Z0.100000
G00 X-1.8500 Y1.7900 
G01 Z-0.032000
G01 Z0.100000
G00 X-1.7500 Y1.7900 
G01 Z-0.032000
G01 Z0.100000
G00 X-1.6500 Y1.7900 
G01 Z-0.032000
G01 Z0.100000
G00 X-1.6200 Y2.0300 
G01 Z-0.032000
G01 Z0.100000
G00 X-1.7200 Y2.0300 
G01 Z-0.032000
G01 Z0.100000
G00 X-1.5200 Y2.0300 
G01 Z-0.032000
G01 Z0.100000
G00 X-1.4200 Y2.0300 
G01 Z-0.032000
G01 Z0.100000
G00 X-2.2300 Y1.9300 
G01 Z-0.032000
G01 Z0.100000
G00 X-2.2300 Y1.8300 
G01 Z-0.032000
G01 Z0.100000
G00 X-2.2300 Y1.7300 
G01 Z-0.032000
G01 Z0.100000
G00 X-2.2300 Y1.6300 
G01 Z-0.032000
G01 Z0.100000
G00 X-2.2300 Y1.5300 
G01 Z-0.032000
G01 Z0.100000
G00 X-2.2300 Y1.4300 
G01 Z-0.032000
G01 Z0.100000
G00 X-2.2300 Y1.3300 
G01 Z-0.032000
G01 Z0.100000
G00 X-2.2300 Y1.2300 
G01 Z-0.032000
G01 Z0.100000
G00 X-2.3300 Y1.4300 
G01 Z-0.032000
G01 Z0.100000
G00 X-2.3300 Y1.7300 
G01 Z-0.032000
G01 Z0.100000
G00 X-2.6900 Y1.7300 
G01 Z-0.032000
G01 Z0.100000
G00 X-2.6900 Y1.4300 
G01 Z-0.032000
G01 Z0.100000
G00 X-3.1100 Y1.4490 
G01 Z-0.032000
G01 Z0.100000
G00 X-3.1100 Y1.5490 
G01 Z-0.032000
G01 Z0.100000
G00 X-3.1100 Y1.6490 
G01 Z-0.032000
G01 Z0.100000
G00 X-3.1100 Y1.7490 
G01 Z-0.032000
G01 Z0.100000
G00 X-3.1100 Y1.8490 
G01 Z-0.032000
G01 Z0.100000
G00 X-3.1100 Y1.9490 
G01 Z-0.032000
G01 Z0.100000
G00 X-3.1100 Y2.0490 
G01 Z-0.032000
G01 Z0.100000
G00 X-3.1100 Y2.1490 
G01 Z-0.032000
G01 Z0.100000
G00 X-3.2100 Y2.1500 
G01 Z-0.032000
G01 Z0.100000
G00 X-3.2100 Y2.0500 
G01 Z-0.032000
G01 Z0.100000
G00 X-3.2100 Y1.9500 
G01 Z-0.032000
G01 Z0.100000
G00 X-3.2100 Y1.8500 
G01 Z-0.032000
G01 Z0.100000
G00 X-3.2100 Y1.7500 
G01 Z-0.032000
G01 Z0.100000
G00 X-3.2100 Y1.6500 
G01 Z-0.032000
G01 Z0.100000
G00 X-3.2100 Y1.5500 
G01 Z-0.032000
G01 Z0.100000
G00 X-3.2100 Y1.4500 
G01 Z-0.032000
G01 Z0.100000
G00 X-3.2100 Y1.3500 
G01 Z-0.032000
G01 Z0.100000
G00 X-3.2100 Y1.2500 
G01 Z-0.032000
G01 Z0.100000
G00 X-3.2100 Y1.1500 
G01 Z-0.032000
G01 Z0.100000
G00 X-3.2100 Y1.0500 
G01 Z-0.032000
G01 Z0.100000
G00 X-3.2100 Y0.9500 
G01 Z-0.032000
G01 Z0.100000
G00 X-3.2100 Y0.8500 
G01 Z-0.032000
G01 Z0.100000
G00 X-3.2100 Y0.7500 
G01 Z-0.032000
G01 Z0.100000
G00 X-3.2100 Y0.6500 
G01 Z-0.032000
G01 Z0.100000
G00 X-3.2100 Y0.5500 
G01 Z-0.032000
G01 Z0.100000
G00 X-3.2100 Y0.4500 
G01 Z-0.032000
G01 Z0.100000
G00 X-3.1100 Y0.4490 
G01 Z-0.032000
G01 Z0.100000
G00 X-3.1100 Y0.5490 
G01 Z-0.032000
G01 Z0.100000
G00 X-3.1100 Y0.6490 
G01 Z-0.032000
G01 Z0.100000
G00 X-3.1100 Y0.7490 
G01 Z-0.032000
G01 Z0.100000
G00 X-3.1100 Y0.8490 
G01 Z-0.032000
G01 Z0.100000
G00 X-3.1100 Y0.9490 
G01 Z-0.032000
G01 Z0.100000
G00 X-3.1100 Y1.0490 
G01 Z-0.032000
G01 Z0.100000
G00 X-3.1100 Y1.1490 
G01 Z-0.032000
G01 Z0.100000
G00 X-3.1100 Y1.2490 
G01 Z-0.032000
G01 Z0.100000
G00 X-3.1100 Y1.3490 
G01 Z-0.032000
G01 Z0.100000
G00 X-3.0100 Y0.2500 
G01 Z-0.032000
G01 Z0.100000
G00 X-2.9100 Y0.2500 
G01 Z-0.032000
G01 Z0.100000
G00 X-2.8100 Y0.2500 
G01 Z-0.032000
G01 Z0.100000
T01 
G00 Z0.5000 
M05
M02
