(.../external_usr-lang-prog/pcbgcode/pcb-gcode.ulp)
(Copyright 2005 - 2012 by John Johnson)
(See readme.txt for licensing terms.)
(This file generated from the board:)
(.../ant-robots/docs/eagle/dueSkel2.brd)
(Current profile is .../pcbgcode/profiles/generic.pp  )
(This file generated 9/5/2017 3:07 PM)
(Settings from pcb-machine.h)
(spindle on time = 3.0000)
(  Tool Size)
(0.0070 )
(spindle speed = 30000.0000)
(tool change at 0.0000 0.0000 1.0000 )
(feed rate xy = F20.00 )
(feed rate z  = F10.00 )
(Z Axis Settings)
(  High     Up        Down     Drill)
(0.5000 	0.1000 	-0.0070 	-0.0320 )
(Settings from pcb-defaults.h)
(isolate min = 0.0010)
(isolate max = 0.0200)
(isolate step = 0.0050)
(Generated top outlines, top drill, bottom outlines, bottom drill, )
(Unit of measure: inch)
(Inch Mode)
G20
(Absolute Coordinates)
G90
S30000
G00 Z0.5000 
G00 X0.0000 Y0.0000 
M03
G04 P3.000000
G00 Z0.1000 
G00 X0.4783 Y0.2230 
G01 Z-0.0070 F10.00 
G01 X0.4745 Y0.2282 F20.00 
G01 X0.4715 Y0.2341 
G01 X0.4695 Y0.2403 
G01 X0.4685 Y0.2467 
G01 X0.4685 Y0.2533 
G01 X0.4695 Y0.2597 
G01 X0.4715 Y0.2659 
G01 X0.4745 Y0.2718 
G01 X0.4783 Y0.2770 
G01 X0.4830 Y0.2817 
G01 X0.4882 Y0.2855 
G01 X0.4941 Y0.2885 
G01 X0.5003 Y0.2905 
G01 X0.5067 Y0.2915 
G01 X0.5133 Y0.2915 
G01 X0.5197 Y0.2905 
G01 X0.5259 Y0.2885 
G01 X0.5318 Y0.2855 
G01 X0.5370 Y0.2817 
G01 X0.5417 Y0.2770 
G01 X0.5455 Y0.2718 
G01 X0.5485 Y0.2659 
G01 X0.5505 Y0.2597 
G01 X0.5515 Y0.2533 
G01 X0.5515 Y0.2467 
G01 X0.5505 Y0.2403 
G01 X0.5485 Y0.2341 
G01 X0.5455 Y0.2282 
G01 X0.5417 Y0.2230 
G01 X0.5370 Y0.2183 
G01 X0.5318 Y0.2145 
G01 X0.5259 Y0.2115 
G01 X0.5197 Y0.2095 
G01 X0.5133 Y0.2085 
G01 X0.5067 Y0.2085 
G01 X0.5003 Y0.2095 
G01 X0.4941 Y0.2115 
G01 X0.4882 Y0.2145 
G01 X0.4830 Y0.2183 
G01 X0.4783 Y0.2230 
G00 Z0.1000 
G00 X0.5783 Y0.2230 
G01 Z-0.0070 F10.00 
G01 X0.5745 Y0.2282 F20.00 
G01 X0.5715 Y0.2341 
G01 X0.5695 Y0.2403 
G01 X0.5685 Y0.2467 
G01 X0.5685 Y0.2533 
G01 X0.5695 Y0.2597 
G01 X0.5715 Y0.2659 
G01 X0.5745 Y0.2718 
G01 X0.5783 Y0.2770 
G01 X0.5830 Y0.2817 
G01 X0.5882 Y0.2855 
G01 X0.5941 Y0.2885 
G01 X0.6003 Y0.2905 
G01 X0.6067 Y0.2915 
G01 X0.6133 Y0.2915 
G01 X0.6197 Y0.2905 
G01 X0.6259 Y0.2885 
G01 X0.6318 Y0.2855 
G01 X0.6370 Y0.2817 
G01 X0.6417 Y0.2770 
G01 X0.6455 Y0.2718 
G01 X0.6485 Y0.2659 
G01 X0.6505 Y0.2597 
G01 X0.6515 Y0.2533 
G01 X0.6515 Y0.2467 
G01 X0.6505 Y0.2403 
G01 X0.6485 Y0.2341 
G01 X0.6455 Y0.2282 
G01 X0.6417 Y0.2230 
G01 X0.6370 Y0.2183 
G01 X0.6318 Y0.2145 
G01 X0.6259 Y0.2115 
G01 X0.6197 Y0.2095 
G01 X0.6133 Y0.2085 
G01 X0.6067 Y0.2085 
G01 X0.6003 Y0.2095 
G01 X0.5941 Y0.2115 
G01 X0.5882 Y0.2145 
G01 X0.5830 Y0.2183 
G01 X0.5783 Y0.2230 
G00 Z0.1000 
G00 X0.6783 Y0.2230 
G01 Z-0.0070 F10.00 
G01 X0.6745 Y0.2282 F20.00 
G01 X0.6715 Y0.2341 
G01 X0.6695 Y0.2403 
G01 X0.6685 Y0.2467 
G01 X0.6685 Y0.2533 
G01 X0.6695 Y0.2597 
G01 X0.6715 Y0.2659 
G01 X0.6745 Y0.2718 
G01 X0.6783 Y0.2770 
G01 X0.6830 Y0.2817 
G01 X0.6882 Y0.2855 
G01 X0.6941 Y0.2885 
G01 X0.7003 Y0.2905 
G01 X0.7067 Y0.2915 
G01 X0.7133 Y0.2915 
G01 X0.7197 Y0.2905 
G01 X0.7259 Y0.2885 
G01 X0.7318 Y0.2855 
G01 X0.7370 Y0.2817 
G01 X0.7417 Y0.2770 
G01 X0.7455 Y0.2718 
G01 X0.7485 Y0.2659 
G01 X0.7505 Y0.2597 
G01 X0.7515 Y0.2533 
G01 X0.7515 Y0.2467 
G01 X0.7505 Y0.2403 
G01 X0.7485 Y0.2341 
G01 X0.7455 Y0.2282 
G01 X0.7417 Y0.2230 
G01 X0.7370 Y0.2183 
G01 X0.7318 Y0.2145 
G01 X0.7259 Y0.2115 
G01 X0.7197 Y0.2095 
G01 X0.7133 Y0.2085 
G01 X0.7067 Y0.2085 
G01 X0.7003 Y0.2095 
G01 X0.6941 Y0.2115 
G01 X0.6882 Y0.2145 
G01 X0.6830 Y0.2183 
G01 X0.6783 Y0.2230 
G00 Z0.1000 
G00 X0.7783 Y0.2230 
G01 Z-0.0070 F10.00 
G01 X0.7745 Y0.2282 F20.00 
G01 X0.7715 Y0.2341 
G01 X0.7695 Y0.2403 
G01 X0.7685 Y0.2467 
G01 X0.7685 Y0.2533 
G01 X0.7695 Y0.2597 
G01 X0.7715 Y0.2659 
G01 X0.7745 Y0.2718 
G01 X0.7783 Y0.2770 
G01 X0.7830 Y0.2817 
G01 X0.7882 Y0.2855 
G01 X0.7941 Y0.2885 
G01 X0.8003 Y0.2905 
G01 X0.8067 Y0.2915 
G01 X0.8133 Y0.2915 
G01 X0.8197 Y0.2905 
G01 X0.8259 Y0.2885 
G01 X0.8318 Y0.2855 
G01 X0.8370 Y0.2817 
G01 X0.8417 Y0.2770 
G01 X0.8455 Y0.2718 
G01 X0.8485 Y0.2659 
G01 X0.8505 Y0.2597 
G01 X0.8515 Y0.2533 
G01 X0.8515 Y0.2467 
G01 X0.8505 Y0.2403 
G01 X0.8485 Y0.2341 
G01 X0.8455 Y0.2282 
G01 X0.8417 Y0.2230 
G01 X0.8370 Y0.2183 
G01 X0.8318 Y0.2145 
G01 X0.8259 Y0.2115 
G01 X0.8197 Y0.2095 
G01 X0.8133 Y0.2085 
G01 X0.8067 Y0.2085 
G01 X0.8003 Y0.2095 
G01 X0.7941 Y0.2115 
G01 X0.7882 Y0.2145 
G01 X0.7830 Y0.2183 
G01 X0.7783 Y0.2230 
G00 Z0.1000 
G00 X0.8783 Y0.2230 
G01 Z-0.0070 F10.00 
G01 X0.8745 Y0.2282 F20.00 
G01 X0.8715 Y0.2341 
G01 X0.8695 Y0.2403 
G01 X0.8685 Y0.2467 
G01 X0.8685 Y0.2533 
G01 X0.8695 Y0.2597 
G01 X0.8715 Y0.2659 
G01 X0.8745 Y0.2718 
G01 X0.8783 Y0.2770 
G01 X0.8830 Y0.2817 
G01 X0.8882 Y0.2855 
G01 X0.8941 Y0.2885 
G01 X0.9003 Y0.2905 
G01 X0.9067 Y0.2915 
G01 X0.9133 Y0.2915 
G01 X0.9197 Y0.2905 
G01 X0.9259 Y0.2885 
G01 X0.9318 Y0.2855 
G01 X0.9370 Y0.2817 
G01 X0.9417 Y0.2770 
G01 X0.9455 Y0.2718 
G01 X0.9485 Y0.2659 
G01 X0.9505 Y0.2597 
G01 X0.9515 Y0.2533 
G01 X0.9515 Y0.2467 
G01 X0.9505 Y0.2403 
G01 X0.9485 Y0.2341 
G01 X0.9455 Y0.2282 
G01 X0.9417 Y0.2230 
G01 X0.9370 Y0.2183 
G01 X0.9318 Y0.2145 
G01 X0.9259 Y0.2115 
G01 X0.9197 Y0.2095 
G01 X0.9133 Y0.2085 
G01 X0.9067 Y0.2085 
G01 X0.9003 Y0.2095 
G01 X0.8941 Y0.2115 
G01 X0.8882 Y0.2145 
G01 X0.8830 Y0.2183 
G01 X0.8783 Y0.2230 
G00 Z0.1000 
G00 X0.9783 Y0.2230 
G01 Z-0.0070 F10.00 
G01 X0.9745 Y0.2282 F20.00 
G01 X0.9715 Y0.2341 
G01 X0.9695 Y0.2403 
G01 X0.9685 Y0.2467 
G01 X0.9685 Y0.2533 
G01 X0.9695 Y0.2597 
G01 X0.9715 Y0.2659 
G01 X0.9745 Y0.2718 
G01 X0.9783 Y0.2770 
G01 X0.9830 Y0.2817 
G01 X0.9882 Y0.2855 
G01 X0.9941 Y0.2885 
G01 X1.0003 Y0.2905 
G01 X1.0067 Y0.2915 
G01 X1.0133 Y0.2915 
G01 X1.0197 Y0.2905 
G01 X1.0259 Y0.2885 
G01 X1.0318 Y0.2855 
G01 X1.0370 Y0.2817 
G01 X1.0417 Y0.2770 
G01 X1.0455 Y0.2718 
G01 X1.0485 Y0.2659 
G01 X1.0505 Y0.2597 
G01 X1.0515 Y0.2533 
G01 X1.0515 Y0.2467 
G01 X1.0505 Y0.2403 
G01 X1.0485 Y0.2341 
G01 X1.0455 Y0.2282 
G01 X1.0417 Y0.2230 
G01 X1.0370 Y0.2183 
G01 X1.0318 Y0.2145 
G01 X1.0259 Y0.2115 
G01 X1.0197 Y0.2095 
G01 X1.0133 Y0.2085 
G01 X1.0067 Y0.2085 
G01 X1.0003 Y0.2095 
G01 X0.9941 Y0.2115 
G01 X0.9882 Y0.2145 
G01 X0.9830 Y0.2183 
G01 X0.9783 Y0.2230 
G00 Z0.1000 
G00 X1.0783 Y0.2230 
G01 Z-0.0070 F10.00 
G01 X1.0745 Y0.2282 F20.00 
G01 X1.0715 Y0.2341 
G01 X1.0695 Y0.2403 
G01 X1.0685 Y0.2467 
G01 X1.0685 Y0.2533 
G01 X1.0695 Y0.2597 
G01 X1.0715 Y0.2659 
G01 X1.0745 Y0.2718 
G01 X1.0783 Y0.2770 
G01 X1.0830 Y0.2817 
G01 X1.0882 Y0.2855 
G01 X1.0941 Y0.2885 
G01 X1.1003 Y0.2905 
G01 X1.1067 Y0.2915 
G01 X1.1133 Y0.2915 
G01 X1.1197 Y0.2905 
G01 X1.1259 Y0.2885 
G01 X1.1318 Y0.2855 
G01 X1.1370 Y0.2817 
G01 X1.1417 Y0.2770 
G01 X1.1455 Y0.2718 
G01 X1.1485 Y0.2659 
G01 X1.1505 Y0.2597 
G01 X1.1515 Y0.2533 
G01 X1.1515 Y0.2467 
G01 X1.1505 Y0.2403 
G01 X1.1485 Y0.2341 
G01 X1.1455 Y0.2282 
G01 X1.1417 Y0.2230 
G01 X1.1370 Y0.2183 
G01 X1.1318 Y0.2145 
G01 X1.1259 Y0.2115 
G01 X1.1197 Y0.2095 
G01 X1.1133 Y0.2085 
G01 X1.1067 Y0.2085 
G01 X1.1003 Y0.2095 
G01 X1.0941 Y0.2115 
G01 X1.0882 Y0.2145 
G01 X1.0830 Y0.2183 
G01 X1.0783 Y0.2230 
G00 Z0.1000 
G00 X1.1783 Y0.2230 
G01 Z-0.0070 F10.00 
G01 X1.1745 Y0.2282 F20.00 
G01 X1.1715 Y0.2341 
G01 X1.1695 Y0.2403 
G01 X1.1685 Y0.2467 
G01 X1.1685 Y0.2533 
G01 X1.1695 Y0.2597 
G01 X1.1715 Y0.2659 
G01 X1.1745 Y0.2718 
G01 X1.1783 Y0.2770 
G01 X1.1830 Y0.2817 
G01 X1.1882 Y0.2855 
G01 X1.1941 Y0.2885 
G01 X1.2003 Y0.2905 
G01 X1.2067 Y0.2915 
G01 X1.2133 Y0.2915 
G01 X1.2197 Y0.2905 
G01 X1.2259 Y0.2885 
G01 X1.2318 Y0.2855 
G01 X1.2370 Y0.2817 
G01 X1.2417 Y0.2770 
G01 X1.2455 Y0.2718 
G01 X1.2485 Y0.2659 
G01 X1.2505 Y0.2597 
G01 X1.2515 Y0.2533 
G01 X1.2515 Y0.2467 
G01 X1.2505 Y0.2403 
G01 X1.2485 Y0.2341 
G01 X1.2455 Y0.2282 
G01 X1.2417 Y0.2230 
G01 X1.2370 Y0.2183 
G01 X1.2318 Y0.2145 
G01 X1.2259 Y0.2115 
G01 X1.2197 Y0.2095 
G01 X1.2133 Y0.2085 
G01 X1.2067 Y0.2085 
G01 X1.2003 Y0.2095 
G01 X1.1941 Y0.2115 
G01 X1.1882 Y0.2145 
G01 X1.1830 Y0.2183 
G01 X1.1783 Y0.2230 
G00 Z0.1000 
G00 X1.3783 Y0.2230 
G01 Z-0.0070 F10.00 
G01 X1.3745 Y0.2282 F20.00 
G01 X1.3715 Y0.2341 
G01 X1.3695 Y0.2403 
G01 X1.3685 Y0.2467 
G01 X1.3685 Y0.2533 
G01 X1.3695 Y0.2597 
G01 X1.3715 Y0.2659 
G01 X1.3745 Y0.2718 
G01 X1.3783 Y0.2770 
G01 X1.3830 Y0.2817 
G01 X1.3882 Y0.2855 
G01 X1.3941 Y0.2885 
G01 X1.4003 Y0.2905 
G01 X1.4067 Y0.2915 
G01 X1.4133 Y0.2915 
G01 X1.4197 Y0.2905 
G01 X1.4259 Y0.2885 
G01 X1.4318 Y0.2855 
G01 X1.4370 Y0.2817 
G01 X1.4417 Y0.2770 
G01 X1.4455 Y0.2718 
G01 X1.4485 Y0.2659 
G01 X1.4505 Y0.2597 
G01 X1.4515 Y0.2533 
G01 X1.4515 Y0.2467 
G01 X1.4505 Y0.2403 
G01 X1.4485 Y0.2341 
G01 X1.4455 Y0.2282 
G01 X1.4417 Y0.2230 
G01 X1.4370 Y0.2183 
G01 X1.4318 Y0.2145 
G01 X1.4259 Y0.2115 
G01 X1.4197 Y0.2095 
G01 X1.4133 Y0.2085 
G01 X1.4067 Y0.2085 
G01 X1.4003 Y0.2095 
G01 X1.3941 Y0.2115 
G01 X1.3882 Y0.2145 
G01 X1.3830 Y0.2183 
G01 X1.3783 Y0.2230 
G00 Z0.1000 
G00 X1.4783 Y0.2230 
G01 Z-0.0070 F10.00 
G01 X1.4745 Y0.2282 F20.00 
G01 X1.4715 Y0.2341 
G01 X1.4695 Y0.2403 
G01 X1.4685 Y0.2467 
G01 X1.4685 Y0.2533 
G01 X1.4695 Y0.2597 
G01 X1.4715 Y0.2659 
G01 X1.4745 Y0.2718 
G01 X1.4783 Y0.2770 
G01 X1.4830 Y0.2817 
G01 X1.4882 Y0.2855 
G01 X1.4941 Y0.2885 
G01 X1.5003 Y0.2905 
G01 X1.5067 Y0.2915 
G01 X1.5133 Y0.2915 
G01 X1.5197 Y0.2905 
G01 X1.5259 Y0.2885 
G01 X1.5318 Y0.2855 
G01 X1.5370 Y0.2817 
G01 X1.5417 Y0.2770 
G01 X1.5455 Y0.2718 
G01 X1.5485 Y0.2659 
G01 X1.5505 Y0.2597 
G01 X1.5515 Y0.2533 
G01 X1.5515 Y0.2467 
G01 X1.5505 Y0.2403 
G01 X1.5485 Y0.2341 
G01 X1.5455 Y0.2282 
G01 X1.5417 Y0.2230 
G01 X1.5370 Y0.2183 
G01 X1.5318 Y0.2145 
G01 X1.5259 Y0.2115 
G01 X1.5197 Y0.2095 
G01 X1.5133 Y0.2085 
G01 X1.5067 Y0.2085 
G01 X1.5003 Y0.2095 
G01 X1.4941 Y0.2115 
G01 X1.4882 Y0.2145 
G01 X1.4830 Y0.2183 
G01 X1.4783 Y0.2230 
G00 Z0.1000 
G00 X1.5783 Y0.2230 
G01 Z-0.0070 F10.00 
G01 X1.5745 Y0.2282 F20.00 
G01 X1.5715 Y0.2341 
G01 X1.5695 Y0.2403 
G01 X1.5685 Y0.2467 
G01 X1.5685 Y0.2533 
G01 X1.5695 Y0.2597 
G01 X1.5715 Y0.2659 
G01 X1.5745 Y0.2718 
G01 X1.5783 Y0.2770 
G01 X1.5830 Y0.2817 
G01 X1.5882 Y0.2855 
G01 X1.5941 Y0.2885 
G01 X1.6003 Y0.2905 
G01 X1.6067 Y0.2915 
G01 X1.6133 Y0.2915 
G01 X1.6197 Y0.2905 
G01 X1.6259 Y0.2885 
G01 X1.6318 Y0.2855 
G01 X1.6370 Y0.2817 
G01 X1.6417 Y0.2770 
G01 X1.6455 Y0.2718 
G01 X1.6485 Y0.2659 
G01 X1.6505 Y0.2597 
G01 X1.6515 Y0.2533 
G01 X1.6515 Y0.2467 
G01 X1.6505 Y0.2403 
G01 X1.6485 Y0.2341 
G01 X1.6455 Y0.2282 
G01 X1.6417 Y0.2230 
G01 X1.6370 Y0.2183 
G01 X1.6318 Y0.2145 
G01 X1.6259 Y0.2115 
G01 X1.6197 Y0.2095 
G01 X1.6133 Y0.2085 
G01 X1.6067 Y0.2085 
G01 X1.6003 Y0.2095 
G01 X1.5941 Y0.2115 
G01 X1.5882 Y0.2145 
G01 X1.5830 Y0.2183 
G01 X1.5783 Y0.2230 
G00 Z0.1000 
G00 X1.6783 Y0.2230 
G01 Z-0.0070 F10.00 
G01 X1.6745 Y0.2282 F20.00 
G01 X1.6715 Y0.2341 
G01 X1.6695 Y0.2403 
G01 X1.6685 Y0.2467 
G01 X1.6685 Y0.2533 
G01 X1.6695 Y0.2597 
G01 X1.6715 Y0.2659 
G01 X1.6745 Y0.2718 
G01 X1.6783 Y0.2770 
G01 X1.6830 Y0.2817 
G01 X1.6882 Y0.2855 
G01 X1.6941 Y0.2885 
G01 X1.7003 Y0.2905 
G01 X1.7067 Y0.2915 
G01 X1.7133 Y0.2915 
G01 X1.7197 Y0.2905 
G01 X1.7259 Y0.2885 
G01 X1.7318 Y0.2855 
G01 X1.7370 Y0.2817 
G01 X1.7417 Y0.2770 
G01 X1.7455 Y0.2718 
G01 X1.7485 Y0.2659 
G01 X1.7505 Y0.2597 
G01 X1.7515 Y0.2533 
G01 X1.7515 Y0.2467 
G01 X1.7505 Y0.2403 
G01 X1.7485 Y0.2341 
G01 X1.7455 Y0.2282 
G01 X1.7417 Y0.2230 
G01 X1.7370 Y0.2183 
G01 X1.7318 Y0.2145 
G01 X1.7259 Y0.2115 
G01 X1.7197 Y0.2095 
G01 X1.7133 Y0.2085 
G01 X1.7067 Y0.2085 
G01 X1.7003 Y0.2095 
G01 X1.6941 Y0.2115 
G01 X1.6882 Y0.2145 
G01 X1.6830 Y0.2183 
G01 X1.6783 Y0.2230 
G00 Z0.1000 
G00 X1.7783 Y0.2230 
G01 Z-0.0070 F10.00 
G01 X1.7745 Y0.2282 F20.00 
G01 X1.7715 Y0.2341 
G01 X1.7695 Y0.2403 
G01 X1.7685 Y0.2467 
G01 X1.7685 Y0.2533 
G01 X1.7695 Y0.2597 
G01 X1.7715 Y0.2659 
G01 X1.7745 Y0.2718 
G01 X1.7783 Y0.2770 
G01 X1.7830 Y0.2817 
G01 X1.7882 Y0.2855 
G01 X1.7941 Y0.2885 
G01 X1.8003 Y0.2905 
G01 X1.8067 Y0.2915 
G01 X1.8133 Y0.2915 
G01 X1.8197 Y0.2905 
G01 X1.8259 Y0.2885 
G01 X1.8318 Y0.2855 
G01 X1.8370 Y0.2817 
G01 X1.8417 Y0.2770 
G01 X1.8455 Y0.2718 
G01 X1.8485 Y0.2659 
G01 X1.8505 Y0.2597 
G01 X1.8515 Y0.2533 
G01 X1.8515 Y0.2467 
G01 X1.8505 Y0.2403 
G01 X1.8485 Y0.2341 
G01 X1.8455 Y0.2282 
G01 X1.8417 Y0.2230 
G01 X1.8370 Y0.2183 
G01 X1.8318 Y0.2145 
G01 X1.8259 Y0.2115 
G01 X1.8197 Y0.2095 
G01 X1.8133 Y0.2085 
G01 X1.8067 Y0.2085 
G01 X1.8003 Y0.2095 
G01 X1.7941 Y0.2115 
G01 X1.7882 Y0.2145 
G01 X1.7830 Y0.2183 
G01 X1.7783 Y0.2230 
G00 Z0.1000 
G00 X1.8783 Y0.2230 
G01 Z-0.0070 F10.00 
G01 X1.8745 Y0.2282 F20.00 
G01 X1.8715 Y0.2341 
G01 X1.8695 Y0.2403 
G01 X1.8685 Y0.2467 
G01 X1.8685 Y0.2533 
G01 X1.8695 Y0.2597 
G01 X1.8715 Y0.2659 
G01 X1.8745 Y0.2718 
G01 X1.8783 Y0.2770 
G01 X1.8830 Y0.2817 
G01 X1.8882 Y0.2855 
G01 X1.8941 Y0.2885 
G01 X1.9003 Y0.2905 
G01 X1.9067 Y0.2915 
G01 X1.9133 Y0.2915 
G01 X1.9197 Y0.2905 
G01 X1.9259 Y0.2885 
G01 X1.9318 Y0.2855 
G01 X1.9370 Y0.2817 
G01 X1.9417 Y0.2770 
G01 X1.9455 Y0.2718 
G01 X1.9485 Y0.2659 
G01 X1.9505 Y0.2597 
G01 X1.9515 Y0.2533 
G01 X1.9515 Y0.2467 
G01 X1.9505 Y0.2403 
G01 X1.9485 Y0.2341 
G01 X1.9455 Y0.2282 
G01 X1.9417 Y0.2230 
G01 X1.9370 Y0.2183 
G01 X1.9318 Y0.2145 
G01 X1.9259 Y0.2115 
G01 X1.9197 Y0.2095 
G01 X1.9133 Y0.2085 
G01 X1.9067 Y0.2085 
G01 X1.9003 Y0.2095 
G01 X1.8941 Y0.2115 
G01 X1.8882 Y0.2145 
G01 X1.8830 Y0.2183 
G01 X1.8783 Y0.2230 
G00 Z0.1000 
G00 X1.9783 Y0.2230 
G01 Z-0.0070 F10.00 
G01 X1.9745 Y0.2282 F20.00 
G01 X1.9715 Y0.2341 
G01 X1.9695 Y0.2403 
G01 X1.9685 Y0.2467 
G01 X1.9685 Y0.2533 
G01 X1.9695 Y0.2597 
G01 X1.9715 Y0.2659 
G01 X1.9745 Y0.2718 
G01 X1.9783 Y0.2770 
G01 X1.9830 Y0.2817 
G01 X1.9882 Y0.2855 
G01 X1.9941 Y0.2885 
G01 X2.0003 Y0.2905 
G01 X2.0067 Y0.2915 
G01 X2.0133 Y0.2915 
G01 X2.0197 Y0.2905 
G01 X2.0259 Y0.2885 
G01 X2.0318 Y0.2855 
G01 X2.0370 Y0.2817 
G01 X2.0417 Y0.2770 
G01 X2.0455 Y0.2718 
G01 X2.0485 Y0.2659 
G01 X2.0505 Y0.2597 
G01 X2.0515 Y0.2533 
G01 X2.0515 Y0.2467 
G01 X2.0505 Y0.2403 
G01 X2.0485 Y0.2341 
G01 X2.0455 Y0.2282 
G01 X2.0417 Y0.2230 
G01 X2.0370 Y0.2183 
G01 X2.0318 Y0.2145 
G01 X2.0259 Y0.2115 
G01 X2.0197 Y0.2095 
G01 X2.0133 Y0.2085 
G01 X2.0067 Y0.2085 
G01 X2.0003 Y0.2095 
G01 X1.9941 Y0.2115 
G01 X1.9882 Y0.2145 
G01 X1.9830 Y0.2183 
G01 X1.9783 Y0.2230 
G00 Z0.1000 
G00 X2.0783 Y0.2230 
G01 Z-0.0070 F10.00 
G01 X2.0745 Y0.2282 F20.00 
G01 X2.0715 Y0.2341 
G01 X2.0695 Y0.2403 
G01 X2.0685 Y0.2467 
G01 X2.0685 Y0.2533 
G01 X2.0695 Y0.2597 
G01 X2.0715 Y0.2659 
G01 X2.0745 Y0.2718 
G01 X2.0783 Y0.2770 
G01 X2.0830 Y0.2817 
G01 X2.0882 Y0.2855 
G01 X2.0941 Y0.2885 
G01 X2.1003 Y0.2905 
G01 X2.1067 Y0.2915 
G01 X2.1133 Y0.2915 
G01 X2.1197 Y0.2905 
G01 X2.1259 Y0.2885 
G01 X2.1318 Y0.2855 
G01 X2.1370 Y0.2817 
G01 X2.1417 Y0.2770 
G01 X2.1455 Y0.2718 
G01 X2.1485 Y0.2659 
G01 X2.1505 Y0.2597 
G01 X2.1515 Y0.2533 
G01 X2.1515 Y0.2467 
G01 X2.1505 Y0.2403 
G01 X2.1485 Y0.2341 
G01 X2.1455 Y0.2282 
G01 X2.1417 Y0.2230 
G01 X2.1370 Y0.2183 
G01 X2.1318 Y0.2145 
G01 X2.1259 Y0.2115 
G01 X2.1197 Y0.2095 
G01 X2.1133 Y0.2085 
G01 X2.1067 Y0.2085 
G01 X2.1003 Y0.2095 
G01 X2.0941 Y0.2115 
G01 X2.0882 Y0.2145 
G01 X2.0830 Y0.2183 
G01 X2.0783 Y0.2230 
G00 Z0.1000 
G00 X2.2783 Y0.2230 
G01 Z-0.0070 F10.00 
G01 X2.2745 Y0.2282 F20.00 
G01 X2.2715 Y0.2341 
G01 X2.2695 Y0.2403 
G01 X2.2685 Y0.2467 
G01 X2.2685 Y0.2533 
G01 X2.2695 Y0.2597 
G01 X2.2715 Y0.2659 
G01 X2.2745 Y0.2718 
G01 X2.2783 Y0.2770 
G01 X2.2830 Y0.2817 
G01 X2.2882 Y0.2855 
G01 X2.2941 Y0.2885 
G01 X2.3003 Y0.2905 
G01 X2.3067 Y0.2915 
G01 X2.3133 Y0.2915 
G01 X2.3197 Y0.2905 
G01 X2.3259 Y0.2885 
G01 X2.3318 Y0.2855 
G01 X2.3370 Y0.2817 
G01 X2.3417 Y0.2770 
G01 X2.3455 Y0.2718 
G01 X2.3485 Y0.2659 
G01 X2.3505 Y0.2597 
G01 X2.3515 Y0.2533 
G01 X2.3515 Y0.2467 
G01 X2.3505 Y0.2403 
G01 X2.3485 Y0.2341 
G01 X2.3455 Y0.2282 
G01 X2.3417 Y0.2230 
G01 X2.3370 Y0.2183 
G01 X2.3318 Y0.2145 
G01 X2.3259 Y0.2115 
G01 X2.3197 Y0.2095 
G01 X2.3133 Y0.2085 
G01 X2.3067 Y0.2085 
G01 X2.3003 Y0.2095 
G01 X2.2941 Y0.2115 
G01 X2.2882 Y0.2145 
G01 X2.2830 Y0.2183 
G01 X2.2783 Y0.2230 
G00 Z0.1000 
G00 X2.3783 Y0.2230 
G01 Z-0.0070 F10.00 
G01 X2.3745 Y0.2282 F20.00 
G01 X2.3715 Y0.2341 
G01 X2.3695 Y0.2403 
G01 X2.3685 Y0.2467 
G01 X2.3685 Y0.2533 
G01 X2.3695 Y0.2597 
G01 X2.3715 Y0.2659 
G01 X2.3745 Y0.2718 
G01 X2.3783 Y0.2770 
G01 X2.3830 Y0.2817 
G01 X2.3882 Y0.2855 
G01 X2.3941 Y0.2885 
G01 X2.4003 Y0.2905 
G01 X2.4067 Y0.2915 
G01 X2.4133 Y0.2915 
G01 X2.4197 Y0.2905 
G01 X2.4259 Y0.2885 
G01 X2.4318 Y0.2855 
G01 X2.4370 Y0.2817 
G01 X2.4417 Y0.2770 
G01 X2.4455 Y0.2718 
G01 X2.4485 Y0.2659 
G01 X2.4505 Y0.2597 
G01 X2.4515 Y0.2533 
G01 X2.4515 Y0.2467 
G01 X2.4505 Y0.2403 
G01 X2.4485 Y0.2341 
G01 X2.4455 Y0.2282 
G01 X2.4417 Y0.2230 
G01 X2.4370 Y0.2183 
G01 X2.4318 Y0.2145 
G01 X2.4259 Y0.2115 
G01 X2.4197 Y0.2095 
G01 X2.4133 Y0.2085 
G01 X2.4067 Y0.2085 
G01 X2.4003 Y0.2095 
G01 X2.3941 Y0.2115 
G01 X2.3882 Y0.2145 
G01 X2.3830 Y0.2183 
G01 X2.3783 Y0.2230 
G00 Z0.1000 
G00 X2.4783 Y0.2230 
G01 Z-0.0070 F10.00 
G01 X2.4745 Y0.2282 F20.00 
G01 X2.4715 Y0.2341 
G01 X2.4695 Y0.2403 
G01 X2.4685 Y0.2467 
G01 X2.4685 Y0.2533 
G01 X2.4695 Y0.2597 
G01 X2.4715 Y0.2659 
G01 X2.4745 Y0.2718 
G01 X2.4783 Y0.2770 
G01 X2.4830 Y0.2817 
G01 X2.4882 Y0.2855 
G01 X2.4941 Y0.2885 
G01 X2.5003 Y0.2905 
G01 X2.5067 Y0.2915 
G01 X2.5133 Y0.2915 
G01 X2.5197 Y0.2905 
G01 X2.5259 Y0.2885 
G01 X2.5318 Y0.2855 
G01 X2.5370 Y0.2817 
G01 X2.5417 Y0.2770 
G01 X2.5455 Y0.2718 
G01 X2.5485 Y0.2659 
G01 X2.5505 Y0.2597 
G01 X2.5515 Y0.2533 
G01 X2.5515 Y0.2467 
G01 X2.5505 Y0.2403 
G01 X2.5485 Y0.2341 
G01 X2.5455 Y0.2282 
G01 X2.5417 Y0.2230 
G01 X2.5370 Y0.2183 
G01 X2.5318 Y0.2145 
G01 X2.5259 Y0.2115 
G01 X2.5197 Y0.2095 
G01 X2.5133 Y0.2085 
G01 X2.5067 Y0.2085 
G01 X2.5003 Y0.2095 
G01 X2.4941 Y0.2115 
G01 X2.4882 Y0.2145 
G01 X2.4830 Y0.2183 
G01 X2.4783 Y0.2230 
G00 Z0.1000 
G00 X2.5783 Y0.2230 
G01 Z-0.0070 F10.00 
G01 X2.5745 Y0.2282 F20.00 
G01 X2.5715 Y0.2341 
G01 X2.5695 Y0.2403 
G01 X2.5685 Y0.2467 
G01 X2.5685 Y0.2533 
G01 X2.5695 Y0.2597 
G01 X2.5715 Y0.2659 
G01 X2.5745 Y0.2718 
G01 X2.5783 Y0.2770 
G01 X2.5830 Y0.2817 
G01 X2.5882 Y0.2855 
G01 X2.5941 Y0.2885 
G01 X2.6003 Y0.2905 
G01 X2.6067 Y0.2915 
G01 X2.6133 Y0.2915 
G01 X2.6197 Y0.2905 
G01 X2.6259 Y0.2885 
G01 X2.6318 Y0.2855 
G01 X2.6370 Y0.2817 
G01 X2.6417 Y0.2770 
G01 X2.6455 Y0.2718 
G01 X2.6485 Y0.2659 
G01 X2.6505 Y0.2597 
G01 X2.6515 Y0.2533 
G01 X2.6515 Y0.2467 
G01 X2.6505 Y0.2403 
G01 X2.6485 Y0.2341 
G01 X2.6455 Y0.2282 
G01 X2.6417 Y0.2230 
G01 X2.6370 Y0.2183 
G01 X2.6318 Y0.2145 
G01 X2.6259 Y0.2115 
G01 X2.6197 Y0.2095 
G01 X2.6133 Y0.2085 
G01 X2.6067 Y0.2085 
G01 X2.6003 Y0.2095 
G01 X2.5941 Y0.2115 
G01 X2.5882 Y0.2145 
G01 X2.5830 Y0.2183 
G01 X2.5783 Y0.2230 
G00 Z0.1000 
G00 X2.6783 Y0.2230 
G01 Z-0.0070 F10.00 
G01 X2.6745 Y0.2282 F20.00 
G01 X2.6715 Y0.2341 
G01 X2.6695 Y0.2403 
G01 X2.6685 Y0.2467 
G01 X2.6685 Y0.2533 
G01 X2.6695 Y0.2597 
G01 X2.6715 Y0.2659 
G01 X2.6745 Y0.2718 
G01 X2.6783 Y0.2770 
G01 X2.6830 Y0.2817 
G01 X2.6882 Y0.2855 
G01 X2.6941 Y0.2885 
G01 X2.7003 Y0.2905 
G01 X2.7067 Y0.2915 
G01 X2.7133 Y0.2915 
G01 X2.7197 Y0.2905 
G01 X2.7259 Y0.2885 
G01 X2.7318 Y0.2855 
G01 X2.7370 Y0.2817 
G01 X2.7417 Y0.2770 
G01 X2.7455 Y0.2718 
G01 X2.7485 Y0.2659 
G01 X2.7505 Y0.2597 
G01 X2.7515 Y0.2533 
G01 X2.7515 Y0.2467 
G01 X2.7505 Y0.2403 
G01 X2.7485 Y0.2341 
G01 X2.7455 Y0.2282 
G01 X2.7417 Y0.2230 
G01 X2.7370 Y0.2183 
G01 X2.7318 Y0.2145 
G01 X2.7259 Y0.2115 
G01 X2.7197 Y0.2095 
G01 X2.7133 Y0.2085 
G01 X2.7067 Y0.2085 
G01 X2.7003 Y0.2095 
G01 X2.6941 Y0.2115 
G01 X2.6882 Y0.2145 
G01 X2.6830 Y0.2183 
G01 X2.6783 Y0.2230 
G00 Z0.1000 
G00 X2.7783 Y0.2230 
G01 Z-0.0070 F10.00 
G01 X2.7745 Y0.2282 F20.00 
G01 X2.7715 Y0.2341 
G01 X2.7695 Y0.2403 
G01 X2.7685 Y0.2467 
G01 X2.7685 Y0.2533 
G01 X2.7695 Y0.2597 
G01 X2.7715 Y0.2659 
G01 X2.7745 Y0.2718 
G01 X2.7783 Y0.2770 
G01 X2.7830 Y0.2817 
G01 X2.7882 Y0.2855 
G01 X2.7941 Y0.2885 
G01 X2.8003 Y0.2905 
G01 X2.8067 Y0.2915 
G01 X2.8133 Y0.2915 
G01 X2.8197 Y0.2905 
G01 X2.8259 Y0.2885 
G01 X2.8318 Y0.2855 
G01 X2.8370 Y0.2817 
G01 X2.8417 Y0.2770 
G01 X2.8455 Y0.2718 
G01 X2.8485 Y0.2659 
G01 X2.8505 Y0.2597 
G01 X2.8515 Y0.2533 
G01 X2.8515 Y0.2467 
G01 X2.8505 Y0.2403 
G01 X2.8485 Y0.2341 
G01 X2.8455 Y0.2282 
G01 X2.8417 Y0.2230 
G01 X2.8370 Y0.2183 
G01 X2.8318 Y0.2145 
G01 X2.8259 Y0.2115 
G01 X2.8197 Y0.2095 
G01 X2.8133 Y0.2085 
G01 X2.8067 Y0.2085 
G01 X2.8003 Y0.2095 
G01 X2.7941 Y0.2115 
G01 X2.7882 Y0.2145 
G01 X2.7830 Y0.2183 
G01 X2.7783 Y0.2230 
G00 Z0.1000 
G00 X2.8783 Y0.2230 
G01 Z-0.0070 F10.00 
G01 X2.8745 Y0.2282 F20.00 
G01 X2.8715 Y0.2341 
G01 X2.8695 Y0.2403 
G01 X2.8685 Y0.2467 
G01 X2.8685 Y0.2533 
G01 X2.8695 Y0.2597 
G01 X2.8715 Y0.2659 
G01 X2.8745 Y0.2718 
G01 X2.8783 Y0.2770 
G01 X2.8830 Y0.2817 
G01 X2.8882 Y0.2855 
G01 X2.8941 Y0.2885 
G01 X2.9003 Y0.2905 
G01 X2.9067 Y0.2915 
G01 X2.9133 Y0.2915 
G01 X2.9197 Y0.2905 
G01 X2.9259 Y0.2885 
G01 X2.9318 Y0.2855 
G01 X2.9370 Y0.2817 
G01 X2.9417 Y0.2770 
G01 X2.9455 Y0.2718 
G01 X2.9485 Y0.2659 
G01 X2.9505 Y0.2597 
G01 X2.9515 Y0.2533 
G01 X2.9515 Y0.2467 
G01 X2.9505 Y0.2403 
G01 X2.9485 Y0.2341 
G01 X2.9455 Y0.2282 
G01 X2.9417 Y0.2230 
G01 X2.9370 Y0.2183 
G01 X2.9318 Y0.2145 
G01 X2.9259 Y0.2115 
G01 X2.9197 Y0.2095 
G01 X2.9133 Y0.2085 
G01 X2.9067 Y0.2085 
G01 X2.9003 Y0.2095 
G01 X2.8941 Y0.2115 
G01 X2.8882 Y0.2145 
G01 X2.8830 Y0.2183 
G01 X2.8783 Y0.2230 
G00 Z0.1000 
G00 X2.9783 Y0.2230 
G01 Z-0.0070 F10.00 
G01 X2.9745 Y0.2282 F20.00 
G01 X2.9715 Y0.2341 
G01 X2.9695 Y0.2403 
G01 X2.9685 Y0.2467 
G01 X2.9685 Y0.2533 
G01 X2.9695 Y0.2597 
G01 X2.9715 Y0.2659 
G01 X2.9745 Y0.2718 
G01 X2.9783 Y0.2770 
G01 X2.9830 Y0.2817 
G01 X2.9882 Y0.2855 
G01 X2.9941 Y0.2885 
G01 X3.0003 Y0.2905 
G01 X3.0067 Y0.2915 
G01 X3.0133 Y0.2915 
G01 X3.0197 Y0.2905 
G01 X3.0259 Y0.2885 
G01 X3.0318 Y0.2855 
G01 X3.0370 Y0.2817 
G01 X3.0417 Y0.2770 
G01 X3.0455 Y0.2718 
G01 X3.0485 Y0.2659 
G01 X3.0505 Y0.2597 
G01 X3.0515 Y0.2533 
G01 X3.0515 Y0.2467 
G01 X3.0505 Y0.2403 
G01 X3.0485 Y0.2341 
G01 X3.0455 Y0.2282 
G01 X3.0417 Y0.2230 
G01 X3.0370 Y0.2183 
G01 X3.0318 Y0.2145 
G01 X3.0259 Y0.2115 
G01 X3.0197 Y0.2095 
G01 X3.0133 Y0.2085 
G01 X3.0067 Y0.2085 
G01 X3.0003 Y0.2095 
G01 X2.9941 Y0.2115 
G01 X2.9882 Y0.2145 
G01 X2.9830 Y0.2183 
G01 X2.9783 Y0.2230 
G00 Z0.1000 
G00 X3.0783 Y0.4220 
G01 Z-0.0070 F10.00 
G01 X3.0745 Y0.4272 F20.00 
G01 X3.0715 Y0.4331 
G01 X3.0695 Y0.4393 
G01 X3.0685 Y0.4457 
G01 X3.0685 Y0.4523 
G01 X3.0695 Y0.4587 
G01 X3.0715 Y0.4649 
G01 X3.0745 Y0.4708 
G01 X3.0783 Y0.4760 
G01 X3.0830 Y0.4807 
G01 X3.0882 Y0.4845 
G01 X3.0941 Y0.4875 
G01 X3.1003 Y0.4895 
G01 X3.1067 Y0.4905 
G01 X3.1133 Y0.4905 
G01 X3.1197 Y0.4895 
G01 X3.1259 Y0.4875 
G01 X3.1318 Y0.4845 
G01 X3.1370 Y0.4807 
G01 X3.1417 Y0.4760 
G01 X3.1455 Y0.4708 
G01 X3.1485 Y0.4649 
G01 X3.1505 Y0.4587 
G01 X3.1515 Y0.4523 
G01 X3.1515 Y0.4457 
G01 X3.1505 Y0.4393 
G01 X3.1485 Y0.4331 
G01 X3.1455 Y0.4272 
G01 X3.1417 Y0.4220 
G01 X3.1370 Y0.4173 
G01 X3.1318 Y0.4135 
G01 X3.1259 Y0.4105 
G01 X3.1197 Y0.4085 
G01 X3.1133 Y0.4075 
G01 X3.1067 Y0.4075 
G01 X3.1003 Y0.4085 
G01 X3.0941 Y0.4105 
G01 X3.0882 Y0.4135 
G01 X3.0830 Y0.4173 
G01 X3.0783 Y0.4220 
G00 Z0.1000 
G00 X3.0783 Y0.5220 
G01 Z-0.0070 F10.00 
G01 X3.0745 Y0.5272 F20.00 
G01 X3.0715 Y0.5331 
G01 X3.0695 Y0.5393 
G01 X3.0685 Y0.5457 
G01 X3.0685 Y0.5523 
G01 X3.0695 Y0.5587 
G01 X3.0715 Y0.5649 
G01 X3.0745 Y0.5708 
G01 X3.0783 Y0.5760 
G01 X3.0830 Y0.5807 
G01 X3.0882 Y0.5845 
G01 X3.0941 Y0.5875 
G01 X3.1003 Y0.5895 
G01 X3.1067 Y0.5905 
G01 X3.1133 Y0.5905 
G01 X3.1197 Y0.5895 
G01 X3.1259 Y0.5875 
G01 X3.1318 Y0.5845 
G01 X3.1370 Y0.5807 
G01 X3.1417 Y0.5760 
G01 X3.1455 Y0.5708 
G01 X3.1485 Y0.5649 
G01 X3.1505 Y0.5587 
G01 X3.1515 Y0.5523 
G01 X3.1515 Y0.5457 
G01 X3.1505 Y0.5393 
G01 X3.1485 Y0.5331 
G01 X3.1455 Y0.5272 
G01 X3.1417 Y0.5220 
G01 X3.1370 Y0.5173 
G01 X3.1318 Y0.5135 
G01 X3.1259 Y0.5105 
G01 X3.1197 Y0.5085 
G01 X3.1133 Y0.5075 
G01 X3.1067 Y0.5075 
G01 X3.1003 Y0.5085 
G01 X3.0941 Y0.5105 
G01 X3.0882 Y0.5135 
G01 X3.0830 Y0.5173 
G01 X3.0783 Y0.5220 
G00 Z0.1000 
G00 X3.0783 Y0.6220 
G01 Z-0.0070 F10.00 
G01 X3.0745 Y0.6272 F20.00 
G01 X3.0715 Y0.6331 
G01 X3.0695 Y0.6393 
G01 X3.0685 Y0.6457 
G01 X3.0685 Y0.6523 
G01 X3.0695 Y0.6587 
G01 X3.0715 Y0.6649 
G01 X3.0745 Y0.6708 
G01 X3.0783 Y0.6760 
G01 X3.0830 Y0.6807 
G01 X3.0882 Y0.6845 
G01 X3.0941 Y0.6875 
G01 X3.1003 Y0.6895 
G01 X3.1067 Y0.6905 
G01 X3.1133 Y0.6905 
G01 X3.1197 Y0.6895 
G01 X3.1259 Y0.6875 
G01 X3.1318 Y0.6845 
G01 X3.1370 Y0.6807 
G01 X3.1417 Y0.6760 
G01 X3.1455 Y0.6708 
G01 X3.1485 Y0.6649 
G01 X3.1505 Y0.6587 
G01 X3.1515 Y0.6523 
G01 X3.1515 Y0.6457 
G01 X3.1505 Y0.6393 
G01 X3.1485 Y0.6331 
G01 X3.1455 Y0.6272 
G01 X3.1417 Y0.6220 
G01 X3.1370 Y0.6173 
G01 X3.1318 Y0.6135 
G01 X3.1259 Y0.6105 
G01 X3.1197 Y0.6085 
G01 X3.1133 Y0.6075 
G01 X3.1067 Y0.6075 
G01 X3.1003 Y0.6085 
G01 X3.0941 Y0.6105 
G01 X3.0882 Y0.6135 
G01 X3.0830 Y0.6173 
G01 X3.0783 Y0.6220 
G00 Z0.1000 
G00 X3.0783 Y0.7220 
G01 Z-0.0070 F10.00 
G01 X3.0745 Y0.7272 F20.00 
G01 X3.0715 Y0.7331 
G01 X3.0695 Y0.7393 
G01 X3.0685 Y0.7457 
G01 X3.0685 Y0.7523 
G01 X3.0695 Y0.7587 
G01 X3.0715 Y0.7649 
G01 X3.0745 Y0.7708 
G01 X3.0783 Y0.7760 
G01 X3.0830 Y0.7807 
G01 X3.0882 Y0.7845 
G01 X3.0941 Y0.7875 
G01 X3.1003 Y0.7895 
G01 X3.1067 Y0.7905 
G01 X3.1133 Y0.7905 
G01 X3.1197 Y0.7895 
G01 X3.1259 Y0.7875 
G01 X3.1318 Y0.7845 
G01 X3.1370 Y0.7807 
G01 X3.1417 Y0.7760 
G01 X3.1455 Y0.7708 
G01 X3.1485 Y0.7649 
G01 X3.1505 Y0.7587 
G01 X3.1515 Y0.7523 
G01 X3.1515 Y0.7457 
G01 X3.1505 Y0.7393 
G01 X3.1485 Y0.7331 
G01 X3.1455 Y0.7272 
G01 X3.1417 Y0.7220 
G01 X3.1370 Y0.7173 
G01 X3.1318 Y0.7135 
G01 X3.1259 Y0.7105 
G01 X3.1197 Y0.7085 
G01 X3.1133 Y0.7075 
G01 X3.1067 Y0.7075 
G01 X3.1003 Y0.7085 
G01 X3.0941 Y0.7105 
G01 X3.0882 Y0.7135 
G01 X3.0830 Y0.7173 
G01 X3.0783 Y0.7220 
G00 Z0.1000 
G00 X3.0783 Y0.8220 
G01 Z-0.0070 F10.00 
G01 X3.0745 Y0.8272 F20.00 
G01 X3.0715 Y0.8331 
G01 X3.0695 Y0.8393 
G01 X3.0685 Y0.8457 
G01 X3.0685 Y0.8523 
G01 X3.0695 Y0.8587 
G01 X3.0715 Y0.8649 
G01 X3.0745 Y0.8708 
G01 X3.0783 Y0.8760 
G01 X3.0830 Y0.8807 
G01 X3.0882 Y0.8845 
G01 X3.0941 Y0.8875 
G01 X3.1003 Y0.8895 
G01 X3.1067 Y0.8905 
G01 X3.1133 Y0.8905 
G01 X3.1197 Y0.8895 
G01 X3.1259 Y0.8875 
G01 X3.1318 Y0.8845 
G01 X3.1370 Y0.8807 
G01 X3.1417 Y0.8760 
G01 X3.1455 Y0.8708 
G01 X3.1485 Y0.8649 
G01 X3.1505 Y0.8587 
G01 X3.1515 Y0.8523 
G01 X3.1515 Y0.8457 
G01 X3.1505 Y0.8393 
G01 X3.1485 Y0.8331 
G01 X3.1455 Y0.8272 
G01 X3.1417 Y0.8220 
G01 X3.1370 Y0.8173 
G01 X3.1318 Y0.8135 
G01 X3.1259 Y0.8105 
G01 X3.1197 Y0.8085 
G01 X3.1133 Y0.8075 
G01 X3.1067 Y0.8075 
G01 X3.1003 Y0.8085 
G01 X3.0941 Y0.8105 
G01 X3.0882 Y0.8135 
G01 X3.0830 Y0.8173 
G01 X3.0783 Y0.8220 
G00 Z0.1000 
G00 X3.0783 Y0.9220 
G01 Z-0.0070 F10.00 
G01 X3.0745 Y0.9272 F20.00 
G01 X3.0715 Y0.9331 
G01 X3.0695 Y0.9393 
G01 X3.0685 Y0.9457 
G01 X3.0685 Y0.9523 
G01 X3.0695 Y0.9587 
G01 X3.0715 Y0.9649 
G01 X3.0745 Y0.9708 
G01 X3.0783 Y0.9760 
G01 X3.0830 Y0.9807 
G01 X3.0882 Y0.9845 
G01 X3.0941 Y0.9875 
G01 X3.1003 Y0.9895 
G01 X3.1067 Y0.9905 
G01 X3.1133 Y0.9905 
G01 X3.1197 Y0.9895 
G01 X3.1259 Y0.9875 
G01 X3.1318 Y0.9845 
G01 X3.1370 Y0.9807 
G01 X3.1417 Y0.9760 
G01 X3.1455 Y0.9708 
G01 X3.1485 Y0.9649 
G01 X3.1505 Y0.9587 
G01 X3.1515 Y0.9523 
G01 X3.1515 Y0.9457 
G01 X3.1505 Y0.9393 
G01 X3.1485 Y0.9331 
G01 X3.1455 Y0.9272 
G01 X3.1417 Y0.9220 
G01 X3.1370 Y0.9173 
G01 X3.1318 Y0.9135 
G01 X3.1259 Y0.9105 
G01 X3.1197 Y0.9085 
G01 X3.1133 Y0.9075 
G01 X3.1067 Y0.9075 
G01 X3.1003 Y0.9085 
G01 X3.0941 Y0.9105 
G01 X3.0882 Y0.9135 
G01 X3.0830 Y0.9173 
G01 X3.0783 Y0.9220 
G00 Z0.1000 
G00 X3.0783 Y1.0220 
G01 Z-0.0070 F10.00 
G01 X3.0745 Y1.0272 F20.00 
G01 X3.0715 Y1.0331 
G01 X3.0695 Y1.0393 
G01 X3.0685 Y1.0457 
G01 X3.0685 Y1.0523 
G01 X3.0695 Y1.0587 
G01 X3.0715 Y1.0649 
G01 X3.0745 Y1.0708 
G01 X3.0783 Y1.0760 
G01 X3.0830 Y1.0807 
G01 X3.0882 Y1.0845 
G01 X3.0941 Y1.0875 
G01 X3.1003 Y1.0895 
G01 X3.1067 Y1.0905 
G01 X3.1133 Y1.0905 
G01 X3.1197 Y1.0895 
G01 X3.1259 Y1.0875 
G01 X3.1318 Y1.0845 
G01 X3.1370 Y1.0807 
G01 X3.1417 Y1.0760 
G01 X3.1455 Y1.0708 
G01 X3.1485 Y1.0649 
G01 X3.1505 Y1.0587 
G01 X3.1515 Y1.0523 
G01 X3.1515 Y1.0457 
G01 X3.1505 Y1.0393 
G01 X3.1485 Y1.0331 
G01 X3.1455 Y1.0272 
G01 X3.1417 Y1.0220 
G01 X3.1370 Y1.0173 
G01 X3.1318 Y1.0135 
G01 X3.1259 Y1.0105 
G01 X3.1197 Y1.0085 
G01 X3.1133 Y1.0075 
G01 X3.1067 Y1.0075 
G01 X3.1003 Y1.0085 
G01 X3.0941 Y1.0105 
G01 X3.0882 Y1.0135 
G01 X3.0830 Y1.0173 
G01 X3.0783 Y1.0220 
G00 Z0.1000 
G00 X3.0783 Y1.1220 
G01 Z-0.0070 F10.00 
G01 X3.0745 Y1.1272 F20.00 
G01 X3.0715 Y1.1331 
G01 X3.0695 Y1.1393 
G01 X3.0685 Y1.1457 
G01 X3.0685 Y1.1523 
G01 X3.0695 Y1.1587 
G01 X3.0715 Y1.1649 
G01 X3.0745 Y1.1708 
G01 X3.0783 Y1.1760 
G01 X3.0830 Y1.1807 
G01 X3.0882 Y1.1845 
G01 X3.0941 Y1.1875 
G01 X3.1003 Y1.1895 
G01 X3.1067 Y1.1905 
G01 X3.1133 Y1.1905 
G01 X3.1197 Y1.1895 
G01 X3.1259 Y1.1875 
G01 X3.1318 Y1.1845 
G01 X3.1370 Y1.1807 
G01 X3.1417 Y1.1760 
G01 X3.1455 Y1.1708 
G01 X3.1485 Y1.1649 
G01 X3.1505 Y1.1587 
G01 X3.1515 Y1.1523 
G01 X3.1515 Y1.1457 
G01 X3.1505 Y1.1393 
G01 X3.1485 Y1.1331 
G01 X3.1455 Y1.1272 
G01 X3.1417 Y1.1220 
G01 X3.1370 Y1.1173 
G01 X3.1318 Y1.1135 
G01 X3.1259 Y1.1105 
G01 X3.1197 Y1.1085 
G01 X3.1133 Y1.1075 
G01 X3.1067 Y1.1075 
G01 X3.1003 Y1.1085 
G01 X3.0941 Y1.1105 
G01 X3.0882 Y1.1135 
G01 X3.0830 Y1.1173 
G01 X3.0783 Y1.1220 
G00 Z0.1000 
G00 X3.0783 Y1.2220 
G01 Z-0.0070 F10.00 
G01 X3.0745 Y1.2272 F20.00 
G01 X3.0715 Y1.2331 
G01 X3.0695 Y1.2393 
G01 X3.0685 Y1.2457 
G01 X3.0685 Y1.2523 
G01 X3.0695 Y1.2587 
G01 X3.0715 Y1.2649 
G01 X3.0745 Y1.2708 
G01 X3.0783 Y1.2760 
G01 X3.0830 Y1.2807 
G01 X3.0882 Y1.2845 
G01 X3.0941 Y1.2875 
G01 X3.1003 Y1.2895 
G01 X3.1067 Y1.2905 
G01 X3.1133 Y1.2905 
G01 X3.1197 Y1.2895 
G01 X3.1259 Y1.2875 
G01 X3.1318 Y1.2845 
G01 X3.1370 Y1.2807 
G01 X3.1417 Y1.2760 
G01 X3.1455 Y1.2708 
G01 X3.1485 Y1.2649 
G01 X3.1505 Y1.2587 
G01 X3.1515 Y1.2523 
G01 X3.1515 Y1.2457 
G01 X3.1505 Y1.2393 
G01 X3.1485 Y1.2331 
G01 X3.1455 Y1.2272 
G01 X3.1417 Y1.2220 
G01 X3.1370 Y1.2173 
G01 X3.1318 Y1.2135 
G01 X3.1259 Y1.2105 
G01 X3.1197 Y1.2085 
G01 X3.1133 Y1.2075 
G01 X3.1067 Y1.2075 
G01 X3.1003 Y1.2085 
G01 X3.0941 Y1.2105 
G01 X3.0882 Y1.2135 
G01 X3.0830 Y1.2173 
G01 X3.0783 Y1.2220 
G00 Z0.1000 
G00 X3.0783 Y1.3220 
G01 Z-0.0070 F10.00 
G01 X3.0745 Y1.3272 F20.00 
G01 X3.0715 Y1.3331 
G01 X3.0695 Y1.3393 
G01 X3.0685 Y1.3457 
G01 X3.0685 Y1.3523 
G01 X3.0695 Y1.3587 
G01 X3.0715 Y1.3649 
G01 X3.0745 Y1.3708 
G01 X3.0783 Y1.3760 
G01 X3.0830 Y1.3807 
G01 X3.0882 Y1.3845 
G01 X3.0941 Y1.3875 
G01 X3.1003 Y1.3895 
G01 X3.1067 Y1.3905 
G01 X3.1133 Y1.3905 
G01 X3.1197 Y1.3895 
G01 X3.1259 Y1.3875 
G01 X3.1318 Y1.3845 
G01 X3.1370 Y1.3807 
G01 X3.1417 Y1.3760 
G01 X3.1455 Y1.3708 
G01 X3.1485 Y1.3649 
G01 X3.1505 Y1.3587 
G01 X3.1515 Y1.3523 
G01 X3.1515 Y1.3457 
G01 X3.1505 Y1.3393 
G01 X3.1485 Y1.3331 
G01 X3.1455 Y1.3272 
G01 X3.1417 Y1.3220 
G01 X3.1370 Y1.3173 
G01 X3.1318 Y1.3135 
G01 X3.1259 Y1.3105 
G01 X3.1197 Y1.3085 
G01 X3.1133 Y1.3075 
G01 X3.1067 Y1.3075 
G01 X3.1003 Y1.3085 
G01 X3.0941 Y1.3105 
G01 X3.0882 Y1.3135 
G01 X3.0830 Y1.3173 
G01 X3.0783 Y1.3220 
G00 Z0.1000 
G00 X3.0783 Y1.4220 
G01 Z-0.0070 F10.00 
G01 X3.0745 Y1.4272 F20.00 
G01 X3.0715 Y1.4331 
G01 X3.0695 Y1.4393 
G01 X3.0685 Y1.4457 
G01 X3.0685 Y1.4523 
G01 X3.0695 Y1.4587 
G01 X3.0715 Y1.4649 
G01 X3.0745 Y1.4708 
G01 X3.0783 Y1.4760 
G01 X3.0830 Y1.4807 
G01 X3.0882 Y1.4845 
G01 X3.0941 Y1.4875 
G01 X3.1003 Y1.4895 
G01 X3.1067 Y1.4905 
G01 X3.1133 Y1.4905 
G01 X3.1197 Y1.4895 
G01 X3.1259 Y1.4875 
G01 X3.1318 Y1.4845 
G01 X3.1370 Y1.4807 
G01 X3.1417 Y1.4760 
G01 X3.1455 Y1.4708 
G01 X3.1485 Y1.4649 
G01 X3.1505 Y1.4587 
G01 X3.1515 Y1.4523 
G01 X3.1515 Y1.4457 
G01 X3.1505 Y1.4393 
G01 X3.1485 Y1.4331 
G01 X3.1455 Y1.4272 
G01 X3.1417 Y1.4220 
G01 X3.1370 Y1.4173 
G01 X3.1318 Y1.4135 
G01 X3.1259 Y1.4105 
G01 X3.1197 Y1.4085 
G01 X3.1133 Y1.4075 
G01 X3.1067 Y1.4075 
G01 X3.1003 Y1.4085 
G01 X3.0941 Y1.4105 
G01 X3.0882 Y1.4135 
G01 X3.0830 Y1.4173 
G01 X3.0783 Y1.4220 
G00 Z0.1000 
G00 X3.0783 Y1.5220 
G01 Z-0.0070 F10.00 
G01 X3.0745 Y1.5272 F20.00 
G01 X3.0715 Y1.5331 
G01 X3.0695 Y1.5393 
G01 X3.0685 Y1.5457 
G01 X3.0685 Y1.5523 
G01 X3.0695 Y1.5587 
G01 X3.0715 Y1.5649 
G01 X3.0745 Y1.5708 
G01 X3.0783 Y1.5760 
G01 X3.0830 Y1.5807 
G01 X3.0882 Y1.5845 
G01 X3.0941 Y1.5875 
G01 X3.1003 Y1.5895 
G01 X3.1067 Y1.5905 
G01 X3.1133 Y1.5905 
G01 X3.1197 Y1.5895 
G01 X3.1259 Y1.5875 
G01 X3.1318 Y1.5845 
G01 X3.1370 Y1.5807 
G01 X3.1417 Y1.5760 
G01 X3.1455 Y1.5708 
G01 X3.1485 Y1.5649 
G01 X3.1505 Y1.5587 
G01 X3.1515 Y1.5523 
G01 X3.1515 Y1.5457 
G01 X3.1505 Y1.5393 
G01 X3.1485 Y1.5331 
G01 X3.1455 Y1.5272 
G01 X3.1417 Y1.5220 
G01 X3.1370 Y1.5173 
G01 X3.1318 Y1.5135 
G01 X3.1259 Y1.5105 
G01 X3.1197 Y1.5085 
G01 X3.1133 Y1.5075 
G01 X3.1067 Y1.5075 
G01 X3.1003 Y1.5085 
G01 X3.0941 Y1.5105 
G01 X3.0882 Y1.5135 
G01 X3.0830 Y1.5173 
G01 X3.0783 Y1.5220 
G00 Z0.1000 
G00 X3.0783 Y1.6220 
G01 Z-0.0070 F10.00 
G01 X3.0745 Y1.6272 F20.00 
G01 X3.0715 Y1.6331 
G01 X3.0695 Y1.6393 
G01 X3.0685 Y1.6457 
G01 X3.0685 Y1.6523 
G01 X3.0695 Y1.6587 
G01 X3.0715 Y1.6649 
G01 X3.0745 Y1.6708 
G01 X3.0783 Y1.6760 
G01 X3.0830 Y1.6807 
G01 X3.0882 Y1.6845 
G01 X3.0941 Y1.6875 
G01 X3.1003 Y1.6895 
G01 X3.1067 Y1.6905 
G01 X3.1133 Y1.6905 
G01 X3.1197 Y1.6895 
G01 X3.1259 Y1.6875 
G01 X3.1318 Y1.6845 
G01 X3.1370 Y1.6807 
G01 X3.1417 Y1.6760 
G01 X3.1455 Y1.6708 
G01 X3.1485 Y1.6649 
G01 X3.1505 Y1.6587 
G01 X3.1515 Y1.6523 
G01 X3.1515 Y1.6457 
G01 X3.1505 Y1.6393 
G01 X3.1485 Y1.6331 
G01 X3.1455 Y1.6272 
G01 X3.1417 Y1.6220 
G01 X3.1370 Y1.6173 
G01 X3.1318 Y1.6135 
G01 X3.1259 Y1.6105 
G01 X3.1197 Y1.6085 
G01 X3.1133 Y1.6075 
G01 X3.1067 Y1.6075 
G01 X3.1003 Y1.6085 
G01 X3.0941 Y1.6105 
G01 X3.0882 Y1.6135 
G01 X3.0830 Y1.6173 
G01 X3.0783 Y1.6220 
G00 Z0.1000 
G00 X3.0783 Y1.7220 
G01 Z-0.0070 F10.00 
G01 X3.0745 Y1.7272 F20.00 
G01 X3.0715 Y1.7331 
G01 X3.0695 Y1.7393 
G01 X3.0685 Y1.7457 
G01 X3.0685 Y1.7523 
G01 X3.0695 Y1.7587 
G01 X3.0715 Y1.7649 
G01 X3.0745 Y1.7708 
G01 X3.0783 Y1.7760 
G01 X3.0830 Y1.7807 
G01 X3.0882 Y1.7845 
G01 X3.0941 Y1.7875 
G01 X3.1003 Y1.7895 
G01 X3.1067 Y1.7905 
G01 X3.1133 Y1.7905 
G01 X3.1197 Y1.7895 
G01 X3.1259 Y1.7875 
G01 X3.1318 Y1.7845 
G01 X3.1370 Y1.7807 
G01 X3.1417 Y1.7760 
G01 X3.1455 Y1.7708 
G01 X3.1485 Y1.7649 
G01 X3.1505 Y1.7587 
G01 X3.1515 Y1.7523 
G01 X3.1515 Y1.7457 
G01 X3.1505 Y1.7393 
G01 X3.1485 Y1.7331 
G01 X3.1455 Y1.7272 
G01 X3.1417 Y1.7220 
G01 X3.1370 Y1.7173 
G01 X3.1318 Y1.7135 
G01 X3.1259 Y1.7105 
G01 X3.1197 Y1.7085 
G01 X3.1133 Y1.7075 
G01 X3.1067 Y1.7075 
G01 X3.1003 Y1.7085 
G01 X3.0941 Y1.7105 
G01 X3.0882 Y1.7135 
G01 X3.0830 Y1.7173 
G01 X3.0783 Y1.7220 
G00 Z0.1000 
G00 X3.0783 Y1.8220 
G01 Z-0.0070 F10.00 
G01 X3.0745 Y1.8272 F20.00 
G01 X3.0715 Y1.8331 
G01 X3.0695 Y1.8393 
G01 X3.0685 Y1.8457 
G01 X3.0685 Y1.8523 
G01 X3.0695 Y1.8587 
G01 X3.0715 Y1.8649 
G01 X3.0745 Y1.8708 
G01 X3.0783 Y1.8760 
G01 X3.0830 Y1.8807 
G01 X3.0882 Y1.8845 
G01 X3.0941 Y1.8875 
G01 X3.1003 Y1.8895 
G01 X3.1067 Y1.8905 
G01 X3.1133 Y1.8905 
G01 X3.1197 Y1.8895 
G01 X3.1259 Y1.8875 
G01 X3.1318 Y1.8845 
G01 X3.1370 Y1.8807 
G01 X3.1417 Y1.8760 
G01 X3.1455 Y1.8708 
G01 X3.1485 Y1.8649 
G01 X3.1505 Y1.8587 
G01 X3.1515 Y1.8523 
G01 X3.1515 Y1.8457 
G01 X3.1505 Y1.8393 
G01 X3.1485 Y1.8331 
G01 X3.1455 Y1.8272 
G01 X3.1417 Y1.8220 
G01 X3.1370 Y1.8173 
G01 X3.1318 Y1.8135 
G01 X3.1259 Y1.8105 
G01 X3.1197 Y1.8085 
G01 X3.1133 Y1.8075 
G01 X3.1067 Y1.8075 
G01 X3.1003 Y1.8085 
G01 X3.0941 Y1.8105 
G01 X3.0882 Y1.8135 
G01 X3.0830 Y1.8173 
G01 X3.0783 Y1.8220 
G00 Z0.1000 
G00 X3.0783 Y1.9220 
G01 Z-0.0070 F10.00 
G01 X3.0745 Y1.9272 F20.00 
G01 X3.0715 Y1.9331 
G01 X3.0695 Y1.9393 
G01 X3.0685 Y1.9457 
G01 X3.0685 Y1.9523 
G01 X3.0695 Y1.9587 
G01 X3.0715 Y1.9649 
G01 X3.0745 Y1.9708 
G01 X3.0783 Y1.9760 
G01 X3.0830 Y1.9807 
G01 X3.0882 Y1.9845 
G01 X3.0941 Y1.9875 
G01 X3.1003 Y1.9895 
G01 X3.1067 Y1.9905 
G01 X3.1133 Y1.9905 
G01 X3.1197 Y1.9895 
G01 X3.1259 Y1.9875 
G01 X3.1318 Y1.9845 
G01 X3.1370 Y1.9807 
G01 X3.1417 Y1.9760 
G01 X3.1455 Y1.9708 
G01 X3.1485 Y1.9649 
G01 X3.1505 Y1.9587 
G01 X3.1515 Y1.9523 
G01 X3.1515 Y1.9457 
G01 X3.1505 Y1.9393 
G01 X3.1485 Y1.9331 
G01 X3.1455 Y1.9272 
G01 X3.1417 Y1.9220 
G01 X3.1370 Y1.9173 
G01 X3.1318 Y1.9135 
G01 X3.1259 Y1.9105 
G01 X3.1197 Y1.9085 
G01 X3.1133 Y1.9075 
G01 X3.1067 Y1.9075 
G01 X3.1003 Y1.9085 
G01 X3.0941 Y1.9105 
G01 X3.0882 Y1.9135 
G01 X3.0830 Y1.9173 
G01 X3.0783 Y1.9220 
G00 Z0.1000 
G00 X3.0783 Y2.0220 
G01 Z-0.0070 F10.00 
G01 X3.0745 Y2.0272 F20.00 
G01 X3.0715 Y2.0331 
G01 X3.0695 Y2.0393 
G01 X3.0685 Y2.0457 
G01 X3.0685 Y2.0523 
G01 X3.0695 Y2.0587 
G01 X3.0715 Y2.0649 
G01 X3.0745 Y2.0708 
G01 X3.0783 Y2.0760 
G01 X3.0830 Y2.0807 
G01 X3.0882 Y2.0845 
G01 X3.0941 Y2.0875 
G01 X3.1003 Y2.0895 
G01 X3.1067 Y2.0905 
G01 X3.1133 Y2.0905 
G01 X3.1197 Y2.0895 
G01 X3.1259 Y2.0875 
G01 X3.1318 Y2.0845 
G01 X3.1370 Y2.0807 
G01 X3.1417 Y2.0760 
G01 X3.1455 Y2.0708 
G01 X3.1485 Y2.0649 
G01 X3.1505 Y2.0587 
G01 X3.1515 Y2.0523 
G01 X3.1515 Y2.0457 
G01 X3.1505 Y2.0393 
G01 X3.1485 Y2.0331 
G01 X3.1455 Y2.0272 
G01 X3.1417 Y2.0220 
G01 X3.1370 Y2.0173 
G01 X3.1318 Y2.0135 
G01 X3.1259 Y2.0105 
G01 X3.1197 Y2.0085 
G01 X3.1133 Y2.0075 
G01 X3.1067 Y2.0075 
G01 X3.1003 Y2.0085 
G01 X3.0941 Y2.0105 
G01 X3.0882 Y2.0135 
G01 X3.0830 Y2.0173 
G01 X3.0783 Y2.0220 
G00 Z0.1000 
G00 X3.0783 Y2.1220 
G01 Z-0.0070 F10.00 
G01 X3.0745 Y2.1272 F20.00 
G01 X3.0715 Y2.1331 
G01 X3.0695 Y2.1393 
G01 X3.0685 Y2.1457 
G01 X3.0685 Y2.1523 
G01 X3.0695 Y2.1587 
G01 X3.0715 Y2.1649 
G01 X3.0745 Y2.1708 
G01 X3.0783 Y2.1760 
G01 X3.0830 Y2.1807 
G01 X3.0882 Y2.1845 
G01 X3.0941 Y2.1875 
G01 X3.1003 Y2.1895 
G01 X3.1067 Y2.1905 
G01 X3.1133 Y2.1905 
G01 X3.1197 Y2.1895 
G01 X3.1259 Y2.1875 
G01 X3.1318 Y2.1845 
G01 X3.1370 Y2.1807 
G01 X3.1417 Y2.1760 
G01 X3.1455 Y2.1708 
G01 X3.1485 Y2.1649 
G01 X3.1505 Y2.1587 
G01 X3.1515 Y2.1523 
G01 X3.1515 Y2.1457 
G01 X3.1505 Y2.1393 
G01 X3.1485 Y2.1331 
G01 X3.1455 Y2.1272 
G01 X3.1417 Y2.1220 
G01 X3.1370 Y2.1173 
G01 X3.1318 Y2.1135 
G01 X3.1259 Y2.1105 
G01 X3.1197 Y2.1085 
G01 X3.1133 Y2.1075 
G01 X3.1067 Y2.1075 
G01 X3.1003 Y2.1085 
G01 X3.0941 Y2.1105 
G01 X3.0882 Y2.1135 
G01 X3.0830 Y2.1173 
G01 X3.0783 Y2.1220 
G00 Z0.1000 
G00 X3.1783 Y2.1230 
G01 Z-0.0070 F10.00 
G01 X3.1745 Y2.1282 F20.00 
G01 X3.1715 Y2.1341 
G01 X3.1695 Y2.1403 
G01 X3.1685 Y2.1467 
G01 X3.1685 Y2.1533 
G01 X3.1695 Y2.1597 
G01 X3.1715 Y2.1659 
G01 X3.1745 Y2.1718 
G01 X3.1783 Y2.1770 
G01 X3.1830 Y2.1817 
G01 X3.1882 Y2.1855 
G01 X3.1941 Y2.1885 
G01 X3.2003 Y2.1905 
G01 X3.2067 Y2.1915 
G01 X3.2133 Y2.1915 
G01 X3.2197 Y2.1905 
G01 X3.2259 Y2.1885 
G01 X3.2318 Y2.1855 
G01 X3.2370 Y2.1817 
G01 X3.2417 Y2.1770 
G01 X3.2455 Y2.1718 
G01 X3.2485 Y2.1659 
G01 X3.2505 Y2.1597 
G01 X3.2515 Y2.1533 
G01 X3.2515 Y2.1467 
G01 X3.2505 Y2.1403 
G01 X3.2485 Y2.1341 
G01 X3.2455 Y2.1282 
G01 X3.2417 Y2.1230 
G01 X3.2370 Y2.1183 
G01 X3.2318 Y2.1145 
G01 X3.2259 Y2.1115 
G01 X3.2197 Y2.1095 
G01 X3.2133 Y2.1085 
G01 X3.2067 Y2.1085 
G01 X3.2003 Y2.1095 
G01 X3.1941 Y2.1115 
G01 X3.1882 Y2.1145 
G01 X3.1830 Y2.1183 
G01 X3.1783 Y2.1230 
G00 Z0.1000 
G00 X3.1830 Y2.0817 
G01 Z-0.0070 F10.00 
G01 X3.1882 Y2.0855 F20.00 
G01 X3.1941 Y2.0885 
G01 X3.2003 Y2.0905 
G01 X3.2067 Y2.0915 
G01 X3.2133 Y2.0915 
G01 X3.2197 Y2.0905 
G01 X3.2259 Y2.0885 
G01 X3.2318 Y2.0855 
G01 X3.2370 Y2.0817 
G01 X3.2417 Y2.0770 
G01 X3.2455 Y2.0718 
G01 X3.2485 Y2.0659 
G01 X3.2505 Y2.0597 
G01 X3.2515 Y2.0533 
G01 X3.2515 Y2.0467 
G01 X3.2505 Y2.0403 
G01 X3.2485 Y2.0341 
G01 X3.2455 Y2.0282 
G01 X3.2417 Y2.0230 
G01 X3.2370 Y2.0183 
G01 X3.2318 Y2.0145 
G01 X3.2259 Y2.0115 
G01 X3.2197 Y2.0095 
G01 X3.2133 Y2.0085 
G01 X3.2067 Y2.0085 
G01 X3.2003 Y2.0095 
G01 X3.1941 Y2.0115 
G01 X3.1882 Y2.0145 
G01 X3.1830 Y2.0183 
G01 X3.1783 Y2.0230 
G01 X3.1745 Y2.0282 
G01 X3.1715 Y2.0341 
G01 X3.1695 Y2.0403 
G01 X3.1685 Y2.0467 
G01 X3.1685 Y2.0533 
G01 X3.1695 Y2.0597 
G01 X3.1715 Y2.0659 
G01 X3.1745 Y2.0718 
G01 X3.1783 Y2.0770 
G01 X3.1830 Y2.0817 
G00 Z0.1000 
G00 X3.1830 Y1.9817 
G01 Z-0.0070 F10.00 
G01 X3.1882 Y1.9855 F20.00 
G01 X3.1941 Y1.9885 
G01 X3.2003 Y1.9905 
G01 X3.2067 Y1.9915 
G01 X3.2133 Y1.9915 
G01 X3.2197 Y1.9905 
G01 X3.2259 Y1.9885 
G01 X3.2318 Y1.9855 
G01 X3.2370 Y1.9817 
G01 X3.2417 Y1.9770 
G01 X3.2455 Y1.9718 
G01 X3.2485 Y1.9659 
G01 X3.2505 Y1.9597 
G01 X3.2515 Y1.9533 
G01 X3.2515 Y1.9467 
G01 X3.2505 Y1.9403 
G01 X3.2485 Y1.9341 
G01 X3.2455 Y1.9282 
G01 X3.2417 Y1.9230 
G01 X3.2370 Y1.9183 
G01 X3.2318 Y1.9145 
G01 X3.2259 Y1.9115 
G01 X3.2197 Y1.9095 
G01 X3.2133 Y1.9085 
G01 X3.2067 Y1.9085 
G01 X3.2003 Y1.9095 
G01 X3.1941 Y1.9115 
G01 X3.1882 Y1.9145 
G01 X3.1830 Y1.9183 
G01 X3.1783 Y1.9230 
G01 X3.1745 Y1.9282 
G01 X3.1715 Y1.9341 
G01 X3.1695 Y1.9403 
G01 X3.1685 Y1.9467 
G01 X3.1685 Y1.9533 
G01 X3.1695 Y1.9597 
G01 X3.1715 Y1.9659 
G01 X3.1745 Y1.9718 
G01 X3.1783 Y1.9770 
G01 X3.1830 Y1.9817 
G00 Z0.1000 
G00 X3.1830 Y1.8817 
G01 Z-0.0070 F10.00 
G01 X3.1882 Y1.8855 F20.00 
G01 X3.1941 Y1.8885 
G01 X3.2003 Y1.8905 
G01 X3.2067 Y1.8915 
G01 X3.2133 Y1.8915 
G01 X3.2197 Y1.8905 
G01 X3.2259 Y1.8885 
G01 X3.2318 Y1.8855 
G01 X3.2370 Y1.8817 
G01 X3.2417 Y1.8770 
G01 X3.2455 Y1.8718 
G01 X3.2485 Y1.8659 
G01 X3.2505 Y1.8597 
G01 X3.2515 Y1.8533 
G01 X3.2515 Y1.8467 
G01 X3.2505 Y1.8403 
G01 X3.2485 Y1.8341 
G01 X3.2455 Y1.8282 
G01 X3.2417 Y1.8230 
G01 X3.2370 Y1.8183 
G01 X3.2318 Y1.8145 
G01 X3.2259 Y1.8115 
G01 X3.2197 Y1.8095 
G01 X3.2133 Y1.8085 
G01 X3.2067 Y1.8085 
G01 X3.2003 Y1.8095 
G01 X3.1941 Y1.8115 
G01 X3.1882 Y1.8145 
G01 X3.1830 Y1.8183 
G01 X3.1783 Y1.8230 
G01 X3.1745 Y1.8282 
G01 X3.1715 Y1.8341 
G01 X3.1695 Y1.8403 
G01 X3.1685 Y1.8467 
G01 X3.1685 Y1.8533 
G01 X3.1695 Y1.8597 
G01 X3.1715 Y1.8659 
G01 X3.1745 Y1.8718 
G01 X3.1783 Y1.8770 
G01 X3.1830 Y1.8817 
G00 Z0.1000 
G00 X3.1830 Y1.7817 
G01 Z-0.0070 F10.00 
G01 X3.1882 Y1.7855 F20.00 
G01 X3.1941 Y1.7885 
G01 X3.2003 Y1.7905 
G01 X3.2067 Y1.7915 
G01 X3.2133 Y1.7915 
G01 X3.2197 Y1.7905 
G01 X3.2259 Y1.7885 
G01 X3.2318 Y1.7855 
G01 X3.2370 Y1.7817 
G01 X3.2417 Y1.7770 
G01 X3.2455 Y1.7718 
G01 X3.2485 Y1.7659 
G01 X3.2505 Y1.7597 
G01 X3.2515 Y1.7533 
G01 X3.2515 Y1.7467 
G01 X3.2505 Y1.7403 
G01 X3.2485 Y1.7341 
G01 X3.2455 Y1.7282 
G01 X3.2417 Y1.7230 
G01 X3.2370 Y1.7183 
G01 X3.2318 Y1.7145 
G01 X3.2259 Y1.7115 
G01 X3.2197 Y1.7095 
G01 X3.2133 Y1.7085 
G01 X3.2067 Y1.7085 
G01 X3.2003 Y1.7095 
G01 X3.1941 Y1.7115 
G01 X3.1882 Y1.7145 
G01 X3.1830 Y1.7183 
G01 X3.1783 Y1.7230 
G01 X3.1745 Y1.7282 
G01 X3.1715 Y1.7341 
G01 X3.1695 Y1.7403 
G01 X3.1685 Y1.7467 
G01 X3.1685 Y1.7533 
G01 X3.1695 Y1.7597 
G01 X3.1715 Y1.7659 
G01 X3.1745 Y1.7718 
G01 X3.1783 Y1.7770 
G01 X3.1830 Y1.7817 
G00 Z0.1000 
G00 X3.1830 Y1.6817 
G01 Z-0.0070 F10.00 
G01 X3.1882 Y1.6855 F20.00 
G01 X3.1941 Y1.6885 
G01 X3.2003 Y1.6905 
G01 X3.2067 Y1.6915 
G01 X3.2133 Y1.6915 
G01 X3.2197 Y1.6905 
G01 X3.2259 Y1.6885 
G01 X3.2318 Y1.6855 
G01 X3.2370 Y1.6817 
G01 X3.2417 Y1.6770 
G01 X3.2455 Y1.6718 
G01 X3.2485 Y1.6659 
G01 X3.2505 Y1.6597 
G01 X3.2515 Y1.6533 
G01 X3.2515 Y1.6467 
G01 X3.2505 Y1.6403 
G01 X3.2485 Y1.6341 
G01 X3.2455 Y1.6282 
G01 X3.2417 Y1.6230 
G01 X3.2370 Y1.6183 
G01 X3.2318 Y1.6145 
G01 X3.2259 Y1.6115 
G01 X3.2197 Y1.6095 
G01 X3.2133 Y1.6085 
G01 X3.2067 Y1.6085 
G01 X3.2003 Y1.6095 
G01 X3.1941 Y1.6115 
G01 X3.1882 Y1.6145 
G01 X3.1830 Y1.6183 
G01 X3.1783 Y1.6230 
G01 X3.1745 Y1.6282 
G01 X3.1715 Y1.6341 
G01 X3.1695 Y1.6403 
G01 X3.1685 Y1.6467 
G01 X3.1685 Y1.6533 
G01 X3.1695 Y1.6597 
G01 X3.1715 Y1.6659 
G01 X3.1745 Y1.6718 
G01 X3.1783 Y1.6770 
G01 X3.1830 Y1.6817 
G00 Z0.1000 
G00 X3.1830 Y1.5817 
G01 Z-0.0070 F10.00 
G01 X3.1882 Y1.5855 F20.00 
G01 X3.1941 Y1.5885 
G01 X3.2003 Y1.5905 
G01 X3.2067 Y1.5915 
G01 X3.2133 Y1.5915 
G01 X3.2197 Y1.5905 
G01 X3.2259 Y1.5885 
G01 X3.2318 Y1.5855 
G01 X3.2370 Y1.5817 
G01 X3.2417 Y1.5770 
G01 X3.2455 Y1.5718 
G01 X3.2485 Y1.5659 
G01 X3.2505 Y1.5597 
G01 X3.2515 Y1.5533 
G01 X3.2515 Y1.5467 
G01 X3.2505 Y1.5403 
G01 X3.2485 Y1.5341 
G01 X3.2455 Y1.5282 
G01 X3.2417 Y1.5230 
G01 X3.2370 Y1.5183 
G01 X3.2318 Y1.5145 
G01 X3.2259 Y1.5115 
G01 X3.2197 Y1.5095 
G01 X3.2133 Y1.5085 
G01 X3.2067 Y1.5085 
G01 X3.2003 Y1.5095 
G01 X3.1941 Y1.5115 
G01 X3.1882 Y1.5145 
G01 X3.1830 Y1.5183 
G01 X3.1783 Y1.5230 
G01 X3.1745 Y1.5282 
G01 X3.1715 Y1.5341 
G01 X3.1695 Y1.5403 
G01 X3.1685 Y1.5467 
G01 X3.1685 Y1.5533 
G01 X3.1695 Y1.5597 
G01 X3.1715 Y1.5659 
G01 X3.1745 Y1.5718 
G01 X3.1783 Y1.5770 
G01 X3.1830 Y1.5817 
G00 Z0.1000 
G00 X3.1830 Y1.4817 
G01 Z-0.0070 F10.00 
G01 X3.1882 Y1.4855 F20.00 
G01 X3.1941 Y1.4885 
G01 X3.2003 Y1.4905 
G01 X3.2067 Y1.4915 
G01 X3.2133 Y1.4915 
G01 X3.2197 Y1.4905 
G01 X3.2259 Y1.4885 
G01 X3.2318 Y1.4855 
G01 X3.2370 Y1.4817 
G01 X3.2417 Y1.4770 
G01 X3.2455 Y1.4718 
G01 X3.2485 Y1.4659 
G01 X3.2505 Y1.4597 
G01 X3.2515 Y1.4533 
G01 X3.2515 Y1.4467 
G01 X3.2505 Y1.4403 
G01 X3.2485 Y1.4341 
G01 X3.2455 Y1.4282 
G01 X3.2417 Y1.4230 
G01 X3.2370 Y1.4183 
G01 X3.2318 Y1.4145 
G01 X3.2259 Y1.4115 
G01 X3.2197 Y1.4095 
G01 X3.2133 Y1.4085 
G01 X3.2067 Y1.4085 
G01 X3.2003 Y1.4095 
G01 X3.1941 Y1.4115 
G01 X3.1882 Y1.4145 
G01 X3.1830 Y1.4183 
G01 X3.1783 Y1.4230 
G01 X3.1745 Y1.4282 
G01 X3.1715 Y1.4341 
G01 X3.1695 Y1.4403 
G01 X3.1685 Y1.4467 
G01 X3.1685 Y1.4533 
G01 X3.1695 Y1.4597 
G01 X3.1715 Y1.4659 
G01 X3.1745 Y1.4718 
G01 X3.1783 Y1.4770 
G01 X3.1830 Y1.4817 
G00 Z0.1000 
G00 X3.1830 Y1.3817 
G01 Z-0.0070 F10.00 
G01 X3.1882 Y1.3855 F20.00 
G01 X3.1941 Y1.3885 
G01 X3.2003 Y1.3905 
G01 X3.2067 Y1.3915 
G01 X3.2133 Y1.3915 
G01 X3.2197 Y1.3905 
G01 X3.2259 Y1.3885 
G01 X3.2318 Y1.3855 
G01 X3.2370 Y1.3817 
G01 X3.2417 Y1.3770 
G01 X3.2455 Y1.3718 
G01 X3.2485 Y1.3659 
G01 X3.2505 Y1.3597 
G01 X3.2515 Y1.3533 
G01 X3.2515 Y1.3467 
G01 X3.2505 Y1.3403 
G01 X3.2485 Y1.3341 
G01 X3.2455 Y1.3282 
G01 X3.2417 Y1.3230 
G01 X3.2370 Y1.3183 
G01 X3.2318 Y1.3145 
G01 X3.2259 Y1.3115 
G01 X3.2197 Y1.3095 
G01 X3.2133 Y1.3085 
G01 X3.2067 Y1.3085 
G01 X3.2003 Y1.3095 
G01 X3.1941 Y1.3115 
G01 X3.1882 Y1.3145 
G01 X3.1830 Y1.3183 
G01 X3.1783 Y1.3230 
G01 X3.1745 Y1.3282 
G01 X3.1715 Y1.3341 
G01 X3.1695 Y1.3403 
G01 X3.1685 Y1.3467 
G01 X3.1685 Y1.3533 
G01 X3.1695 Y1.3597 
G01 X3.1715 Y1.3659 
G01 X3.1745 Y1.3718 
G01 X3.1783 Y1.3770 
G01 X3.1830 Y1.3817 
G00 Z0.1000 
G00 X3.1830 Y1.2817 
G01 Z-0.0070 F10.00 
G01 X3.1882 Y1.2855 F20.00 
G01 X3.1941 Y1.2885 
G01 X3.2003 Y1.2905 
G01 X3.2067 Y1.2915 
G01 X3.2133 Y1.2915 
G01 X3.2197 Y1.2905 
G01 X3.2259 Y1.2885 
G01 X3.2318 Y1.2855 
G01 X3.2370 Y1.2817 
G01 X3.2417 Y1.2770 
G01 X3.2455 Y1.2718 
G01 X3.2485 Y1.2659 
G01 X3.2505 Y1.2597 
G01 X3.2515 Y1.2533 
G01 X3.2515 Y1.2467 
G01 X3.2505 Y1.2403 
G01 X3.2485 Y1.2341 
G01 X3.2455 Y1.2282 
G01 X3.2417 Y1.2230 
G01 X3.2370 Y1.2183 
G01 X3.2318 Y1.2145 
G01 X3.2259 Y1.2115 
G01 X3.2197 Y1.2095 
G01 X3.2133 Y1.2085 
G01 X3.2067 Y1.2085 
G01 X3.2003 Y1.2095 
G01 X3.1941 Y1.2115 
G01 X3.1882 Y1.2145 
G01 X3.1830 Y1.2183 
G01 X3.1783 Y1.2230 
G01 X3.1745 Y1.2282 
G01 X3.1715 Y1.2341 
G01 X3.1695 Y1.2403 
G01 X3.1685 Y1.2467 
G01 X3.1685 Y1.2533 
G01 X3.1695 Y1.2597 
G01 X3.1715 Y1.2659 
G01 X3.1745 Y1.2718 
G01 X3.1783 Y1.2770 
G01 X3.1830 Y1.2817 
G00 Z0.1000 
G00 X3.1830 Y1.1817 
G01 Z-0.0070 F10.00 
G01 X3.1882 Y1.1855 F20.00 
G01 X3.1941 Y1.1885 
G01 X3.2003 Y1.1905 
G01 X3.2067 Y1.1915 
G01 X3.2133 Y1.1915 
G01 X3.2197 Y1.1905 
G01 X3.2259 Y1.1885 
G01 X3.2318 Y1.1855 
G01 X3.2370 Y1.1817 
G01 X3.2417 Y1.1770 
G01 X3.2455 Y1.1718 
G01 X3.2485 Y1.1659 
G01 X3.2505 Y1.1597 
G01 X3.2515 Y1.1533 
G01 X3.2515 Y1.1467 
G01 X3.2505 Y1.1403 
G01 X3.2485 Y1.1341 
G01 X3.2455 Y1.1282 
G01 X3.2417 Y1.1230 
G01 X3.2370 Y1.1183 
G01 X3.2318 Y1.1145 
G01 X3.2259 Y1.1115 
G01 X3.2197 Y1.1095 
G01 X3.2133 Y1.1085 
G01 X3.2067 Y1.1085 
G01 X3.2003 Y1.1095 
G01 X3.1941 Y1.1115 
G01 X3.1882 Y1.1145 
G01 X3.1830 Y1.1183 
G01 X3.1783 Y1.1230 
G01 X3.1745 Y1.1282 
G01 X3.1715 Y1.1341 
G01 X3.1695 Y1.1403 
G01 X3.1685 Y1.1467 
G01 X3.1685 Y1.1533 
G01 X3.1695 Y1.1597 
G01 X3.1715 Y1.1659 
G01 X3.1745 Y1.1718 
G01 X3.1783 Y1.1770 
G01 X3.1830 Y1.1817 
G00 Z0.1000 
G00 X3.1830 Y1.0817 
G01 Z-0.0070 F10.00 
G01 X3.1882 Y1.0855 F20.00 
G01 X3.1941 Y1.0885 
G01 X3.2003 Y1.0905 
G01 X3.2067 Y1.0915 
G01 X3.2133 Y1.0915 
G01 X3.2197 Y1.0905 
G01 X3.2259 Y1.0885 
G01 X3.2318 Y1.0855 
G01 X3.2370 Y1.0817 
G01 X3.2417 Y1.0770 
G01 X3.2455 Y1.0718 
G01 X3.2485 Y1.0659 
G01 X3.2505 Y1.0597 
G01 X3.2515 Y1.0533 
G01 X3.2515 Y1.0467 
G01 X3.2505 Y1.0403 
G01 X3.2485 Y1.0341 
G01 X3.2455 Y1.0282 
G01 X3.2417 Y1.0230 
G01 X3.2370 Y1.0183 
G01 X3.2318 Y1.0145 
G01 X3.2259 Y1.0115 
G01 X3.2197 Y1.0095 
G01 X3.2133 Y1.0085 
G01 X3.2067 Y1.0085 
G01 X3.2003 Y1.0095 
G01 X3.1941 Y1.0115 
G01 X3.1882 Y1.0145 
G01 X3.1830 Y1.0183 
G01 X3.1783 Y1.0230 
G01 X3.1745 Y1.0282 
G01 X3.1715 Y1.0341 
G01 X3.1695 Y1.0403 
G01 X3.1685 Y1.0467 
G01 X3.1685 Y1.0533 
G01 X3.1695 Y1.0597 
G01 X3.1715 Y1.0659 
G01 X3.1745 Y1.0718 
G01 X3.1783 Y1.0770 
G01 X3.1830 Y1.0817 
G00 Z0.1000 
G00 X3.1830 Y0.9817 
G01 Z-0.0070 F10.00 
G01 X3.1882 Y0.9855 F20.00 
G01 X3.1941 Y0.9885 
G01 X3.2003 Y0.9905 
G01 X3.2067 Y0.9915 
G01 X3.2133 Y0.9915 
G01 X3.2197 Y0.9905 
G01 X3.2259 Y0.9885 
G01 X3.2318 Y0.9855 
G01 X3.2370 Y0.9817 
G01 X3.2417 Y0.9770 
G01 X3.2455 Y0.9718 
G01 X3.2485 Y0.9659 
G01 X3.2505 Y0.9597 
G01 X3.2515 Y0.9533 
G01 X3.2515 Y0.9467 
G01 X3.2505 Y0.9403 
G01 X3.2485 Y0.9341 
G01 X3.2455 Y0.9282 
G01 X3.2417 Y0.9230 
G01 X3.2370 Y0.9183 
G01 X3.2318 Y0.9145 
G01 X3.2259 Y0.9115 
G01 X3.2197 Y0.9095 
G01 X3.2133 Y0.9085 
G01 X3.2067 Y0.9085 
G01 X3.2003 Y0.9095 
G01 X3.1941 Y0.9115 
G01 X3.1882 Y0.9145 
G01 X3.1830 Y0.9183 
G01 X3.1783 Y0.9230 
G01 X3.1745 Y0.9282 
G01 X3.1715 Y0.9341 
G01 X3.1695 Y0.9403 
G01 X3.1685 Y0.9467 
G01 X3.1685 Y0.9533 
G01 X3.1695 Y0.9597 
G01 X3.1715 Y0.9659 
G01 X3.1745 Y0.9718 
G01 X3.1783 Y0.9770 
G01 X3.1830 Y0.9817 
G00 Z0.1000 
G00 X3.1830 Y0.8817 
G01 Z-0.0070 F10.00 
G01 X3.1882 Y0.8855 F20.00 
G01 X3.1941 Y0.8885 
G01 X3.2003 Y0.8905 
G01 X3.2067 Y0.8915 
G01 X3.2133 Y0.8915 
G01 X3.2197 Y0.8905 
G01 X3.2259 Y0.8885 
G01 X3.2318 Y0.8855 
G01 X3.2370 Y0.8817 
G01 X3.2417 Y0.8770 
G01 X3.2455 Y0.8718 
G01 X3.2485 Y0.8659 
G01 X3.2505 Y0.8597 
G01 X3.2515 Y0.8533 
G01 X3.2515 Y0.8467 
G01 X3.2505 Y0.8403 
G01 X3.2485 Y0.8341 
G01 X3.2455 Y0.8282 
G01 X3.2417 Y0.8230 
G01 X3.2370 Y0.8183 
G01 X3.2318 Y0.8145 
G01 X3.2259 Y0.8115 
G01 X3.2197 Y0.8095 
G01 X3.2133 Y0.8085 
G01 X3.2067 Y0.8085 
G01 X3.2003 Y0.8095 
G01 X3.1941 Y0.8115 
G01 X3.1882 Y0.8145 
G01 X3.1830 Y0.8183 
G01 X3.1783 Y0.8230 
G01 X3.1745 Y0.8282 
G01 X3.1715 Y0.8341 
G01 X3.1695 Y0.8403 
G01 X3.1685 Y0.8467 
G01 X3.1685 Y0.8533 
G01 X3.1695 Y0.8597 
G01 X3.1715 Y0.8659 
G01 X3.1745 Y0.8718 
G01 X3.1783 Y0.8770 
G01 X3.1830 Y0.8817 
G00 Z0.1000 
G00 X3.1830 Y0.7817 
G01 Z-0.0070 F10.00 
G01 X3.1882 Y0.7855 F20.00 
G01 X3.1941 Y0.7885 
G01 X3.2003 Y0.7905 
G01 X3.2067 Y0.7915 
G01 X3.2133 Y0.7915 
G01 X3.2197 Y0.7905 
G01 X3.2259 Y0.7885 
G01 X3.2318 Y0.7855 
G01 X3.2370 Y0.7817 
G01 X3.2417 Y0.7770 
G01 X3.2455 Y0.7718 
G01 X3.2485 Y0.7659 
G01 X3.2505 Y0.7597 
G01 X3.2515 Y0.7533 
G01 X3.2515 Y0.7467 
G01 X3.2505 Y0.7403 
G01 X3.2485 Y0.7341 
G01 X3.2455 Y0.7282 
G01 X3.2417 Y0.7230 
G01 X3.2370 Y0.7183 
G01 X3.2318 Y0.7145 
G01 X3.2259 Y0.7115 
G01 X3.2197 Y0.7095 
G01 X3.2133 Y0.7085 
G01 X3.2067 Y0.7085 
G01 X3.2003 Y0.7095 
G01 X3.1941 Y0.7115 
G01 X3.1882 Y0.7145 
G01 X3.1830 Y0.7183 
G01 X3.1783 Y0.7230 
G01 X3.1745 Y0.7282 
G01 X3.1715 Y0.7341 
G01 X3.1695 Y0.7403 
G01 X3.1685 Y0.7467 
G01 X3.1685 Y0.7533 
G01 X3.1695 Y0.7597 
G01 X3.1715 Y0.7659 
G01 X3.1745 Y0.7718 
G01 X3.1783 Y0.7770 
G01 X3.1830 Y0.7817 
G00 Z0.1000 
G00 X3.1830 Y0.6817 
G01 Z-0.0070 F10.00 
G01 X3.1882 Y0.6855 F20.00 
G01 X3.1941 Y0.6885 
G01 X3.2003 Y0.6905 
G01 X3.2067 Y0.6915 
G01 X3.2133 Y0.6915 
G01 X3.2197 Y0.6905 
G01 X3.2259 Y0.6885 
G01 X3.2318 Y0.6855 
G01 X3.2370 Y0.6817 
G01 X3.2417 Y0.6770 
G01 X3.2455 Y0.6718 
G01 X3.2485 Y0.6659 
G01 X3.2505 Y0.6597 
G01 X3.2515 Y0.6533 
G01 X3.2515 Y0.6467 
G01 X3.2505 Y0.6403 
G01 X3.2485 Y0.6341 
G01 X3.2455 Y0.6282 
G01 X3.2417 Y0.6230 
G01 X3.2370 Y0.6183 
G01 X3.2318 Y0.6145 
G01 X3.2259 Y0.6115 
G01 X3.2197 Y0.6095 
G01 X3.2133 Y0.6085 
G01 X3.2067 Y0.6085 
G01 X3.2003 Y0.6095 
G01 X3.1941 Y0.6115 
G01 X3.1882 Y0.6145 
G01 X3.1830 Y0.6183 
G01 X3.1783 Y0.6230 
G01 X3.1745 Y0.6282 
G01 X3.1715 Y0.6341 
G01 X3.1695 Y0.6403 
G01 X3.1685 Y0.6467 
G01 X3.1685 Y0.6533 
G01 X3.1695 Y0.6597 
G01 X3.1715 Y0.6659 
G01 X3.1745 Y0.6718 
G01 X3.1783 Y0.6770 
G01 X3.1830 Y0.6817 
G00 Z0.1000 
G00 X3.1830 Y0.5817 
G01 Z-0.0070 F10.00 
G01 X3.1882 Y0.5855 F20.00 
G01 X3.1941 Y0.5885 
G01 X3.2003 Y0.5905 
G01 X3.2067 Y0.5915 
G01 X3.2133 Y0.5915 
G01 X3.2197 Y0.5905 
G01 X3.2259 Y0.5885 
G01 X3.2318 Y0.5855 
G01 X3.2370 Y0.5817 
G01 X3.2417 Y0.5770 
G01 X3.2455 Y0.5718 
G01 X3.2485 Y0.5659 
G01 X3.2505 Y0.5597 
G01 X3.2515 Y0.5533 
G01 X3.2515 Y0.5467 
G01 X3.2505 Y0.5403 
G01 X3.2485 Y0.5341 
G01 X3.2455 Y0.5282 
G01 X3.2417 Y0.5230 
G01 X3.2370 Y0.5183 
G01 X3.2318 Y0.5145 
G01 X3.2259 Y0.5115 
G01 X3.2197 Y0.5095 
G01 X3.2133 Y0.5085 
G01 X3.2067 Y0.5085 
G01 X3.2003 Y0.5095 
G01 X3.1941 Y0.5115 
G01 X3.1882 Y0.5145 
G01 X3.1830 Y0.5183 
G01 X3.1783 Y0.5230 
G01 X3.1745 Y0.5282 
G01 X3.1715 Y0.5341 
G01 X3.1695 Y0.5403 
G01 X3.1685 Y0.5467 
G01 X3.1685 Y0.5533 
G01 X3.1695 Y0.5597 
G01 X3.1715 Y0.5659 
G01 X3.1745 Y0.5718 
G01 X3.1783 Y0.5770 
G01 X3.1830 Y0.5817 
G00 Z0.1000 
G00 X3.1830 Y0.4817 
G01 Z-0.0070 F10.00 
G01 X3.1882 Y0.4855 F20.00 
G01 X3.1941 Y0.4885 
G01 X3.2003 Y0.4905 
G01 X3.2067 Y0.4915 
G01 X3.2133 Y0.4915 
G01 X3.2197 Y0.4905 
G01 X3.2259 Y0.4885 
G01 X3.2318 Y0.4855 
G01 X3.2370 Y0.4817 
G01 X3.2417 Y0.4770 
G01 X3.2455 Y0.4718 
G01 X3.2485 Y0.4659 
G01 X3.2505 Y0.4597 
G01 X3.2515 Y0.4533 
G01 X3.2515 Y0.4467 
G01 X3.2505 Y0.4403 
G01 X3.2485 Y0.4341 
G01 X3.2455 Y0.4282 
G01 X3.2417 Y0.4230 
G01 X3.2370 Y0.4183 
G01 X3.2318 Y0.4145 
G01 X3.2259 Y0.4115 
G01 X3.2197 Y0.4095 
G01 X3.2133 Y0.4085 
G01 X3.2067 Y0.4085 
G01 X3.2003 Y0.4095 
G01 X3.1941 Y0.4115 
G01 X3.1882 Y0.4145 
G01 X3.1830 Y0.4183 
G01 X3.1783 Y0.4230 
G01 X3.1745 Y0.4282 
G01 X3.1715 Y0.4341 
G01 X3.1695 Y0.4403 
G01 X3.1685 Y0.4467 
G01 X3.1685 Y0.4533 
G01 X3.1695 Y0.4597 
G01 X3.1715 Y0.4659 
G01 X3.1745 Y0.4718 
G01 X3.1783 Y0.4770 
G01 X3.1830 Y0.4817 
G00 Z0.1000 
G00 X2.7917 Y0.4770 
G01 Z-0.0070 F10.00 
G01 X2.7955 Y0.4718 F20.00 
G01 X2.7985 Y0.4659 
G01 X2.8005 Y0.4597 
G01 X2.8015 Y0.4533 
G01 X2.8015 Y0.4467 
G01 X2.8005 Y0.4403 
G01 X2.7985 Y0.4341 
G01 X2.7955 Y0.4282 
G01 X2.7917 Y0.4230 
G01 X2.7870 Y0.4183 
G01 X2.7818 Y0.4145 
G01 X2.7759 Y0.4115 
G01 X2.7697 Y0.4095 
G01 X2.7633 Y0.4085 
G01 X2.7567 Y0.4085 
G01 X2.7503 Y0.4095 
G01 X2.7441 Y0.4115 
G01 X2.7382 Y0.4145 
G01 X2.7330 Y0.4183 
G01 X2.7283 Y0.4230 
G01 X2.7245 Y0.4282 
G01 X2.7215 Y0.4341 
G01 X2.7195 Y0.4403 
G01 X2.7185 Y0.4467 
G01 X2.7185 Y0.4533 
G01 X2.7195 Y0.4597 
G01 X2.7215 Y0.4659 
G01 X2.7245 Y0.4718 
G01 X2.7283 Y0.4770 
G01 X2.7330 Y0.4817 
G01 X2.7382 Y0.4855 
G01 X2.7441 Y0.4885 
G01 X2.7503 Y0.4905 
G01 X2.7567 Y0.4915 
G01 X2.7633 Y0.4915 
G01 X2.7697 Y0.4905 
G01 X2.7759 Y0.4885 
G01 X2.7818 Y0.4855 
G01 X2.7870 Y0.4817 
G01 X2.7917 Y0.4770 
G00 Z0.1000 
G00 X2.6917 Y0.4770 
G01 Z-0.0070 F10.00 
G01 X2.6955 Y0.4718 F20.00 
G01 X2.6985 Y0.4659 
G01 X2.7005 Y0.4597 
G01 X2.7015 Y0.4533 
G01 X2.7015 Y0.4467 
G01 X2.7005 Y0.4403 
G01 X2.6985 Y0.4341 
G01 X2.6955 Y0.4282 
G01 X2.6917 Y0.4230 
G01 X2.6870 Y0.4183 
G01 X2.6818 Y0.4145 
G01 X2.6759 Y0.4115 
G01 X2.6697 Y0.4095 
G01 X2.6633 Y0.4085 
G01 X2.6567 Y0.4085 
G01 X2.6503 Y0.4095 
G01 X2.6441 Y0.4115 
G01 X2.6382 Y0.4145 
G01 X2.6330 Y0.4183 
G01 X2.6283 Y0.4230 
G01 X2.6245 Y0.4282 
G01 X2.6215 Y0.4341 
G01 X2.6195 Y0.4403 
G01 X2.6185 Y0.4467 
G01 X2.6185 Y0.4533 
G01 X2.6195 Y0.4597 
G01 X2.6215 Y0.4659 
G01 X2.6245 Y0.4718 
G01 X2.6283 Y0.4770 
G01 X2.6330 Y0.4817 
G01 X2.6382 Y0.4855 
G01 X2.6441 Y0.4885 
G01 X2.6503 Y0.4905 
G01 X2.6567 Y0.4915 
G01 X2.6633 Y0.4915 
G01 X2.6697 Y0.4905 
G01 X2.6759 Y0.4885 
G01 X2.6818 Y0.4855 
G01 X2.6870 Y0.4817 
G01 X2.6917 Y0.4770 
G00 Z0.1000 
G00 X2.5917 Y0.4770 
G01 Z-0.0070 F10.00 
G01 X2.5955 Y0.4718 F20.00 
G01 X2.5985 Y0.4659 
G01 X2.6005 Y0.4597 
G01 X2.6015 Y0.4533 
G01 X2.6015 Y0.4467 
G01 X2.6005 Y0.4403 
G01 X2.5985 Y0.4341 
G01 X2.5955 Y0.4282 
G01 X2.5917 Y0.4230 
G01 X2.5870 Y0.4183 
G01 X2.5818 Y0.4145 
G01 X2.5759 Y0.4115 
G01 X2.5697 Y0.4095 
G01 X2.5633 Y0.4085 
G01 X2.5567 Y0.4085 
G01 X2.5503 Y0.4095 
G01 X2.5441 Y0.4115 
G01 X2.5382 Y0.4145 
G01 X2.5330 Y0.4183 
G01 X2.5283 Y0.4230 
G01 X2.5245 Y0.4282 
G01 X2.5215 Y0.4341 
G01 X2.5195 Y0.4403 
G01 X2.5185 Y0.4467 
G01 X2.5185 Y0.4533 
G01 X2.5195 Y0.4597 
G01 X2.5215 Y0.4659 
G01 X2.5245 Y0.4718 
G01 X2.5283 Y0.4770 
G01 X2.5330 Y0.4817 
G01 X2.5382 Y0.4855 
G01 X2.5441 Y0.4885 
G01 X2.5503 Y0.4905 
G01 X2.5567 Y0.4915 
G01 X2.5633 Y0.4915 
G01 X2.5697 Y0.4905 
G01 X2.5759 Y0.4885 
G01 X2.5818 Y0.4855 
G01 X2.5870 Y0.4817 
G01 X2.5917 Y0.4770 
G00 Z0.1000 
G00 X2.4917 Y0.4770 
G01 Z-0.0070 F10.00 
G01 X2.4955 Y0.4718 F20.00 
G01 X2.4985 Y0.4659 
G01 X2.5005 Y0.4597 
G01 X2.5015 Y0.4533 
G01 X2.5015 Y0.4467 
G01 X2.5005 Y0.4403 
G01 X2.4985 Y0.4341 
G01 X2.4955 Y0.4282 
G01 X2.4917 Y0.4230 
G01 X2.4870 Y0.4183 
G01 X2.4818 Y0.4145 
G01 X2.4759 Y0.4115 
G01 X2.4697 Y0.4095 
G01 X2.4633 Y0.4085 
G01 X2.4567 Y0.4085 
G01 X2.4503 Y0.4095 
G01 X2.4441 Y0.4115 
G01 X2.4382 Y0.4145 
G01 X2.4330 Y0.4183 
G01 X2.4283 Y0.4230 
G01 X2.4245 Y0.4282 
G01 X2.4215 Y0.4341 
G01 X2.4195 Y0.4403 
G01 X2.4185 Y0.4467 
G01 X2.4185 Y0.4533 
G01 X2.4195 Y0.4597 
G01 X2.4215 Y0.4659 
G01 X2.4245 Y0.4718 
G01 X2.4283 Y0.4770 
G01 X2.4330 Y0.4817 
G01 X2.4382 Y0.4855 
G01 X2.4441 Y0.4885 
G01 X2.4503 Y0.4905 
G01 X2.4567 Y0.4915 
G01 X2.4633 Y0.4915 
G01 X2.4697 Y0.4905 
G01 X2.4759 Y0.4885 
G01 X2.4818 Y0.4855 
G01 X2.4870 Y0.4817 
G01 X2.4917 Y0.4770 
G00 Z0.1000 
G00 X2.3917 Y0.4770 
G01 Z-0.0070 F10.00 
G01 X2.3955 Y0.4718 F20.00 
G01 X2.3985 Y0.4659 
G01 X2.4005 Y0.4597 
G01 X2.4015 Y0.4533 
G01 X2.4015 Y0.4467 
G01 X2.4005 Y0.4403 
G01 X2.3985 Y0.4341 
G01 X2.3955 Y0.4282 
G01 X2.3917 Y0.4230 
G01 X2.3870 Y0.4183 
G01 X2.3818 Y0.4145 
G01 X2.3759 Y0.4115 
G01 X2.3697 Y0.4095 
G01 X2.3633 Y0.4085 
G01 X2.3567 Y0.4085 
G01 X2.3503 Y0.4095 
G01 X2.3441 Y0.4115 
G01 X2.3382 Y0.4145 
G01 X2.3330 Y0.4183 
G01 X2.3283 Y0.4230 
G01 X2.3245 Y0.4282 
G01 X2.3215 Y0.4341 
G01 X2.3195 Y0.4403 
G01 X2.3185 Y0.4467 
G01 X2.3185 Y0.4533 
G01 X2.3195 Y0.4597 
G01 X2.3215 Y0.4659 
G01 X2.3245 Y0.4718 
G01 X2.3283 Y0.4770 
G01 X2.3330 Y0.4817 
G01 X2.3382 Y0.4855 
G01 X2.3441 Y0.4885 
G01 X2.3503 Y0.4905 
G01 X2.3567 Y0.4915 
G01 X2.3633 Y0.4915 
G01 X2.3697 Y0.4905 
G01 X2.3759 Y0.4885 
G01 X2.3818 Y0.4855 
G01 X2.3870 Y0.4817 
G01 X2.3917 Y0.4770 
G00 Z0.1000 
G00 X2.2917 Y0.4770 
G01 Z-0.0070 F10.00 
G01 X2.2955 Y0.4718 F20.00 
G01 X2.2985 Y0.4659 
G01 X2.3005 Y0.4597 
G01 X2.3015 Y0.4533 
G01 X2.3015 Y0.4467 
G01 X2.3005 Y0.4403 
G01 X2.2985 Y0.4341 
G01 X2.2955 Y0.4282 
G01 X2.2917 Y0.4230 
G01 X2.2870 Y0.4183 
G01 X2.2818 Y0.4145 
G01 X2.2759 Y0.4115 
G01 X2.2697 Y0.4095 
G01 X2.2633 Y0.4085 
G01 X2.2567 Y0.4085 
G01 X2.2503 Y0.4095 
G01 X2.2441 Y0.4115 
G01 X2.2382 Y0.4145 
G01 X2.2330 Y0.4183 
G01 X2.2283 Y0.4230 
G01 X2.2245 Y0.4282 
G01 X2.2215 Y0.4341 
G01 X2.2195 Y0.4403 
G01 X2.2185 Y0.4467 
G01 X2.2185 Y0.4533 
G01 X2.2195 Y0.4597 
G01 X2.2215 Y0.4659 
G01 X2.2245 Y0.4718 
G01 X2.2283 Y0.4770 
G01 X2.2330 Y0.4817 
G01 X2.2382 Y0.4855 
G01 X2.2441 Y0.4885 
G01 X2.2503 Y0.4905 
G01 X2.2567 Y0.4915 
G01 X2.2633 Y0.4915 
G01 X2.2697 Y0.4905 
G01 X2.2759 Y0.4885 
G01 X2.2818 Y0.4855 
G01 X2.2870 Y0.4817 
G01 X2.2917 Y0.4770 
G00 Z0.1000 
G00 X2.1717 Y0.4770 
G01 Z-0.0070 F10.00 
G01 X2.1755 Y0.4718 F20.00 
G01 X2.1785 Y0.4659 
G01 X2.1805 Y0.4597 
G01 X2.1815 Y0.4533 
G01 X2.1815 Y0.4467 
G01 X2.1805 Y0.4403 
G01 X2.1785 Y0.4341 
G01 X2.1755 Y0.4282 
G01 X2.1717 Y0.4230 
G01 X2.1670 Y0.4183 
G01 X2.1618 Y0.4145 
G01 X2.1559 Y0.4115 
G01 X2.1497 Y0.4095 
G01 X2.1433 Y0.4085 
G01 X2.1367 Y0.4085 
G01 X2.1303 Y0.4095 
G01 X2.1241 Y0.4115 
G01 X2.1182 Y0.4145 
G01 X2.1130 Y0.4183 
G01 X2.1083 Y0.4230 
G01 X2.1045 Y0.4282 
G01 X2.1015 Y0.4341 
G01 X2.0995 Y0.4403 
G01 X2.0985 Y0.4467 
G01 X2.0985 Y0.4533 
G01 X2.0995 Y0.4597 
G01 X2.1015 Y0.4659 
G01 X2.1045 Y0.4718 
G01 X2.1083 Y0.4770 
G01 X2.1130 Y0.4817 
G01 X2.1182 Y0.4855 
G01 X2.1241 Y0.4885 
G01 X2.1303 Y0.4905 
G01 X2.1367 Y0.4915 
G01 X2.1433 Y0.4915 
G01 X2.1497 Y0.4905 
G01 X2.1559 Y0.4885 
G01 X2.1618 Y0.4855 
G01 X2.1670 Y0.4817 
G01 X2.1717 Y0.4770 
G00 Z0.1000 
G00 X2.0717 Y0.4770 
G01 Z-0.0070 F10.00 
G01 X2.0755 Y0.4718 F20.00 
G01 X2.0785 Y0.4659 
G01 X2.0805 Y0.4597 
G01 X2.0815 Y0.4533 
G01 X2.0815 Y0.4467 
G01 X2.0805 Y0.4403 
G01 X2.0785 Y0.4341 
G01 X2.0755 Y0.4282 
G01 X2.0717 Y0.4230 
G01 X2.0670 Y0.4183 
G01 X2.0618 Y0.4145 
G01 X2.0559 Y0.4115 
G01 X2.0497 Y0.4095 
G01 X2.0433 Y0.4085 
G01 X2.0367 Y0.4085 
G01 X2.0303 Y0.4095 
G01 X2.0241 Y0.4115 
G01 X2.0182 Y0.4145 
G01 X2.0130 Y0.4183 
G01 X2.0083 Y0.4230 
G01 X2.0045 Y0.4282 
G01 X2.0015 Y0.4341 
G01 X1.9995 Y0.4403 
G01 X1.9985 Y0.4467 
G01 X1.9985 Y0.4533 
G01 X1.9995 Y0.4597 
G01 X2.0015 Y0.4659 
G01 X2.0045 Y0.4718 
G01 X2.0083 Y0.4770 
G01 X2.0130 Y0.4817 
G01 X2.0182 Y0.4855 
G01 X2.0241 Y0.4885 
G01 X2.0303 Y0.4905 
G01 X2.0367 Y0.4915 
G01 X2.0433 Y0.4915 
G01 X2.0497 Y0.4905 
G01 X2.0559 Y0.4885 
G01 X2.0618 Y0.4855 
G01 X2.0670 Y0.4817 
G01 X2.0717 Y0.4770 
G00 Z0.1000 
G00 X2.0670 Y0.6183 
G01 Z-0.0070 F10.00 
G01 X2.0618 Y0.6145 F20.00 
G01 X2.0559 Y0.6115 
G01 X2.0497 Y0.6095 
G01 X2.0433 Y0.6085 
G01 X2.0367 Y0.6085 
G01 X2.0303 Y0.6095 
G01 X2.0241 Y0.6115 
G01 X2.0182 Y0.6145 
G01 X2.0130 Y0.6183 
G01 X2.0083 Y0.6230 
G01 X2.0045 Y0.6282 
G01 X2.0015 Y0.6341 
G01 X1.9995 Y0.6403 
G01 X1.9985 Y0.6467 
G01 X1.9985 Y0.6533 
G01 X1.9995 Y0.6597 
G01 X2.0015 Y0.6659 
G01 X2.0045 Y0.6718 
G01 X2.0083 Y0.6770 
G01 X2.0130 Y0.6817 
G01 X2.0182 Y0.6855 
G01 X2.0241 Y0.6885 
G01 X2.0303 Y0.6905 
G01 X2.0367 Y0.6915 
G01 X2.0433 Y0.6915 
G01 X2.0497 Y0.6905 
G01 X2.0559 Y0.6885 
G01 X2.0618 Y0.6855 
G01 X2.0670 Y0.6817 
G01 X2.0717 Y0.6770 
G01 X2.0755 Y0.6718 
G01 X2.0785 Y0.6659 
G01 X2.0805 Y0.6597 
G01 X2.0815 Y0.6533 
G01 X2.0815 Y0.6467 
G01 X2.0805 Y0.6403 
G01 X2.0785 Y0.6341 
G01 X2.0755 Y0.6282 
G01 X2.0717 Y0.6230 
G01 X2.0670 Y0.6183 
G00 Z0.1000 
G00 X2.1083 Y0.6230 
G01 Z-0.0070 F10.00 
G01 X2.1045 Y0.6282 F20.00 
G01 X2.1015 Y0.6341 
G01 X2.0995 Y0.6403 
G01 X2.0985 Y0.6467 
G01 X2.0985 Y0.6533 
G01 X2.0995 Y0.6597 
G01 X2.1015 Y0.6659 
G01 X2.1045 Y0.6718 
G01 X2.1083 Y0.6770 
G01 X2.1130 Y0.6817 
G01 X2.1182 Y0.6855 
G01 X2.1241 Y0.6885 
G01 X2.1303 Y0.6905 
G01 X2.1367 Y0.6915 
G01 X2.1433 Y0.6915 
G01 X2.1497 Y0.6905 
G01 X2.1559 Y0.6885 
G01 X2.1618 Y0.6855 
G01 X2.1670 Y0.6817 
G01 X2.1717 Y0.6770 
G01 X2.1755 Y0.6718 
G01 X2.1785 Y0.6659 
G01 X2.1805 Y0.6597 
G01 X2.1815 Y0.6533 
G01 X2.1815 Y0.6467 
G01 X2.1805 Y0.6403 
G01 X2.1785 Y0.6341 
G01 X2.1755 Y0.6282 
G01 X2.1717 Y0.6230 
G01 X2.1670 Y0.6183 
G01 X2.1618 Y0.6145 
G01 X2.1559 Y0.6115 
G01 X2.1497 Y0.6095 
G01 X2.1433 Y0.6085 
G01 X2.1367 Y0.6085 
G01 X2.1303 Y0.6095 
G01 X2.1241 Y0.6115 
G01 X2.1182 Y0.6145 
G01 X2.1130 Y0.6183 
G01 X2.1083 Y0.6230 
G00 Z0.1000 
G00 X2.2283 Y0.6230 
G01 Z-0.0070 F10.00 
G01 X2.2245 Y0.6282 F20.00 
G01 X2.2215 Y0.6341 
G01 X2.2195 Y0.6403 
G01 X2.2185 Y0.6467 
G01 X2.2185 Y0.6533 
G01 X2.2195 Y0.6597 
G01 X2.2215 Y0.6659 
G01 X2.2245 Y0.6718 
G01 X2.2283 Y0.6770 
G01 X2.2330 Y0.6817 
G01 X2.2382 Y0.6855 
G01 X2.2441 Y0.6885 
G01 X2.2503 Y0.6905 
G01 X2.2567 Y0.6915 
G01 X2.2633 Y0.6915 
G01 X2.2697 Y0.6905 
G01 X2.2759 Y0.6885 
G01 X2.2818 Y0.6855 
G01 X2.2870 Y0.6817 
G01 X2.2917 Y0.6770 
G01 X2.2955 Y0.6718 
G01 X2.2985 Y0.6659 
G01 X2.3005 Y0.6597 
G01 X2.3015 Y0.6533 
G01 X2.3015 Y0.6467 
G01 X2.3005 Y0.6403 
G01 X2.2985 Y0.6341 
G01 X2.2955 Y0.6282 
G01 X2.2917 Y0.6230 
G01 X2.2870 Y0.6183 
G01 X2.2818 Y0.6145 
G01 X2.2759 Y0.6115 
G01 X2.2697 Y0.6095 
G01 X2.2633 Y0.6085 
G01 X2.2567 Y0.6085 
G01 X2.2503 Y0.6095 
G01 X2.2441 Y0.6115 
G01 X2.2382 Y0.6145 
G01 X2.2330 Y0.6183 
G01 X2.2283 Y0.6230 
G00 Z0.1000 
G00 X2.3283 Y0.6230 
G01 Z-0.0070 F10.00 
G01 X2.3245 Y0.6282 F20.00 
G01 X2.3215 Y0.6341 
G01 X2.3195 Y0.6403 
G01 X2.3185 Y0.6467 
G01 X2.3185 Y0.6533 
G01 X2.3195 Y0.6597 
G01 X2.3215 Y0.6659 
G01 X2.3245 Y0.6718 
G01 X2.3283 Y0.6770 
G01 X2.3330 Y0.6817 
G01 X2.3382 Y0.6855 
G01 X2.3441 Y0.6885 
G01 X2.3503 Y0.6905 
G01 X2.3567 Y0.6915 
G01 X2.3633 Y0.6915 
G01 X2.3697 Y0.6905 
G01 X2.3759 Y0.6885 
G01 X2.3818 Y0.6855 
G01 X2.3870 Y0.6817 
G01 X2.3917 Y0.6770 
G01 X2.3955 Y0.6718 
G01 X2.3985 Y0.6659 
G01 X2.4005 Y0.6597 
G01 X2.4015 Y0.6533 
G01 X2.4015 Y0.6467 
G01 X2.4005 Y0.6403 
G01 X2.3985 Y0.6341 
G01 X2.3955 Y0.6282 
G01 X2.3917 Y0.6230 
G01 X2.3870 Y0.6183 
G01 X2.3818 Y0.6145 
G01 X2.3759 Y0.6115 
G01 X2.3697 Y0.6095 
G01 X2.3633 Y0.6085 
G01 X2.3567 Y0.6085 
G01 X2.3503 Y0.6095 
G01 X2.3441 Y0.6115 
G01 X2.3382 Y0.6145 
G01 X2.3330 Y0.6183 
G01 X2.3283 Y0.6230 
G00 Z0.1000 
G00 X2.4283 Y0.6230 
G01 Z-0.0070 F10.00 
G01 X2.4245 Y0.6282 F20.00 
G01 X2.4215 Y0.6341 
G01 X2.4195 Y0.6403 
G01 X2.4185 Y0.6467 
G01 X2.4185 Y0.6533 
G01 X2.4195 Y0.6597 
G01 X2.4215 Y0.6659 
G01 X2.4245 Y0.6718 
G01 X2.4283 Y0.6770 
G01 X2.4330 Y0.6817 
G01 X2.4382 Y0.6855 
G01 X2.4441 Y0.6885 
G01 X2.4503 Y0.6905 
G01 X2.4567 Y0.6915 
G01 X2.4633 Y0.6915 
G01 X2.4697 Y0.6905 
G01 X2.4759 Y0.6885 
G01 X2.4818 Y0.6855 
G01 X2.4870 Y0.6817 
G01 X2.4917 Y0.6770 
G01 X2.4955 Y0.6718 
G01 X2.4985 Y0.6659 
G01 X2.5005 Y0.6597 
G01 X2.5015 Y0.6533 
G01 X2.5015 Y0.6467 
G01 X2.5005 Y0.6403 
G01 X2.4985 Y0.6341 
G01 X2.4955 Y0.6282 
G01 X2.4917 Y0.6230 
G01 X2.4870 Y0.6183 
G01 X2.4818 Y0.6145 
G01 X2.4759 Y0.6115 
G01 X2.4697 Y0.6095 
G01 X2.4633 Y0.6085 
G01 X2.4567 Y0.6085 
G01 X2.4503 Y0.6095 
G01 X2.4441 Y0.6115 
G01 X2.4382 Y0.6145 
G01 X2.4330 Y0.6183 
G01 X2.4283 Y0.6230 
G00 Z0.1000 
G00 X2.5283 Y0.6230 
G01 Z-0.0070 F10.00 
G01 X2.5245 Y0.6282 F20.00 
G01 X2.5215 Y0.6341 
G01 X2.5195 Y0.6403 
G01 X2.5185 Y0.6467 
G01 X2.5185 Y0.6533 
G01 X2.5195 Y0.6597 
G01 X2.5215 Y0.6659 
G01 X2.5245 Y0.6718 
G01 X2.5283 Y0.6770 
G01 X2.5330 Y0.6817 
G01 X2.5382 Y0.6855 
G01 X2.5441 Y0.6885 
G01 X2.5503 Y0.6905 
G01 X2.5567 Y0.6915 
G01 X2.5633 Y0.6915 
G01 X2.5697 Y0.6905 
G01 X2.5759 Y0.6885 
G01 X2.5818 Y0.6855 
G01 X2.5870 Y0.6817 
G01 X2.5917 Y0.6770 
G01 X2.5955 Y0.6718 
G01 X2.5985 Y0.6659 
G01 X2.6005 Y0.6597 
G01 X2.6015 Y0.6533 
G01 X2.6015 Y0.6467 
G01 X2.6005 Y0.6403 
G01 X2.5985 Y0.6341 
G01 X2.5955 Y0.6282 
G01 X2.5917 Y0.6230 
G01 X2.5870 Y0.6183 
G01 X2.5818 Y0.6145 
G01 X2.5759 Y0.6115 
G01 X2.5697 Y0.6095 
G01 X2.5633 Y0.6085 
G01 X2.5567 Y0.6085 
G01 X2.5503 Y0.6095 
G01 X2.5441 Y0.6115 
G01 X2.5382 Y0.6145 
G01 X2.5330 Y0.6183 
G01 X2.5283 Y0.6230 
G00 Z0.1000 
G00 X2.6283 Y0.6230 
G01 Z-0.0070 F10.00 
G01 X2.6245 Y0.6282 F20.00 
G01 X2.6215 Y0.6341 
G01 X2.6195 Y0.6403 
G01 X2.6185 Y0.6467 
G01 X2.6185 Y0.6533 
G01 X2.6195 Y0.6597 
G01 X2.6215 Y0.6659 
G01 X2.6245 Y0.6718 
G01 X2.6283 Y0.6770 
G01 X2.6330 Y0.6817 
G01 X2.6382 Y0.6855 
G01 X2.6441 Y0.6885 
G01 X2.6503 Y0.6905 
G01 X2.6567 Y0.6915 
G01 X2.6633 Y0.6915 
G01 X2.6697 Y0.6905 
G01 X2.6759 Y0.6885 
G01 X2.6818 Y0.6855 
G01 X2.6870 Y0.6817 
G01 X2.6917 Y0.6770 
G01 X2.6955 Y0.6718 
G01 X2.6985 Y0.6659 
G01 X2.7005 Y0.6597 
G01 X2.7015 Y0.6533 
G01 X2.7015 Y0.6467 
G01 X2.7005 Y0.6403 
G01 X2.6985 Y0.6341 
G01 X2.6955 Y0.6282 
G01 X2.6917 Y0.6230 
G01 X2.6870 Y0.6183 
G01 X2.6818 Y0.6145 
G01 X2.6759 Y0.6115 
G01 X2.6697 Y0.6095 
G01 X2.6633 Y0.6085 
G01 X2.6567 Y0.6085 
G01 X2.6503 Y0.6095 
G01 X2.6441 Y0.6115 
G01 X2.6382 Y0.6145 
G01 X2.6330 Y0.6183 
G01 X2.6283 Y0.6230 
G00 Z0.1000 
G00 X2.7283 Y0.6230 
G01 Z-0.0070 F10.00 
G01 X2.7245 Y0.6282 F20.00 
G01 X2.7215 Y0.6341 
G01 X2.7195 Y0.6403 
G01 X2.7185 Y0.6467 
G01 X2.7185 Y0.6533 
G01 X2.7195 Y0.6597 
G01 X2.7215 Y0.6659 
G01 X2.7245 Y0.6718 
G01 X2.7283 Y0.6770 
G01 X2.7330 Y0.6817 
G01 X2.7382 Y0.6855 
G01 X2.7441 Y0.6885 
G01 X2.7503 Y0.6905 
G01 X2.7567 Y0.6915 
G01 X2.7633 Y0.6915 
G01 X2.7697 Y0.6905 
G01 X2.7759 Y0.6885 
G01 X2.7818 Y0.6855 
G01 X2.7870 Y0.6817 
G01 X2.7917 Y0.6770 
G01 X2.7955 Y0.6718 
G01 X2.7985 Y0.6659 
G01 X2.8005 Y0.6597 
G01 X2.8015 Y0.6533 
G01 X2.8015 Y0.6467 
G01 X2.8005 Y0.6403 
G01 X2.7985 Y0.6341 
G01 X2.7955 Y0.6282 
G01 X2.7917 Y0.6230 
G01 X2.7870 Y0.6183 
G01 X2.7818 Y0.6145 
G01 X2.7759 Y0.6115 
G01 X2.7697 Y0.6095 
G01 X2.7633 Y0.6085 
G01 X2.7567 Y0.6085 
G01 X2.7503 Y0.6095 
G01 X2.7441 Y0.6115 
G01 X2.7382 Y0.6145 
G01 X2.7330 Y0.6183 
G01 X2.7283 Y0.6230 
G00 Z0.1000 
G00 X2.7283 Y0.8230 
G01 Z-0.0070 F10.00 
G01 X2.7245 Y0.8282 F20.00 
G01 X2.7215 Y0.8341 
G01 X2.7195 Y0.8403 
G01 X2.7185 Y0.8467 
G01 X2.7185 Y0.8533 
G01 X2.7195 Y0.8597 
G01 X2.7215 Y0.8659 
G01 X2.7245 Y0.8718 
G01 X2.7283 Y0.8770 
G01 X2.7330 Y0.8817 
G01 X2.7382 Y0.8855 
G01 X2.7441 Y0.8885 
G01 X2.7503 Y0.8905 
G01 X2.7567 Y0.8915 
G01 X2.7633 Y0.8915 
G01 X2.7697 Y0.8905 
G01 X2.7759 Y0.8885 
G01 X2.7818 Y0.8855 
G01 X2.7870 Y0.8817 
G01 X2.7917 Y0.8770 
G01 X2.7955 Y0.8718 
G01 X2.7985 Y0.8659 
G01 X2.8005 Y0.8597 
G01 X2.8015 Y0.8533 
G01 X2.8015 Y0.8467 
G01 X2.8005 Y0.8403 
G01 X2.7985 Y0.8341 
G01 X2.7955 Y0.8282 
G01 X2.7917 Y0.8230 
G01 X2.7870 Y0.8183 
G01 X2.7818 Y0.8145 
G01 X2.7759 Y0.8115 
G01 X2.7697 Y0.8095 
G01 X2.7633 Y0.8085 
G01 X2.7567 Y0.8085 
G01 X2.7503 Y0.8095 
G01 X2.7441 Y0.8115 
G01 X2.7382 Y0.8145 
G01 X2.7330 Y0.8183 
G01 X2.7283 Y0.8230 
G00 Z0.1000 
G00 X2.6917 Y0.8230 
G01 Z-0.0070 F10.00 
G01 X2.6870 Y0.8183 F20.00 
G01 X2.6818 Y0.8145 
G01 X2.6759 Y0.8115 
G01 X2.6697 Y0.8095 
G01 X2.6633 Y0.8085 
G01 X2.6567 Y0.8085 
G01 X2.6503 Y0.8095 
G01 X2.6441 Y0.8115 
G01 X2.6382 Y0.8145 
G01 X2.6330 Y0.8183 
G01 X2.6283 Y0.8230 
G01 X2.6245 Y0.8282 
G01 X2.6215 Y0.8341 
G01 X2.6195 Y0.8403 
G01 X2.6185 Y0.8467 
G01 X2.6185 Y0.8533 
G01 X2.6195 Y0.8597 
G01 X2.6215 Y0.8659 
G01 X2.6245 Y0.8718 
G01 X2.6283 Y0.8770 
G01 X2.6330 Y0.8817 
G01 X2.6382 Y0.8855 
G01 X2.6441 Y0.8885 
G01 X2.6503 Y0.8905 
G01 X2.6567 Y0.8915 
G01 X2.6633 Y0.8915 
G01 X2.6697 Y0.8905 
G01 X2.6759 Y0.8885 
G01 X2.6818 Y0.8855 
G01 X2.6870 Y0.8817 
G01 X2.6917 Y0.8770 
G01 X2.6955 Y0.8718 
G01 X2.6985 Y0.8659 
G01 X2.7005 Y0.8597 
G01 X2.7015 Y0.8533 
G01 X2.7015 Y0.8467 
G01 X2.7005 Y0.8403 
G01 X2.6985 Y0.8341 
G01 X2.6955 Y0.8282 
G01 X2.6917 Y0.8230 
G00 Z0.1000 
G00 X2.5917 Y0.8230 
G01 Z-0.0070 F10.00 
G01 X2.5870 Y0.8183 F20.00 
G01 X2.5818 Y0.8145 
G01 X2.5759 Y0.8115 
G01 X2.5697 Y0.8095 
G01 X2.5633 Y0.8085 
G01 X2.5567 Y0.8085 
G01 X2.5503 Y0.8095 
G01 X2.5441 Y0.8115 
G01 X2.5382 Y0.8145 
G01 X2.5330 Y0.8183 
G01 X2.5283 Y0.8230 
G01 X2.5245 Y0.8282 
G01 X2.5215 Y0.8341 
G01 X2.5195 Y0.8403 
G01 X2.5185 Y0.8467 
G01 X2.5185 Y0.8533 
G01 X2.5195 Y0.8597 
G01 X2.5215 Y0.8659 
G01 X2.5245 Y0.8718 
G01 X2.5283 Y0.8770 
G01 X2.5330 Y0.8817 
G01 X2.5382 Y0.8855 
G01 X2.5441 Y0.8885 
G01 X2.5503 Y0.8905 
G01 X2.5567 Y0.8915 
G01 X2.5633 Y0.8915 
G01 X2.5697 Y0.8905 
G01 X2.5759 Y0.8885 
G01 X2.5818 Y0.8855 
G01 X2.5870 Y0.8817 
G01 X2.5917 Y0.8770 
G01 X2.5955 Y0.8718 
G01 X2.5985 Y0.8659 
G01 X2.6005 Y0.8597 
G01 X2.6015 Y0.8533 
G01 X2.6015 Y0.8467 
G01 X2.6005 Y0.8403 
G01 X2.5985 Y0.8341 
G01 X2.5955 Y0.8282 
G01 X2.5917 Y0.8230 
G00 Z0.1000 
G00 X2.4917 Y0.8230 
G01 Z-0.0070 F10.00 
G01 X2.4870 Y0.8183 F20.00 
G01 X2.4818 Y0.8145 
G01 X2.4759 Y0.8115 
G01 X2.4697 Y0.8095 
G01 X2.4633 Y0.8085 
G01 X2.4567 Y0.8085 
G01 X2.4503 Y0.8095 
G01 X2.4441 Y0.8115 
G01 X2.4382 Y0.8145 
G01 X2.4330 Y0.8183 
G01 X2.4283 Y0.8230 
G01 X2.4245 Y0.8282 
G01 X2.4215 Y0.8341 
G01 X2.4195 Y0.8403 
G01 X2.4185 Y0.8467 
G01 X2.4185 Y0.8533 
G01 X2.4195 Y0.8597 
G01 X2.4215 Y0.8659 
G01 X2.4245 Y0.8718 
G01 X2.4283 Y0.8770 
G01 X2.4330 Y0.8817 
G01 X2.4382 Y0.8855 
G01 X2.4441 Y0.8885 
G01 X2.4503 Y0.8905 
G01 X2.4567 Y0.8915 
G01 X2.4633 Y0.8915 
G01 X2.4697 Y0.8905 
G01 X2.4759 Y0.8885 
G01 X2.4818 Y0.8855 
G01 X2.4870 Y0.8817 
G01 X2.4917 Y0.8770 
G01 X2.4955 Y0.8718 
G01 X2.4985 Y0.8659 
G01 X2.5005 Y0.8597 
G01 X2.5015 Y0.8533 
G01 X2.5015 Y0.8467 
G01 X2.5005 Y0.8403 
G01 X2.4985 Y0.8341 
G01 X2.4955 Y0.8282 
G01 X2.4917 Y0.8230 
G00 Z0.1000 
G00 X2.3917 Y0.8230 
G01 Z-0.0070 F10.00 
G01 X2.3870 Y0.8183 F20.00 
G01 X2.3818 Y0.8145 
G01 X2.3759 Y0.8115 
G01 X2.3697 Y0.8095 
G01 X2.3633 Y0.8085 
G01 X2.3567 Y0.8085 
G01 X2.3503 Y0.8095 
G01 X2.3441 Y0.8115 
G01 X2.3382 Y0.8145 
G01 X2.3330 Y0.8183 
G01 X2.3283 Y0.8230 
G01 X2.3245 Y0.8282 
G01 X2.3215 Y0.8341 
G01 X2.3195 Y0.8403 
G01 X2.3185 Y0.8467 
G01 X2.3185 Y0.8533 
G01 X2.3195 Y0.8597 
G01 X2.3215 Y0.8659 
G01 X2.3245 Y0.8718 
G01 X2.3283 Y0.8770 
G01 X2.3330 Y0.8817 
G01 X2.3382 Y0.8855 
G01 X2.3441 Y0.8885 
G01 X2.3503 Y0.8905 
G01 X2.3567 Y0.8915 
G01 X2.3633 Y0.8915 
G01 X2.3697 Y0.8905 
G01 X2.3759 Y0.8885 
G01 X2.3818 Y0.8855 
G01 X2.3870 Y0.8817 
G01 X2.3917 Y0.8770 
G01 X2.3955 Y0.8718 
G01 X2.3985 Y0.8659 
G01 X2.4005 Y0.8597 
G01 X2.4015 Y0.8533 
G01 X2.4015 Y0.8467 
G01 X2.4005 Y0.8403 
G01 X2.3985 Y0.8341 
G01 X2.3955 Y0.8282 
G01 X2.3917 Y0.8230 
G00 Z0.1000 
G00 X2.2917 Y0.8230 
G01 Z-0.0070 F10.00 
G01 X2.2870 Y0.8183 F20.00 
G01 X2.2818 Y0.8145 
G01 X2.2759 Y0.8115 
G01 X2.2697 Y0.8095 
G01 X2.2633 Y0.8085 
G01 X2.2567 Y0.8085 
G01 X2.2503 Y0.8095 
G01 X2.2441 Y0.8115 
G01 X2.2382 Y0.8145 
G01 X2.2330 Y0.8183 
G01 X2.2283 Y0.8230 
G01 X2.2245 Y0.8282 
G01 X2.2215 Y0.8341 
G01 X2.2195 Y0.8403 
G01 X2.2185 Y0.8467 
G01 X2.2185 Y0.8533 
G01 X2.2195 Y0.8597 
G01 X2.2215 Y0.8659 
G01 X2.2245 Y0.8718 
G01 X2.2283 Y0.8770 
G01 X2.2330 Y0.8817 
G01 X2.2382 Y0.8855 
G01 X2.2441 Y0.8885 
G01 X2.2503 Y0.8905 
G01 X2.2567 Y0.8915 
G01 X2.2633 Y0.8915 
G01 X2.2697 Y0.8905 
G01 X2.2759 Y0.8885 
G01 X2.2818 Y0.8855 
G01 X2.2870 Y0.8817 
G01 X2.2917 Y0.8770 
G01 X2.2955 Y0.8718 
G01 X2.2985 Y0.8659 
G01 X2.3005 Y0.8597 
G01 X2.3015 Y0.8533 
G01 X2.3015 Y0.8467 
G01 X2.3005 Y0.8403 
G01 X2.2985 Y0.8341 
G01 X2.2955 Y0.8282 
G01 X2.2917 Y0.8230 
G00 Z0.1000 
G00 X2.1717 Y0.8230 
G01 Z-0.0070 F10.00 
G01 X2.1670 Y0.8183 F20.00 
G01 X2.1618 Y0.8145 
G01 X2.1559 Y0.8115 
G01 X2.1497 Y0.8095 
G01 X2.1433 Y0.8085 
G01 X2.1367 Y0.8085 
G01 X2.1303 Y0.8095 
G01 X2.1241 Y0.8115 
G01 X2.1182 Y0.8145 
G01 X2.1130 Y0.8183 
G01 X2.1083 Y0.8230 
G01 X2.1045 Y0.8282 
G01 X2.1015 Y0.8341 
G01 X2.0995 Y0.8403 
G01 X2.0985 Y0.8467 
G01 X2.0985 Y0.8533 
G01 X2.0995 Y0.8597 
G01 X2.1015 Y0.8659 
G01 X2.1045 Y0.8718 
G01 X2.1083 Y0.8770 
G01 X2.1130 Y0.8817 
G01 X2.1182 Y0.8855 
G01 X2.1241 Y0.8885 
G01 X2.1303 Y0.8905 
G01 X2.1367 Y0.8915 
G01 X2.1433 Y0.8915 
G01 X2.1497 Y0.8905 
G01 X2.1559 Y0.8885 
G01 X2.1618 Y0.8855 
G01 X2.1670 Y0.8817 
G01 X2.1717 Y0.8770 
G01 X2.1755 Y0.8718 
G01 X2.1785 Y0.8659 
G01 X2.1805 Y0.8597 
G01 X2.1815 Y0.8533 
G01 X2.1815 Y0.8467 
G01 X2.1805 Y0.8403 
G01 X2.1785 Y0.8341 
G01 X2.1755 Y0.8282 
G01 X2.1717 Y0.8230 
G00 Z0.1000 
G00 X2.0717 Y0.8230 
G01 Z-0.0070 F10.00 
G01 X2.0670 Y0.8183 F20.00 
G01 X2.0618 Y0.8145 
G01 X2.0559 Y0.8115 
G01 X2.0497 Y0.8095 
G01 X2.0433 Y0.8085 
G01 X2.0367 Y0.8085 
G01 X2.0303 Y0.8095 
G01 X2.0241 Y0.8115 
G01 X2.0182 Y0.8145 
G01 X2.0130 Y0.8183 
G01 X2.0083 Y0.8230 
G01 X2.0045 Y0.8282 
G01 X2.0015 Y0.8341 
G01 X1.9995 Y0.8403 
G01 X1.9985 Y0.8467 
G01 X1.9985 Y0.8533 
G01 X1.9995 Y0.8597 
G01 X2.0015 Y0.8659 
G01 X2.0045 Y0.8718 
G01 X2.0083 Y0.8770 
G01 X2.0130 Y0.8817 
G01 X2.0182 Y0.8855 
G01 X2.0241 Y0.8885 
G01 X2.0303 Y0.8905 
G01 X2.0367 Y0.8915 
G01 X2.0433 Y0.8915 
G01 X2.0497 Y0.8905 
G01 X2.0559 Y0.8885 
G01 X2.0618 Y0.8855 
G01 X2.0670 Y0.8817 
G01 X2.0717 Y0.8770 
G01 X2.0755 Y0.8718 
G01 X2.0785 Y0.8659 
G01 X2.0805 Y0.8597 
G01 X2.0815 Y0.8533 
G01 X2.0815 Y0.8467 
G01 X2.0805 Y0.8403 
G01 X2.0785 Y0.8341 
G01 X2.0755 Y0.8282 
G01 X2.0717 Y0.8230 
G00 Z0.1000 
G00 X2.0718 Y1.0145 
G01 Z-0.0070 F10.00 
G01 X2.0659 Y1.0115 F20.00 
G01 X2.0597 Y1.0095 
G01 X2.0533 Y1.0085 
G01 X2.0467 Y1.0085 
G01 X2.0403 Y1.0095 
G01 X2.0341 Y1.0115 
G01 X2.0282 Y1.0145 
G01 X2.0230 Y1.0183 
G01 X2.0183 Y1.0230 
G01 X2.0145 Y1.0282 
G01 X2.0115 Y1.0341 
G01 X2.0095 Y1.0403 
G01 X2.0085 Y1.0467 
G01 X2.0085 Y1.0533 
G01 X2.0095 Y1.0597 
G01 X2.0115 Y1.0659 
G01 X2.0145 Y1.0718 
G01 X2.0183 Y1.0770 
G01 X2.0230 Y1.0817 
G01 X2.0282 Y1.0855 
G01 X2.0341 Y1.0885 
G01 X2.0403 Y1.0905 
G01 X2.0467 Y1.0915 
G01 X2.0533 Y1.0915 
G01 X2.0597 Y1.0905 
G01 X2.0659 Y1.0885 
G01 X2.0718 Y1.0855 
G01 X2.0770 Y1.0817 
G01 X2.0817 Y1.0770 
G01 X2.0855 Y1.0718 
G01 X2.0885 Y1.0659 
G01 X2.0905 Y1.0597 
G01 X2.0915 Y1.0533 
G01 X2.0915 Y1.0467 
G01 X2.0905 Y1.0403 
G01 X2.0885 Y1.0341 
G01 X2.0855 Y1.0282 
G01 X2.0817 Y1.0230 
G01 X2.0770 Y1.0183 
G01 X2.0718 Y1.0145 
G00 Z0.1000 
G00 X2.1183 Y1.0230 
G01 Z-0.0070 F10.00 
G01 X2.1145 Y1.0282 F20.00 
G01 X2.1115 Y1.0341 
G01 X2.1095 Y1.0403 
G01 X2.1085 Y1.0467 
G01 X2.1085 Y1.0533 
G01 X2.1095 Y1.0597 
G01 X2.1115 Y1.0659 
G01 X2.1145 Y1.0718 
G01 X2.1183 Y1.0770 
G01 X2.1230 Y1.0817 
G01 X2.1282 Y1.0855 
G01 X2.1341 Y1.0885 
G01 X2.1403 Y1.0905 
G01 X2.1467 Y1.0915 
G01 X2.1533 Y1.0915 
G01 X2.1597 Y1.0905 
G01 X2.1659 Y1.0885 
G01 X2.1718 Y1.0855 
G01 X2.1770 Y1.0817 
G01 X2.1817 Y1.0770 
G01 X2.1855 Y1.0718 
G01 X2.1885 Y1.0659 
G01 X2.1905 Y1.0597 
G01 X2.1915 Y1.0533 
G01 X2.1915 Y1.0467 
G01 X2.1905 Y1.0403 
G01 X2.1885 Y1.0341 
G01 X2.1855 Y1.0282 
G01 X2.1817 Y1.0230 
G01 X2.1770 Y1.0183 
G01 X2.1718 Y1.0145 
G01 X2.1659 Y1.0115 
G01 X2.1597 Y1.0095 
G01 X2.1533 Y1.0085 
G01 X2.1467 Y1.0085 
G01 X2.1403 Y1.0095 
G01 X2.1341 Y1.0115 
G01 X2.1282 Y1.0145 
G01 X2.1230 Y1.0183 
G01 X2.1183 Y1.0230 
G00 Z0.1000 
G00 X2.2383 Y1.0230 
G01 Z-0.0070 F10.00 
G01 X2.2345 Y1.0282 F20.00 
G01 X2.2315 Y1.0341 
G01 X2.2295 Y1.0403 
G01 X2.2285 Y1.0467 
G01 X2.2285 Y1.0533 
G01 X2.2295 Y1.0597 
G01 X2.2315 Y1.0659 
G01 X2.2345 Y1.0718 
G01 X2.2383 Y1.0770 
G01 X2.2430 Y1.0817 
G01 X2.2482 Y1.0855 
G01 X2.2541 Y1.0885 
G01 X2.2603 Y1.0905 
G01 X2.2667 Y1.0915 
G01 X2.2733 Y1.0915 
G01 X2.2797 Y1.0905 
G01 X2.2859 Y1.0885 
G01 X2.2918 Y1.0855 
G01 X2.2970 Y1.0817 
G01 X2.3017 Y1.0770 
G01 X2.3055 Y1.0718 
G01 X2.3085 Y1.0659 
G01 X2.3105 Y1.0597 
G01 X2.3115 Y1.0533 
G01 X2.3115 Y1.0467 
G01 X2.3105 Y1.0403 
G01 X2.3085 Y1.0341 
G01 X2.3055 Y1.0282 
G01 X2.3017 Y1.0230 
G01 X2.2970 Y1.0183 
G01 X2.2918 Y1.0145 
G01 X2.2859 Y1.0115 
G01 X2.2797 Y1.0095 
G01 X2.2733 Y1.0085 
G01 X2.2667 Y1.0085 
G01 X2.2603 Y1.0095 
G01 X2.2541 Y1.0115 
G01 X2.2482 Y1.0145 
G01 X2.2430 Y1.0183 
G01 X2.2383 Y1.0230 
G00 Z0.1000 
G00 X2.3383 Y1.0230 
G01 Z-0.0070 F10.00 
G01 X2.3345 Y1.0282 F20.00 
G01 X2.3315 Y1.0341 
G01 X2.3295 Y1.0403 
G01 X2.3285 Y1.0467 
G01 X2.3285 Y1.0533 
G01 X2.3295 Y1.0597 
G01 X2.3315 Y1.0659 
G01 X2.3345 Y1.0718 
G01 X2.3383 Y1.0770 
G01 X2.3430 Y1.0817 
G01 X2.3482 Y1.0855 
G01 X2.3541 Y1.0885 
G01 X2.3603 Y1.0905 
G01 X2.3667 Y1.0915 
G01 X2.3733 Y1.0915 
G01 X2.3797 Y1.0905 
G01 X2.3859 Y1.0885 
G01 X2.3918 Y1.0855 
G01 X2.3970 Y1.0817 
G01 X2.4017 Y1.0770 
G01 X2.4055 Y1.0718 
G01 X2.4085 Y1.0659 
G01 X2.4105 Y1.0597 
G01 X2.4115 Y1.0533 
G01 X2.4115 Y1.0467 
G01 X2.4105 Y1.0403 
G01 X2.4085 Y1.0341 
G01 X2.4055 Y1.0282 
G01 X2.4017 Y1.0230 
G01 X2.3970 Y1.0183 
G01 X2.3918 Y1.0145 
G01 X2.3859 Y1.0115 
G01 X2.3797 Y1.0095 
G01 X2.3733 Y1.0085 
G01 X2.3667 Y1.0085 
G01 X2.3603 Y1.0095 
G01 X2.3541 Y1.0115 
G01 X2.3482 Y1.0145 
G01 X2.3430 Y1.0183 
G01 X2.3383 Y1.0230 
G00 Z0.1000 
G00 X2.4383 Y1.0230 
G01 Z-0.0070 F10.00 
G01 X2.4345 Y1.0282 F20.00 
G01 X2.4315 Y1.0341 
G01 X2.4295 Y1.0403 
G01 X2.4285 Y1.0467 
G01 X2.4285 Y1.0533 
G01 X2.4295 Y1.0597 
G01 X2.4315 Y1.0659 
G01 X2.4345 Y1.0718 
G01 X2.4383 Y1.0770 
G01 X2.4430 Y1.0817 
G01 X2.4482 Y1.0855 
G01 X2.4541 Y1.0885 
G01 X2.4603 Y1.0905 
G01 X2.4667 Y1.0915 
G01 X2.4733 Y1.0915 
G01 X2.4797 Y1.0905 
G01 X2.4859 Y1.0885 
G01 X2.4918 Y1.0855 
G01 X2.4970 Y1.0817 
G01 X2.5017 Y1.0770 
G01 X2.5055 Y1.0718 
G01 X2.5085 Y1.0659 
G01 X2.5105 Y1.0597 
G01 X2.5115 Y1.0533 
G01 X2.5115 Y1.0467 
G01 X2.5105 Y1.0403 
G01 X2.5085 Y1.0341 
G01 X2.5055 Y1.0282 
G01 X2.5017 Y1.0230 
G01 X2.4970 Y1.0183 
G01 X2.4918 Y1.0145 
G01 X2.4859 Y1.0115 
G01 X2.4797 Y1.0095 
G01 X2.4733 Y1.0085 
G01 X2.4667 Y1.0085 
G01 X2.4603 Y1.0095 
G01 X2.4541 Y1.0115 
G01 X2.4482 Y1.0145 
G01 X2.4430 Y1.0183 
G01 X2.4383 Y1.0230 
G00 Z0.1000 
G00 X2.5383 Y1.0230 
G01 Z-0.0070 F10.00 
G01 X2.5345 Y1.0282 F20.00 
G01 X2.5315 Y1.0341 
G01 X2.5295 Y1.0403 
G01 X2.5285 Y1.0467 
G01 X2.5285 Y1.0533 
G01 X2.5295 Y1.0597 
G01 X2.5315 Y1.0659 
G01 X2.5345 Y1.0718 
G01 X2.5383 Y1.0770 
G01 X2.5430 Y1.0817 
G01 X2.5482 Y1.0855 
G01 X2.5541 Y1.0885 
G01 X2.5603 Y1.0905 
G01 X2.5667 Y1.0915 
G01 X2.5733 Y1.0915 
G01 X2.5797 Y1.0905 
G01 X2.5859 Y1.0885 
G01 X2.5918 Y1.0855 
G01 X2.5970 Y1.0817 
G01 X2.6017 Y1.0770 
G01 X2.6055 Y1.0718 
G01 X2.6085 Y1.0659 
G01 X2.6105 Y1.0597 
G01 X2.6115 Y1.0533 
G01 X2.6115 Y1.0467 
G01 X2.6105 Y1.0403 
G01 X2.6085 Y1.0341 
G01 X2.6055 Y1.0282 
G01 X2.6017 Y1.0230 
G01 X2.5970 Y1.0183 
G01 X2.5918 Y1.0145 
G01 X2.5859 Y1.0115 
G01 X2.5797 Y1.0095 
G01 X2.5733 Y1.0085 
G01 X2.5667 Y1.0085 
G01 X2.5603 Y1.0095 
G01 X2.5541 Y1.0115 
G01 X2.5482 Y1.0145 
G01 X2.5430 Y1.0183 
G01 X2.5383 Y1.0230 
G00 Z0.1000 
G00 X2.6383 Y1.0230 
G01 Z-0.0070 F10.00 
G01 X2.6345 Y1.0282 F20.00 
G01 X2.6315 Y1.0341 
G01 X2.6295 Y1.0403 
G01 X2.6285 Y1.0467 
G01 X2.6285 Y1.0533 
G01 X2.6295 Y1.0597 
G01 X2.6315 Y1.0659 
G01 X2.6345 Y1.0718 
G01 X2.6383 Y1.0770 
G01 X2.6430 Y1.0817 
G01 X2.6482 Y1.0855 
G01 X2.6541 Y1.0885 
G01 X2.6603 Y1.0905 
G01 X2.6667 Y1.0915 
G01 X2.6733 Y1.0915 
G01 X2.6797 Y1.0905 
G01 X2.6859 Y1.0885 
G01 X2.6918 Y1.0855 
G01 X2.6970 Y1.0817 
G01 X2.7017 Y1.0770 
G01 X2.7055 Y1.0718 
G01 X2.7085 Y1.0659 
G01 X2.7105 Y1.0597 
G01 X2.7115 Y1.0533 
G01 X2.7115 Y1.0467 
G01 X2.7105 Y1.0403 
G01 X2.7085 Y1.0341 
G01 X2.7055 Y1.0282 
G01 X2.7017 Y1.0230 
G01 X2.6970 Y1.0183 
G01 X2.6918 Y1.0145 
G01 X2.6859 Y1.0115 
G01 X2.6797 Y1.0095 
G01 X2.6733 Y1.0085 
G01 X2.6667 Y1.0085 
G01 X2.6603 Y1.0095 
G01 X2.6541 Y1.0115 
G01 X2.6482 Y1.0145 
G01 X2.6430 Y1.0183 
G01 X2.6383 Y1.0230 
G00 Z0.1000 
G00 X2.7383 Y1.0230 
G01 Z-0.0070 F10.00 
G01 X2.7345 Y1.0282 F20.00 
G01 X2.7315 Y1.0341 
G01 X2.7295 Y1.0403 
G01 X2.7285 Y1.0467 
G01 X2.7285 Y1.0533 
G01 X2.7295 Y1.0597 
G01 X2.7315 Y1.0659 
G01 X2.7345 Y1.0718 
G01 X2.7383 Y1.0770 
G01 X2.7430 Y1.0817 
G01 X2.7482 Y1.0855 
G01 X2.7541 Y1.0885 
G01 X2.7603 Y1.0905 
G01 X2.7667 Y1.0915 
G01 X2.7733 Y1.0915 
G01 X2.7797 Y1.0905 
G01 X2.7859 Y1.0885 
G01 X2.7918 Y1.0855 
G01 X2.7970 Y1.0817 
G01 X2.8017 Y1.0770 
G01 X2.8055 Y1.0718 
G01 X2.8085 Y1.0659 
G01 X2.8105 Y1.0597 
G01 X2.8115 Y1.0533 
G01 X2.8115 Y1.0467 
G01 X2.8105 Y1.0403 
G01 X2.8085 Y1.0341 
G01 X2.8055 Y1.0282 
G01 X2.8017 Y1.0230 
G01 X2.7970 Y1.0183 
G01 X2.7918 Y1.0145 
G01 X2.7859 Y1.0115 
G01 X2.7797 Y1.0095 
G01 X2.7733 Y1.0085 
G01 X2.7667 Y1.0085 
G01 X2.7603 Y1.0095 
G01 X2.7541 Y1.0115 
G01 X2.7482 Y1.0145 
G01 X2.7430 Y1.0183 
G01 X2.7383 Y1.0230 
G00 Z0.1000 
G00 X2.7583 Y1.2030 
G01 Z-0.0070 F10.00 
G01 X2.7545 Y1.2082 F20.00 
G01 X2.7515 Y1.2141 
G01 X2.7495 Y1.2203 
G01 X2.7485 Y1.2267 
G01 X2.7485 Y1.2333 
G01 X2.7495 Y1.2397 
G01 X2.7515 Y1.2459 
G01 X2.7545 Y1.2518 
G01 X2.7583 Y1.2570 
G01 X2.7630 Y1.2617 
G01 X2.7682 Y1.2655 
G01 X2.7741 Y1.2685 
G01 X2.7803 Y1.2705 
G01 X2.7867 Y1.2715 
G01 X2.7933 Y1.2715 
G01 X2.7997 Y1.2705 
G01 X2.8059 Y1.2685 
G01 X2.8118 Y1.2655 
G01 X2.8170 Y1.2617 
G01 X2.8217 Y1.2570 
G01 X2.8255 Y1.2518 
G01 X2.8285 Y1.2459 
G01 X2.8305 Y1.2397 
G01 X2.8315 Y1.2333 
G01 X2.8315 Y1.2267 
G01 X2.8305 Y1.2203 
G01 X2.8285 Y1.2141 
G01 X2.8255 Y1.2082 
G01 X2.8217 Y1.2030 
G01 X2.8170 Y1.1983 
G01 X2.8118 Y1.1945 
G01 X2.8059 Y1.1915 
G01 X2.7997 Y1.1895 
G01 X2.7933 Y1.1885 
G01 X2.7867 Y1.1885 
G01 X2.7803 Y1.1895 
G01 X2.7741 Y1.1915 
G01 X2.7682 Y1.1945 
G01 X2.7630 Y1.1983 
G01 X2.7583 Y1.2030 
G00 Z0.1000 
G00 X2.7583 Y1.3030 
G01 Z-0.0070 F10.00 
G01 X2.7545 Y1.3082 F20.00 
G01 X2.7515 Y1.3141 
G01 X2.7495 Y1.3203 
G01 X2.7485 Y1.3267 
G01 X2.7485 Y1.3333 
G01 X2.7495 Y1.3397 
G01 X2.7515 Y1.3459 
G01 X2.7545 Y1.3518 
G01 X2.7583 Y1.3570 
G01 X2.7630 Y1.3617 
G01 X2.7682 Y1.3655 
G01 X2.7741 Y1.3685 
G01 X2.7803 Y1.3705 
G01 X2.7867 Y1.3715 
G01 X2.7933 Y1.3715 
G01 X2.7997 Y1.3705 
G01 X2.8059 Y1.3685 
G01 X2.8118 Y1.3655 
G01 X2.8170 Y1.3617 
G01 X2.8217 Y1.3570 
G01 X2.8255 Y1.3518 
G01 X2.8285 Y1.3459 
G01 X2.8305 Y1.3397 
G01 X2.8315 Y1.3333 
G01 X2.8315 Y1.3267 
G01 X2.8305 Y1.3203 
G01 X2.8285 Y1.3141 
G01 X2.8255 Y1.3082 
G01 X2.8217 Y1.3030 
G01 X2.8170 Y1.2983 
G01 X2.8118 Y1.2945 
G01 X2.8059 Y1.2915 
G01 X2.7997 Y1.2895 
G01 X2.7933 Y1.2885 
G01 X2.7867 Y1.2885 
G01 X2.7803 Y1.2895 
G01 X2.7741 Y1.2915 
G01 X2.7682 Y1.2945 
G01 X2.7630 Y1.2983 
G01 X2.7583 Y1.3030 
G00 Z0.1000 
G00 X2.7583 Y1.4030 
G01 Z-0.0070 F10.00 
G01 X2.7545 Y1.4082 F20.00 
G01 X2.7515 Y1.4141 
G01 X2.7495 Y1.4203 
G01 X2.7485 Y1.4267 
G01 X2.7485 Y1.4333 
G01 X2.7495 Y1.4397 
G01 X2.7515 Y1.4459 
G01 X2.7545 Y1.4518 
G01 X2.7583 Y1.4570 
G01 X2.7630 Y1.4617 
G01 X2.7682 Y1.4655 
G01 X2.7741 Y1.4685 
G01 X2.7803 Y1.4705 
G01 X2.7867 Y1.4715 
G01 X2.7933 Y1.4715 
G01 X2.7997 Y1.4705 
G01 X2.8059 Y1.4685 
G01 X2.8118 Y1.4655 
G01 X2.8170 Y1.4617 
G01 X2.8217 Y1.4570 
G01 X2.8255 Y1.4518 
G01 X2.8285 Y1.4459 
G01 X2.8305 Y1.4397 
G01 X2.8315 Y1.4333 
G01 X2.8315 Y1.4267 
G01 X2.8305 Y1.4203 
G01 X2.8285 Y1.4141 
G01 X2.8255 Y1.4082 
G01 X2.8217 Y1.4030 
G01 X2.8170 Y1.3983 
G01 X2.8118 Y1.3945 
G01 X2.8059 Y1.3915 
G01 X2.7997 Y1.3895 
G01 X2.7933 Y1.3885 
G01 X2.7867 Y1.3885 
G01 X2.7803 Y1.3895 
G01 X2.7741 Y1.3915 
G01 X2.7682 Y1.3945 
G01 X2.7630 Y1.3983 
G01 X2.7583 Y1.4030 
G00 Z0.1000 
G00 X2.7217 Y1.4030 
G01 Z-0.0070 F10.00 
G01 X2.7170 Y1.3983 F20.00 
G01 X2.7118 Y1.3945 
G01 X2.7059 Y1.3915 
G01 X2.6997 Y1.3895 
G01 X2.6933 Y1.3885 
G01 X2.6867 Y1.3885 
G01 X2.6803 Y1.3895 
G01 X2.6741 Y1.3915 
G01 X2.6682 Y1.3945 
G01 X2.6630 Y1.3983 
G01 X2.6583 Y1.4030 
G01 X2.6545 Y1.4082 
G01 X2.6515 Y1.4141 
G01 X2.6495 Y1.4203 
G01 X2.6485 Y1.4267 
G01 X2.6485 Y1.4333 
G01 X2.6495 Y1.4397 
G01 X2.6515 Y1.4459 
G01 X2.6545 Y1.4518 
G01 X2.6583 Y1.4570 
G01 X2.6630 Y1.4617 
G01 X2.6682 Y1.4655 
G01 X2.6741 Y1.4685 
G01 X2.6803 Y1.4705 
G01 X2.6867 Y1.4715 
G01 X2.6933 Y1.4715 
G01 X2.6997 Y1.4705 
G01 X2.7059 Y1.4685 
G01 X2.7118 Y1.4655 
G01 X2.7170 Y1.4617 
G01 X2.7217 Y1.4570 
G01 X2.7255 Y1.4518 
G01 X2.7285 Y1.4459 
G01 X2.7305 Y1.4397 
G01 X2.7315 Y1.4333 
G01 X2.7315 Y1.4267 
G01 X2.7305 Y1.4203 
G01 X2.7285 Y1.4141 
G01 X2.7255 Y1.4082 
G01 X2.7217 Y1.4030 
G00 Z0.1000 
G00 X2.7583 Y1.5030 
G01 Z-0.0070 F10.00 
G01 X2.7545 Y1.5082 F20.00 
G01 X2.7515 Y1.5141 
G01 X2.7495 Y1.5203 
G01 X2.7485 Y1.5267 
G01 X2.7485 Y1.5333 
G01 X2.7495 Y1.5397 
G01 X2.7515 Y1.5459 
G01 X2.7545 Y1.5518 
G01 X2.7583 Y1.5570 
G01 X2.7630 Y1.5617 
G01 X2.7682 Y1.5655 
G01 X2.7741 Y1.5685 
G01 X2.7803 Y1.5705 
G01 X2.7867 Y1.5715 
G01 X2.7933 Y1.5715 
G01 X2.7997 Y1.5705 
G01 X2.8059 Y1.5685 
G01 X2.8118 Y1.5655 
G01 X2.8170 Y1.5617 
G01 X2.8217 Y1.5570 
G01 X2.8255 Y1.5518 
G01 X2.8285 Y1.5459 
G01 X2.8305 Y1.5397 
G01 X2.8315 Y1.5333 
G01 X2.8315 Y1.5267 
G01 X2.8305 Y1.5203 
G01 X2.8285 Y1.5141 
G01 X2.8255 Y1.5082 
G01 X2.8217 Y1.5030 
G01 X2.8170 Y1.4983 
G01 X2.8118 Y1.4945 
G01 X2.8059 Y1.4915 
G01 X2.7997 Y1.4895 
G01 X2.7933 Y1.4885 
G01 X2.7867 Y1.4885 
G01 X2.7803 Y1.4895 
G01 X2.7741 Y1.4915 
G01 X2.7682 Y1.4945 
G01 X2.7630 Y1.4983 
G01 X2.7583 Y1.5030 
G00 Z0.1000 
G00 X2.7583 Y1.6030 
G01 Z-0.0070 F10.00 
G01 X2.7545 Y1.6082 F20.00 
G01 X2.7515 Y1.6141 
G01 X2.7495 Y1.6203 
G01 X2.7485 Y1.6267 
G01 X2.7485 Y1.6333 
G01 X2.7495 Y1.6397 
G01 X2.7515 Y1.6459 
G01 X2.7545 Y1.6518 
G01 X2.7583 Y1.6570 
G01 X2.7630 Y1.6617 
G01 X2.7682 Y1.6655 
G01 X2.7741 Y1.6685 
G01 X2.7803 Y1.6705 
G01 X2.7867 Y1.6715 
G01 X2.7933 Y1.6715 
G01 X2.7997 Y1.6705 
G01 X2.8059 Y1.6685 
G01 X2.8118 Y1.6655 
G01 X2.8170 Y1.6617 
G01 X2.8217 Y1.6570 
G01 X2.8255 Y1.6518 
G01 X2.8285 Y1.6459 
G01 X2.8305 Y1.6397 
G01 X2.8315 Y1.6333 
G01 X2.8315 Y1.6267 
G01 X2.8305 Y1.6203 
G01 X2.8285 Y1.6141 
G01 X2.8255 Y1.6082 
G01 X2.8217 Y1.6030 
G01 X2.8170 Y1.5983 
G01 X2.8118 Y1.5945 
G01 X2.8059 Y1.5915 
G01 X2.7997 Y1.5895 
G01 X2.7933 Y1.5885 
G01 X2.7867 Y1.5885 
G01 X2.7803 Y1.5895 
G01 X2.7741 Y1.5915 
G01 X2.7682 Y1.5945 
G01 X2.7630 Y1.5983 
G01 X2.7583 Y1.6030 
G00 Z0.1000 
G00 X2.7583 Y1.7030 
G01 Z-0.0070 F10.00 
G01 X2.7545 Y1.7082 F20.00 
G01 X2.7515 Y1.7141 
G01 X2.7495 Y1.7203 
G01 X2.7485 Y1.7267 
G01 X2.7485 Y1.7333 
G01 X2.7495 Y1.7397 
G01 X2.7515 Y1.7459 
G01 X2.7545 Y1.7518 
G01 X2.7583 Y1.7570 
G01 X2.7630 Y1.7617 
G01 X2.7682 Y1.7655 
G01 X2.7741 Y1.7685 
G01 X2.7803 Y1.7705 
G01 X2.7867 Y1.7715 
G01 X2.7933 Y1.7715 
G01 X2.7997 Y1.7705 
G01 X2.8059 Y1.7685 
G01 X2.8118 Y1.7655 
G01 X2.8170 Y1.7617 
G01 X2.8217 Y1.7570 
G01 X2.8255 Y1.7518 
G01 X2.8285 Y1.7459 
G01 X2.8305 Y1.7397 
G01 X2.8315 Y1.7333 
G01 X2.8315 Y1.7267 
G01 X2.8305 Y1.7203 
G01 X2.8285 Y1.7141 
G01 X2.8255 Y1.7082 
G01 X2.8217 Y1.7030 
G01 X2.8170 Y1.6983 
G01 X2.8118 Y1.6945 
G01 X2.8059 Y1.6915 
G01 X2.7997 Y1.6895 
G01 X2.7933 Y1.6885 
G01 X2.7867 Y1.6885 
G01 X2.7803 Y1.6895 
G01 X2.7741 Y1.6915 
G01 X2.7682 Y1.6945 
G01 X2.7630 Y1.6983 
G01 X2.7583 Y1.7030 
G00 Z0.1000 
G00 X2.7217 Y1.7030 
G01 Z-0.0070 F10.00 
G01 X2.7170 Y1.6983 F20.00 
G01 X2.7118 Y1.6945 
G01 X2.7059 Y1.6915 
G01 X2.6997 Y1.6895 
G01 X2.6933 Y1.6885 
G01 X2.6867 Y1.6885 
G01 X2.6803 Y1.6895 
G01 X2.6741 Y1.6915 
G01 X2.6682 Y1.6945 
G01 X2.6630 Y1.6983 
G01 X2.6583 Y1.7030 
G01 X2.6545 Y1.7082 
G01 X2.6515 Y1.7141 
G01 X2.6495 Y1.7203 
G01 X2.6485 Y1.7267 
G01 X2.6485 Y1.7333 
G01 X2.6495 Y1.7397 
G01 X2.6515 Y1.7459 
G01 X2.6545 Y1.7518 
G01 X2.6583 Y1.7570 
G01 X2.6630 Y1.7617 
G01 X2.6682 Y1.7655 
G01 X2.6741 Y1.7685 
G01 X2.6803 Y1.7705 
G01 X2.6867 Y1.7715 
G01 X2.6933 Y1.7715 
G01 X2.6997 Y1.7705 
G01 X2.7059 Y1.7685 
G01 X2.7118 Y1.7655 
G01 X2.7170 Y1.7617 
G01 X2.7217 Y1.7570 
G01 X2.7255 Y1.7518 
G01 X2.7285 Y1.7459 
G01 X2.7305 Y1.7397 
G01 X2.7315 Y1.7333 
G01 X2.7315 Y1.7267 
G01 X2.7305 Y1.7203 
G01 X2.7285 Y1.7141 
G01 X2.7255 Y1.7082 
G01 X2.7217 Y1.7030 
G00 Z0.1000 
G00 X2.7583 Y1.8030 
G01 Z-0.0070 F10.00 
G01 X2.7545 Y1.8082 F20.00 
G01 X2.7515 Y1.8141 
G01 X2.7495 Y1.8203 
G01 X2.7485 Y1.8267 
G01 X2.7485 Y1.8333 
G01 X2.7495 Y1.8397 
G01 X2.7515 Y1.8459 
G01 X2.7545 Y1.8518 
G01 X2.7583 Y1.8570 
G01 X2.7630 Y1.8617 
G01 X2.7682 Y1.8655 
G01 X2.7741 Y1.8685 
G01 X2.7803 Y1.8705 
G01 X2.7867 Y1.8715 
G01 X2.7933 Y1.8715 
G01 X2.7997 Y1.8705 
G01 X2.8059 Y1.8685 
G01 X2.8118 Y1.8655 
G01 X2.8170 Y1.8617 
G01 X2.8217 Y1.8570 
G01 X2.8255 Y1.8518 
G01 X2.8285 Y1.8459 
G01 X2.8305 Y1.8397 
G01 X2.8315 Y1.8333 
G01 X2.8315 Y1.8267 
G01 X2.8305 Y1.8203 
G01 X2.8285 Y1.8141 
G01 X2.8255 Y1.8082 
G01 X2.8217 Y1.8030 
G01 X2.8170 Y1.7983 
G01 X2.8118 Y1.7945 
G01 X2.8059 Y1.7915 
G01 X2.7997 Y1.7895 
G01 X2.7933 Y1.7885 
G01 X2.7867 Y1.7885 
G01 X2.7803 Y1.7895 
G01 X2.7741 Y1.7915 
G01 X2.7682 Y1.7945 
G01 X2.7630 Y1.7983 
G01 X2.7583 Y1.8030 
G00 Z0.1000 
G00 X2.7583 Y1.9030 
G01 Z-0.0070 F10.00 
G01 X2.7545 Y1.9082 F20.00 
G01 X2.7515 Y1.9141 
G01 X2.7495 Y1.9203 
G01 X2.7485 Y1.9267 
G01 X2.7485 Y1.9333 
G01 X2.7495 Y1.9397 
G01 X2.7515 Y1.9459 
G01 X2.7545 Y1.9518 
G01 X2.7583 Y1.9570 
G01 X2.7630 Y1.9617 
G01 X2.7682 Y1.9655 
G01 X2.7741 Y1.9685 
G01 X2.7803 Y1.9705 
G01 X2.7867 Y1.9715 
G01 X2.7933 Y1.9715 
G01 X2.7997 Y1.9705 
G01 X2.8059 Y1.9685 
G01 X2.8118 Y1.9655 
G01 X2.8170 Y1.9617 
G01 X2.8217 Y1.9570 
G01 X2.8255 Y1.9518 
G01 X2.8285 Y1.9459 
G01 X2.8305 Y1.9397 
G01 X2.8315 Y1.9333 
G01 X2.8315 Y1.9267 
G01 X2.8305 Y1.9203 
G01 X2.8285 Y1.9141 
G01 X2.8255 Y1.9082 
G01 X2.8217 Y1.9030 
G01 X2.8170 Y1.8983 
G01 X2.8118 Y1.8945 
G01 X2.8059 Y1.8915 
G01 X2.7997 Y1.8895 
G01 X2.7933 Y1.8885 
G01 X2.7867 Y1.8885 
G01 X2.7803 Y1.8895 
G01 X2.7741 Y1.8915 
G01 X2.7682 Y1.8945 
G01 X2.7630 Y1.8983 
G01 X2.7583 Y1.9030 
G00 Z0.1000 
G00 X2.7370 Y2.1183 
G01 Z-0.0070 F10.00 
G01 X2.7318 Y2.1145 F20.00 
G01 X2.7259 Y2.1115 
G01 X2.7197 Y2.1095 
G01 X2.7133 Y2.1085 
G01 X2.7067 Y2.1085 
G01 X2.7003 Y2.1095 
G01 X2.6941 Y2.1115 
G01 X2.6882 Y2.1145 
G01 X2.6830 Y2.1183 
G01 X2.6783 Y2.1230 
G01 X2.6745 Y2.1282 
G01 X2.6715 Y2.1341 
G01 X2.6695 Y2.1403 
G01 X2.6685 Y2.1467 
G01 X2.6685 Y2.1533 
G01 X2.6695 Y2.1597 
G01 X2.6715 Y2.1659 
G01 X2.6745 Y2.1718 
G01 X2.6783 Y2.1770 
G01 X2.6830 Y2.1817 
G01 X2.6882 Y2.1855 
G01 X2.6941 Y2.1885 
G01 X2.7003 Y2.1905 
G01 X2.7067 Y2.1915 
G01 X2.7133 Y2.1915 
G01 X2.7197 Y2.1905 
G01 X2.7259 Y2.1885 
G01 X2.7318 Y2.1855 
G01 X2.7370 Y2.1817 
G01 X2.7417 Y2.1770 
G01 X2.7455 Y2.1718 
G01 X2.7485 Y2.1659 
G01 X2.7505 Y2.1597 
G01 X2.7515 Y2.1533 
G01 X2.7515 Y2.1467 
G01 X2.7505 Y2.1403 
G01 X2.7485 Y2.1341 
G01 X2.7455 Y2.1282 
G01 X2.7417 Y2.1230 
G01 X2.7370 Y2.1183 
G00 Z0.1000 
G00 X2.7783 Y2.1230 
G01 Z-0.0070 F10.00 
G01 X2.7745 Y2.1282 F20.00 
G01 X2.7715 Y2.1341 
G01 X2.7695 Y2.1403 
G01 X2.7685 Y2.1467 
G01 X2.7685 Y2.1533 
G01 X2.7695 Y2.1597 
G01 X2.7715 Y2.1659 
G01 X2.7745 Y2.1718 
G01 X2.7783 Y2.1770 
G01 X2.7830 Y2.1817 
G01 X2.7882 Y2.1855 
G01 X2.7941 Y2.1885 
G01 X2.8003 Y2.1905 
G01 X2.8067 Y2.1915 
G01 X2.8133 Y2.1915 
G01 X2.8197 Y2.1905 
G01 X2.8259 Y2.1885 
G01 X2.8318 Y2.1855 
G01 X2.8370 Y2.1817 
G01 X2.8417 Y2.1770 
G01 X2.8455 Y2.1718 
G01 X2.8485 Y2.1659 
G01 X2.8505 Y2.1597 
G01 X2.8515 Y2.1533 
G01 X2.8515 Y2.1467 
G01 X2.8505 Y2.1403 
G01 X2.8485 Y2.1341 
G01 X2.8455 Y2.1282 
G01 X2.8417 Y2.1230 
G01 X2.8370 Y2.1183 
G01 X2.8318 Y2.1145 
G01 X2.8259 Y2.1115 
G01 X2.8197 Y2.1095 
G01 X2.8133 Y2.1085 
G01 X2.8067 Y2.1085 
G01 X2.8003 Y2.1095 
G01 X2.7941 Y2.1115 
G01 X2.7882 Y2.1145 
G01 X2.7830 Y2.1183 
G01 X2.7783 Y2.1230 
G00 Z0.1000 
G00 X2.6417 Y2.1230 
G01 Z-0.0070 F10.00 
G01 X2.6370 Y2.1183 F20.00 
G01 X2.6318 Y2.1145 
G01 X2.6259 Y2.1115 
G01 X2.6197 Y2.1095 
G01 X2.6133 Y2.1085 
G01 X2.6067 Y2.1085 
G01 X2.6003 Y2.1095 
G01 X2.5941 Y2.1115 
G01 X2.5882 Y2.1145 
G01 X2.5830 Y2.1183 
G01 X2.5783 Y2.1230 
G01 X2.5745 Y2.1282 
G01 X2.5715 Y2.1341 
G01 X2.5695 Y2.1403 
G01 X2.5685 Y2.1467 
G01 X2.5685 Y2.1533 
G01 X2.5695 Y2.1597 
G01 X2.5715 Y2.1659 
G01 X2.5745 Y2.1718 
G01 X2.5783 Y2.1770 
G01 X2.5830 Y2.1817 
G01 X2.5882 Y2.1855 
G01 X2.5941 Y2.1885 
G01 X2.6003 Y2.1905 
G01 X2.6067 Y2.1915 
G01 X2.6133 Y2.1915 
G01 X2.6197 Y2.1905 
G01 X2.6259 Y2.1885 
G01 X2.6318 Y2.1855 
G01 X2.6370 Y2.1817 
G01 X2.6417 Y2.1770 
G01 X2.6455 Y2.1718 
G01 X2.6485 Y2.1659 
G01 X2.6505 Y2.1597 
G01 X2.6515 Y2.1533 
G01 X2.6515 Y2.1467 
G01 X2.6505 Y2.1403 
G01 X2.6485 Y2.1341 
G01 X2.6455 Y2.1282 
G01 X2.6417 Y2.1230 
G00 Z0.1000 
G00 X2.5417 Y2.1230 
G01 Z-0.0070 F10.00 
G01 X2.5370 Y2.1183 F20.00 
G01 X2.5318 Y2.1145 
G01 X2.5259 Y2.1115 
G01 X2.5197 Y2.1095 
G01 X2.5133 Y2.1085 
G01 X2.5067 Y2.1085 
G01 X2.5003 Y2.1095 
G01 X2.4941 Y2.1115 
G01 X2.4882 Y2.1145 
G01 X2.4830 Y2.1183 
G01 X2.4783 Y2.1230 
G01 X2.4745 Y2.1282 
G01 X2.4715 Y2.1341 
G01 X2.4695 Y2.1403 
G01 X2.4685 Y2.1467 
G01 X2.4685 Y2.1533 
G01 X2.4695 Y2.1597 
G01 X2.4715 Y2.1659 
G01 X2.4745 Y2.1718 
G01 X2.4783 Y2.1770 
G01 X2.4830 Y2.1817 
G01 X2.4882 Y2.1855 
G01 X2.4941 Y2.1885 
G01 X2.5003 Y2.1905 
G01 X2.5067 Y2.1915 
G01 X2.5133 Y2.1915 
G01 X2.5197 Y2.1905 
G01 X2.5259 Y2.1885 
G01 X2.5318 Y2.1855 
G01 X2.5370 Y2.1817 
G01 X2.5417 Y2.1770 
G01 X2.5455 Y2.1718 
G01 X2.5485 Y2.1659 
G01 X2.5505 Y2.1597 
G01 X2.5515 Y2.1533 
G01 X2.5515 Y2.1467 
G01 X2.5505 Y2.1403 
G01 X2.5485 Y2.1341 
G01 X2.5455 Y2.1282 
G01 X2.5417 Y2.1230 
G00 Z0.1000 
G00 X2.4417 Y2.1230 
G01 Z-0.0070 F10.00 
G01 X2.4370 Y2.1183 F20.00 
G01 X2.4318 Y2.1145 
G01 X2.4259 Y2.1115 
G01 X2.4197 Y2.1095 
G01 X2.4133 Y2.1085 
G01 X2.4067 Y2.1085 
G01 X2.4003 Y2.1095 
G01 X2.3941 Y2.1115 
G01 X2.3882 Y2.1145 
G01 X2.3830 Y2.1183 
G01 X2.3783 Y2.1230 
G01 X2.3745 Y2.1282 
G01 X2.3715 Y2.1341 
G01 X2.3695 Y2.1403 
G01 X2.3685 Y2.1467 
G01 X2.3685 Y2.1533 
G01 X2.3695 Y2.1597 
G01 X2.3715 Y2.1659 
G01 X2.3745 Y2.1718 
G01 X2.3783 Y2.1770 
G01 X2.3830 Y2.1817 
G01 X2.3882 Y2.1855 
G01 X2.3941 Y2.1885 
G01 X2.4003 Y2.1905 
G01 X2.4067 Y2.1915 
G01 X2.4133 Y2.1915 
G01 X2.4197 Y2.1905 
G01 X2.4259 Y2.1885 
G01 X2.4318 Y2.1855 
G01 X2.4370 Y2.1817 
G01 X2.4417 Y2.1770 
G01 X2.4455 Y2.1718 
G01 X2.4485 Y2.1659 
G01 X2.4505 Y2.1597 
G01 X2.4515 Y2.1533 
G01 X2.4515 Y2.1467 
G01 X2.4505 Y2.1403 
G01 X2.4485 Y2.1341 
G01 X2.4455 Y2.1282 
G01 X2.4417 Y2.1230 
G00 Z0.1000 
G00 X2.3417 Y2.1230 
G01 Z-0.0070 F10.00 
G01 X2.3370 Y2.1183 F20.00 
G01 X2.3318 Y2.1145 
G01 X2.3259 Y2.1115 
G01 X2.3197 Y2.1095 
G01 X2.3133 Y2.1085 
G01 X2.3067 Y2.1085 
G01 X2.3003 Y2.1095 
G01 X2.2941 Y2.1115 
G01 X2.2882 Y2.1145 
G01 X2.2830 Y2.1183 
G01 X2.2783 Y2.1230 
G01 X2.2745 Y2.1282 
G01 X2.2715 Y2.1341 
G01 X2.2695 Y2.1403 
G01 X2.2685 Y2.1467 
G01 X2.2685 Y2.1533 
G01 X2.2695 Y2.1597 
G01 X2.2715 Y2.1659 
G01 X2.2745 Y2.1718 
G01 X2.2783 Y2.1770 
G01 X2.2830 Y2.1817 
G01 X2.2882 Y2.1855 
G01 X2.2941 Y2.1885 
G01 X2.3003 Y2.1905 
G01 X2.3067 Y2.1915 
G01 X2.3133 Y2.1915 
G01 X2.3197 Y2.1905 
G01 X2.3259 Y2.1885 
G01 X2.3318 Y2.1855 
G01 X2.3370 Y2.1817 
G01 X2.3417 Y2.1770 
G01 X2.3455 Y2.1718 
G01 X2.3485 Y2.1659 
G01 X2.3505 Y2.1597 
G01 X2.3515 Y2.1533 
G01 X2.3515 Y2.1467 
G01 X2.3505 Y2.1403 
G01 X2.3485 Y2.1341 
G01 X2.3455 Y2.1282 
G01 X2.3417 Y2.1230 
G00 Z0.1000 
G00 X2.2417 Y2.1230 
G01 Z-0.0070 F10.00 
G01 X2.2370 Y2.1183 F20.00 
G01 X2.2318 Y2.1145 
G01 X2.2259 Y2.1115 
G01 X2.2197 Y2.1095 
G01 X2.2133 Y2.1085 
G01 X2.2067 Y2.1085 
G01 X2.2003 Y2.1095 
G01 X2.1941 Y2.1115 
G01 X2.1882 Y2.1145 
G01 X2.1830 Y2.1183 
G01 X2.1783 Y2.1230 
G01 X2.1745 Y2.1282 
G01 X2.1715 Y2.1341 
G01 X2.1695 Y2.1403 
G01 X2.1685 Y2.1467 
G01 X2.1685 Y2.1533 
G01 X2.1695 Y2.1597 
G01 X2.1715 Y2.1659 
G01 X2.1745 Y2.1718 
G01 X2.1783 Y2.1770 
G01 X2.1830 Y2.1817 
G01 X2.1882 Y2.1855 
G01 X2.1941 Y2.1885 
G01 X2.2003 Y2.1905 
G01 X2.2067 Y2.1915 
G01 X2.2133 Y2.1915 
G01 X2.2197 Y2.1905 
G01 X2.2259 Y2.1885 
G01 X2.2318 Y2.1855 
G01 X2.2370 Y2.1817 
G01 X2.2417 Y2.1770 
G01 X2.2455 Y2.1718 
G01 X2.2485 Y2.1659 
G01 X2.2505 Y2.1597 
G01 X2.2515 Y2.1533 
G01 X2.2515 Y2.1467 
G01 X2.2505 Y2.1403 
G01 X2.2485 Y2.1341 
G01 X2.2455 Y2.1282 
G01 X2.2417 Y2.1230 
G00 Z0.1000 
G00 X2.1417 Y2.1230 
G01 Z-0.0070 F10.00 
G01 X2.1370 Y2.1183 F20.00 
G01 X2.1318 Y2.1145 
G01 X2.1259 Y2.1115 
G01 X2.1197 Y2.1095 
G01 X2.1133 Y2.1085 
G01 X2.1067 Y2.1085 
G01 X2.1003 Y2.1095 
G01 X2.0941 Y2.1115 
G01 X2.0882 Y2.1145 
G01 X2.0830 Y2.1183 
G01 X2.0783 Y2.1230 
G01 X2.0745 Y2.1282 
G01 X2.0715 Y2.1341 
G01 X2.0695 Y2.1403 
G01 X2.0685 Y2.1467 
G01 X2.0685 Y2.1533 
G01 X2.0695 Y2.1597 
G01 X2.0715 Y2.1659 
G01 X2.0745 Y2.1718 
G01 X2.0783 Y2.1770 
G01 X2.0830 Y2.1817 
G01 X2.0882 Y2.1855 
G01 X2.0941 Y2.1885 
G01 X2.1003 Y2.1905 
G01 X2.1067 Y2.1915 
G01 X2.1133 Y2.1915 
G01 X2.1197 Y2.1905 
G01 X2.1259 Y2.1885 
G01 X2.1318 Y2.1855 
G01 X2.1370 Y2.1817 
G01 X2.1417 Y2.1770 
G01 X2.1455 Y2.1718 
G01 X2.1485 Y2.1659 
G01 X2.1505 Y2.1597 
